/* XPM */
static char * icon_xpm[] = {
"48 48 244 2",
"  	c None",
" !	c #FFFFFF",
" #	c #FFFFFD",
" $	c #FEFEFE",
" %	c #FFFEFF",
" &	c #FEFFFF",
" '	c #FEFFFD",
" (	c #FDFEFF",
" )	c #FFFEFD",
" *	c #FFFDFF",
" +	c #FFFDFE",
" ,	c #FBFFFC",
" -	c #FEFEFF",
" .	c #FCFFFF",
" /	c #FCFFFD",
" 0	c #E6EAF6",
" 1	c #FBFFFE",
" 2	c #FBFFFB",
" 3	c #FFFFFB",
" 4	c #569BD2",
" 5	c #025EB5",
" 6	c #1773BC",
" 7	c #B7D6F2",
" 8	c #FDFFFE",
" 9	c #4995CF",
" :	c #004CAC",
" ;	c #0167B9",
" <	c #005AB3",
" =	c #015DB4",
" >	c #B0D5ED",
" ?	c #559CD4",
" @	c #0053AF",
" A	c #006EBE",
" B	c #0069B7",
" C	c #0273BF",
" D	c #0165BA",
" E	c #4595D0",
" F	c #004DA9",
" G	c #0161B7",
" H	c #3992CC",
" I	c #CBE1F1",
" J	c #89BEE0",
" K	c #0164B9",
" L	c #0064B5",
" M	c #0059B4",
" N	c #ADD3EA",
" O	c #FBFDFB",
" P	c #E3F5CB",
" Q	c #65A6E0",
" R	c #0054B1",
" S	c #8BBDE0",
" T	c #015FB7",
" U	c #0375BD",
" V	c #0063B7",
" W	c #025CB4",
" X	c #AED4EB",
" Y	c #FFFCF9",
" Z	c #FFAB48",
" [	c #FEBE52",
" ]	c #9ADA7A",
" ^	c #59BC15",
" _	c #FDFFB3",
" `	c #96C1ED",
" a	c #0144AC",
" b	c #BFDBF1",
" c	c #D3E7F4",
" d	c #0054AE",
" e	c #0274BD",
" f	c #0371BE",
" g	c #0076C0",
" h	c #0062B8",
" i	c #015CB5",
" j	c #FCB950",
" k	c #F75677",
" l	c #FFA1BA",
" m	c #A7CCF1",
" n	c #0049AA",
" o	c #CEE4F2",
" p	c #81B8DD",
" q	c #0257B4",
" r	c #0372C1",
" s	c #0470BB",
" t	c #0476BC",
" u	c #005EB5",
" v	c #C4DDF1",
" w	c #FFFEFC",
" x	c #F30130",
" y	c #FDFFDE",
" z	c #004EB0",
" {	c #C9E1F1",
" |	c #64A7D5",
" }	c #0173BB",
" ~	c #0071BF",
"! 	c #0272BE",
"!!	c #0074C1",
"!#	c #0251AF",
"!$	c #3D93CE",
"!%	c #FDFFFC",
"!&	c #B9AFC7",
"!'	c #AAB3CF",
"!(	c #FA7891",
"!)	c #F40121",
"!*	c #F51031",
"!+	c #FEB6BF",
"!,	c #C5FAFF",
"!-	c #AFD3EB",
"!.	c #0D6CBA",
"!/	c #C9E3F0",
"!0	c #5EA4D5",
"!1	c #006EBB",
"!2	c #0374C0",
"!3	c #014FAF",
"!4	c #4197D0",
"!5	c #FEFEFC",
"!6	c #ADA5BC",
"!7	c #6CF2FD",
"!8	c #1087D6",
"!9	c #D7E7F3",
"!:	c #013FA6",
"!;	c #C8E2F1",
"!<	c #92C0E1",
"!=	c #0238A5",
"!>	c #0065B7",
"!?	c #0161B5",
"!@	c #FEFDFF",
"!A	c #3BA7E1",
"!B	c #B9EEFE",
"!C	c #609FD2",
"!D	c #0050AE",
"!E	c #58A0D2",
"!F	c #84AAD9",
"!G	c #C5DFF1",
"!H	c #74B3DB",
"!I	c #B2D8ED",
"!J	c #F4FCFF",
"!K	c #2F84C4",
"!L	c #005FB5",
"!M	c #77B0DB",
"!N	c #E1F4FA",
"!O	c #D7E9F5",
"!P	c #8EC0E3",
"!Q	c #3C86C7",
"!R	c #A5D0E8",
"!S	c #FCFAFB",
"!T	c #3189C9",
"!U	c #0253AF",
"!V	c #0071BD",
"!W	c #005DB4",
"!X	c #0147A9",
"!Y	c #9FCCE7",
"!Z	c #4B96CE",
"![	c #0271C0",
"!]	c #0172BE",
"!^	c #FFFEFA",
"!_	c #004FB0",
"!`	c #006CBA",
"!a	c #81BBE0",
"!b	c #589BCF",
"!c	c #005CB4",
"!d	c #0060B6",
"!e	c #81B9DE",
"!f	c #D3E3F2",
"!g	c #DBECF6",
"!h	c #FCFEFD",
"!i	c #FEFFFA",
"!j	c #FFFDFB",
"!k	c #71A3D4",
"!l	c #8ABFE0",
"!m	c #73ADDA",
"!n	c #D9EBF6",
"!o	c #84AEDA",
"!p	c #8BC0E2",
"!q	c #91BEE5",
"!r	c #93C4E4",
"!s	c #CEE5F3",
"!t	c #99C4E4",
"!u	c #0D77C1",
"!v	c #2081C4",
"!w	c #1F77C1",
"!x	c #BEDBED",
"!y	c #4295CB",
"!z	c #2B7EC4",
"!{	c #0171BD",
"!|	c #2285C9",
"!}	c #3790CC",
"!~	c #167BC4",
"# 	c #368FCC",
"#!	c #0164B7",
"##	c #4998D0",
"#$	c #DFEDF6",
"#%	c #6BA9D7",
"#&	c #71B0D9",
"#'	c #7DB6DE",
"#(	c #EFF9FA",
"#)	c #489AD2",
"#*	c #2D8ACA",
"#+	c #328CCB",
"#,	c #3E92CE",
"#-	c #BDDAEC",
"#.	c #4499CF",
"#/	c #318ECB",
"#0	c #4697CF",
"#1	c #3A89CB",
"#2	c #D3E4F4",
"#3	c #448BCA",
"#4	c #60A7DA",
"#5	c #70B1DB",
"#6	c #84BCDF",
"#7	c #4594CF",
"#8	c #59A1D3",
"#9	c #3E90CC",
"#:	c #BCDBEF",
"#;	c #348DCC",
"#<	c #2A86C6",
"#=	c #2D81C1",
"#>	c #E0ECF8",
"#?	c #489BCF",
"#@	c #90C2E5",
"#A	c #BDD7ED",
"#B	c #78B6DF",
"#C	c #368DD0",
"#D	c #54A0D2",
"#E	c #4393CD",
"#F	c #3E98CD",
"#G	c #DAEBF5",
"#H	c #DFEEF5",
"#I	c #3A94CE",
"#J	c #CFE5F0",
"#K	c #62A5D9",
"#L	c #2E8CCA",
"#M	c #4490CC",
"#N	c #2587C4",
"#O	c #137CC0",
"#P	c #E7F4FA",
"#Q	c #DCEDF4",
"#R	c #E7F2F8",
"#S	c #E9F2F9",
"#T	c #E1EEF7",
"#U	c #F6F9FC",
"#V	c #DAEDF4",
"#W	c #DCEAF7",
"#X	c #EBF4FB",
"#Y	c #FFFCFF",
"#Z	c #FEFFFB",
" ! ! ! ! ! ! ! ! ! ! ! ! ! ! ! ! ! ! ! ! ! ! ! ! ! ! ! ! ! ! ! ! ! ! ! ! ! ! ! ! ! ! ! ! ! ! ! !",
" ! ! ! ! ! ! ! ! ! ! ! ! ! ! ! ! ! ! ! ! ! ! ! ! ! ! ! ! ! ! ! ! ! ! ! ! ! ! ! ! ! ! ! ! ! ! ! !",
" ! ! ! ! ! ! ! ! ! ! ! ! ! ! ! ! ! ! ! ! ! ! ! ! ! ! ! ! ! ! ! ! ! ! ! ! ! ! ! ! ! ! ! ! ! ! ! !",
" ! ! ! ! ! ! ! ! ! ! ! ! ! ! ! ! ! ! ! ! ! ! ! ! ! ! ! ! ! ! ! ! ! ! ! ! ! ! ! ! ! ! ! ! ! ! ! !",
" ! ! ! ! ! ! ! ! ! ! ! ! ! ! ! ! ! ! ! ! ! ! ! ! ! ! ! ! ! ! ! ! ! ! ! ! ! ! ! ! ! ! ! ! ! ! ! !",
" ! ! ! ! ! ! ! ! ! ! ! ! ! ! ! ! ! ! ! ! ! ! ! ! ! ! ! ! ! ! ! ! ! ! ! ! ! ! ! ! ! ! ! ! ! ! ! !",
" ! ! ! ! ! ! ! ! ! ! ! ! ! ! ! ! ! ! ! ! ! ! ! ! ! ! ! ! ! ! ! ! ! ! ! ! ! ! ! ! ! ! ! ! ! ! ! !",
" ! ! ! ! ! ! ! ! ! ! ! ! ! ! ! ! ! ! ! ! ! ! ! ! ! ! ! ! ! ! ! ! ! ! ! ! ! ! ! ! ! ! ! ! ! ! ! !",
" ! ! ! ! ! ! ! ! ! ! ! ! ! ! ! ! # $ ! ! % & ' ! # # & # $ ! % ! ! ! ! ! ! ! ! ! ! ! ! ! ! ! ! !",
" ! ! ! ! ! ! ! ! ! ! ! ! ! ! ! ! & # ( ' ) ! # % % ! ! * # + # , ! ! ! ! ! ! ! ! ! ! ! ! ! ! ! !",
" ! ! ! ! ! ! ! ! ! ! ! ! ! ! ! ! ! - ! ! . % ! # / ! % ! $ . $ ! ! ! ! ! ! ! ! ! ! ! ! ! ! ! ! !",
" ! ! ! ! ! ! ! ! ! ! ! ! ! ! ! ! % / % ' * ! & ! ! 0 1 $ # ! 2 * ! ! ! ! ! ! ! ! ! ! ! ! ! ! ! !",
" ! ! ! ! ! ! ! ! ! ! ! ! ! ! ! ! ! # ' - 3 # ! & 4 5 6 7 ! 8 ! ! ! ! ! ! ! ! ! ! ! ! ! ! ! ! ! !",
" ! ! ! ! ! ! ! ! ! ! ! ! ! ! ! ! ! & ! % ! % & 9 : ; < = > # & % ! ! ! ! ! ! ! ! ! ! ! ! ! ! ! !",
" ! ! ! ! ! ! ! ! ! ! ! ! ! ! ! ! & # ! % 3 & ? @ A B C D < > % ' ! ! ! ! ! ! ! ! ! ! ! ! ! ! ! !",
" ! ! ! ! ! ! ! ! ! ! ! ! ! ! ! ! ! ! # ! ! E F G H I J K L M N ! ! ! ! ! ! ! ! ! ! ! ! ! ! ! ! !",
" ! ! ! ! ! ! ! ! ! 3 ! 8 & ! # & % & & O P Q M R S ! H T U V W X & ! ! ! & ' ! ! ! ! ! ! ! ! ! !",
" ! ! ! ! ! ! ! ! $ & & ! ! / Y Z [ ! - ] ^ _ ` a b c d e f g h i X ! # % ! % $ ! ! ! ! ! ! ! ! !",
" ! ! ! ! ! ! ! ! & % - % # % Y [ j k l ] ^ _ m n o p q e r s t h u v $ % w ! ! ' ! ! ! ! ! ! ! !",
" ! ! ! ! ! ! ! ! & % & % ! ! ! 8 k x x l y ` z L { | u } ~ r! !!!#!$ # # ! - % ! ! ! ! ! ! ! ! !",
" ! ! ! ! ! ! ! ! # #!% 3 ' %!&!'!(!)!*!+!,!-!. i!/!0 5!1 T!1 }!2!3!4 #!5 ! ! % ! ! ! ! ! ! ! ! !",
" ! ! ! ! ! ! ! ! ! % # ! & %!6!' w!(!+!7!8!,!9!:!;!<!=!> | t!  5!?!; ! % w ! #!% ! ! ! ! ! ! ! !",
" ! ! ! ! ! ! ! ! & ! ! * & ' ! $ # !!@ m!A!B!C!D!E )!F!G '!H : <!I #!5 % ! % ! ! ! ! ! ! ! ! ! !",
" ! ! ! ! ! ! ! ! # ! ! # % # ( & & # ! '!J!K d C!L!M!N!O!P!Q z!R & ! ! $ & & ! ! ! ! ! ! ! ! ! !",
" ! ! ! ! ! ! ! ! # ! %!5 & & ! ! ! ' % &!S!T!U!!!V!W L K!D!X!Y % ! 8 # - # ! ! ' ! ! ! ! ! ! ! !",
" ! ! ! ! ! ! ! ! ! ! ! ! ! ! ! ! ! $ # & # /!Z!#![!V!] ; @!P & & % #!^ ! & # $ # ! ! ! ! ! ! ! !",
" ! ! ! ! ! ! ! ! & ! # ! ! & $ # ! ! ! # & ! %!Z!_!` D!U!a ! 3 & ! + & & & & # ! ! ! ! ! ! ! ! !",
" ! ! ! ! ! ! ! ! ) $ & & ! ! ! # % ! # ' ! - ! 3!b!c!d!e + % %!5 - !!5 ! # 8 % & ! ! ! ! ! ! ! !",
" ! ! ! ! ! ! ! ! + & & $ ! 8 & & ! ! * $ % ' ! ! &!f!g % ! ! + & !!h # % # # ! # ! ! ! ! ! ! ! !",
" ! ! ! ! ! ! ! ! ! ! # ! ! 3 3 ! ! ' + !!i % & % ! ! $ ! & & % % & # & - ! ' & % ! ! ! ! ! ! ! !",
" ! ! ! ! ! ! ! ! & ! ! &!j &!G!k!l!R!e!m!n!Y!o!l!p!o!q ' c!r!;!<!R!s $ # ! ! # & ! ! ! ! ! ! ! !",
" ! ! ! ! ! ! ! ! # % $ & % .!t 6!u!v!u!w!x!y!z!{ A!v!|!5!}!~#  G#!## & & ! % # # ! ! ! ! ! ! ! !",
" ! ! ! ! ! ! ! ! ! % & ' ! !#$#%#&# #'!m#(#)#) 4###*## 8#*#+!v!~ s#, & ' ! ! 3 ! ! ! ! ! ! ! ! !",
" ! ! ! ! ! ! ! ! ! $ ! ! % !#-!K#.#/#0#1#2!M#3#4#5#3#6 3#7#8!0#9!Q#' % # ! ! ! ! ! ! ! ! ! ! ! !",
" ! ! ! ! ! ! ! ! ! ' %!5 ! %#:!z#;#< H#=#>!r!`#?#@#A | +#B#C#D#E#E!H % ! * & ! # ! ! ! ! ! ! ! !",
" ! ! ! ! ! ! ! ! ! 8 ! % ! !#:#F#G#4#H#I#J#K#L#<#M#8#N %!r#O!}#L#;#D ! + !!5 ( & ! ! ! ! ! ! ! !",
" ! ! ! ! ! ! ! ! ! ' % &!i &!O#P ##Q !#R!n#S!5 I#A v#T &#U#G#U#V#W#X & & ! % 3 ! ! ! ! ! ! ! ! !",
" ! ! ! ! ! ! ! ! % - # ! # 3 ! % ! ! # - & # # ! ! & % ' ! % & ! ! # ! # 1 %#Y & ! ! ! ! ! ! ! !",
" ! ! ! ! ! ! ! ! 8 ! ! ! & & % * & % & ' # ! ! ! & # % ! % % ! % ' # ! % # 8 ) ( ! ! ! ! ! ! ! !",
" ! ! ! ! ! ! ! ! ! # % $ # % !#Z ! & & + !#Z & # $ ! ! % ( ' , % ! % ! ! 8 # & # ! ! ! ! ! ! ! !",
" ! ! ! ! ! ! ! ! ! ! ! ! ! ! ! ! ! ! ! ! ! ! ! ! ! ! ! ! ! ! ! ! ! ! ! ! ! ! ! ! ! ! ! ! ! ! ! !",
" ! ! ! ! ! ! ! ! ! ! ! ! ! ! ! ! ! ! ! ! ! ! ! ! ! ! ! ! ! ! ! ! ! ! ! ! ! ! ! ! ! ! ! ! ! ! ! !",
" ! ! ! ! ! ! ! ! ! ! ! ! ! ! ! ! ! ! ! ! ! ! ! ! ! ! ! ! ! ! ! ! ! ! ! ! ! ! ! ! ! ! ! ! ! ! ! !",
" ! ! ! ! ! ! ! ! ! ! ! ! ! ! ! ! ! ! ! ! ! ! ! ! ! ! ! ! ! ! ! ! ! ! ! ! ! ! ! ! ! ! ! ! ! ! ! !",
" ! ! ! ! ! ! ! ! ! ! ! ! ! ! ! ! ! ! ! ! ! ! ! ! ! ! ! ! ! ! ! ! ! ! ! ! ! ! ! ! ! ! ! ! ! ! ! !",
" ! ! ! ! ! ! ! ! ! ! ! ! ! ! ! ! ! ! ! ! ! ! ! ! ! ! ! ! ! ! ! ! ! ! ! ! ! ! ! ! ! ! ! ! ! ! ! !",
" ! ! ! ! ! ! ! ! ! ! ! ! ! ! ! ! ! ! ! ! ! ! ! ! ! ! ! ! ! ! ! ! ! ! ! ! ! ! ! ! ! ! ! ! ! ! ! !",
" ! ! ! ! ! ! ! ! ! ! ! ! ! ! ! ! ! ! ! ! ! ! ! ! ! ! ! ! ! ! ! ! ! ! ! ! ! ! ! ! ! ! ! ! ! ! ! !"
};
