/* XPM */
static char * logo_xpm[] = {
"128 128 243 2",
"  	c None",
" !	c #FFFFFF",
" #	c #FFFFFE",
" $	c #FEFFFF",
" %	c #FEFEFE",
" &	c #FDFEFF",
" '	c #FFFFFD",
" (	c #FDFFFF",
" )	c #FFFEFF",
" *	c #FFFDFE",
" +	c #FDFFFD",
" ,	c #FFFEFD",
" -	c #FEFEFC",
" .	c #FDFEFE",
" /	c #FCFDFE",
" 0	c #FBFCFE",
" 1	c #FBFCFD",
" 2	c #FAFCFD",
" 3	c #FBFDFE",
" 4	c #FCFCFE",
" 5	c #FCFEFE",
" 6	c #FEFFFE",
" 7	c #FFFEFC",
" 8	c #FAFDFE",
" 9	c #F9FCFD",
" :	c #FAFCFE",
" ;	c #FEFEFD",
" <	c #E7F2F4",
" =	c #C9E3F2",
" >	c #BCDCEF",
" ?	c #ABD2EA",
" @	c #B3D4EB",
" A	c #D2E3F1",
" B	c #F7FCFE",
" C	c #F5FDFE",
" D	c #68A5D6",
" E	c #3980C4",
" F	c #1B6FBC",
" G	c #106DBB",
" H	c #0369BA",
" I	c #0065B9",
" J	c #2877C0",
" K	c #5492CC",
" L	c #8ABBDF",
" M	c #FEFEFF",
" N	c #FFFEFE",
" O	c #8FC1E3",
" P	c #3A85C6",
" Q	c #0D64B7",
" R	c #0060B6",
" S	c #0068B9",
" T	c #026EBC",
" U	c #0069BA",
" V	c #0066B9",
" W	c #0063B7",
" X	c #005EB5",
" Y	c #1C6BBA",
" Z	c #5799D0",
" [	c #C0E3F3",
" ]	c #FCFDFD",
" ^	c #FEFFFD",
" _	c #FEFDFF",
" `	c #0058B2",
" a	c #006ABA",
" b	c #0571BF",
" c	c #0577C0",
" d	c #0476C0",
" e	c #0575C0",
" f	c #0374BF",
" g	c #0375BF",
" h	c #0274BF",
" i	c #0574BF",
" j	c #056EBD",
" k	c #0067B9",
" l	c #005CB4",
" m	c #1365B8",
" n	c #99C6E5",
" o	c #0275BF",
" p	c #0172BE",
" q	c #0272BF",
" r	c #0272BE",
" s	c #0371BE",
" t	c #0373BF",
" u	c #0072BF",
" v	c #0171BD",
" w	c #0372BE",
" x	c #0273BF",
" y	c #0475BE",
" z	c #0055AF",
" {	c #FDFFFE",
" |	c #FFFFFC",
" }	c #FCFDFF",
" ~	c #79B2DB",
"! 	c #0054B0",
"!!	c #0372BF",
"!#	c #0272C0",
"!$	c #0171BF",
"!%	c #0373BD",
"!&	c #005BB2",
"!'	c #FDFDFE",
"!(	c #FDFEFD",
"!)	c #FEFBFC",
"!*	c #4792CC",
"!+	c #0052B0",
"!,	c #006EBD",
"!-	c #0373BE",
"!.	c #0372C0",
"!/	c #0172BD",
"!0	c #0073BE",
"!1	c #0472BF",
"!2	c #0173BD",
"!3	c #0373C1",
"!4	c #0176BF",
"!5	c #75A3CE",
"!6	c #EBF8FB",
"!7	c #0055B1",
"!8	c #0777C0",
"!9	c #0173BE",
"!:	c #0272BB",
"!;	c #0172BF",
"!<	c #0271BD",
"!=	c #0272BD",
"!>	c #0170BD",
"!?	c #0276BF",
"!@	c #0470BD",
"!A	c #4288C8",
"!B	c #0478C1",
"!C	c #0171BE",
"!D	c #0371BC",
"!E	c #0173BC",
"!F	c #0271C0",
"!G	c #0273BE",
"!H	c #0272BC",
"!I	c #0173BF",
"!J	c #FBFDFD",
"!K	c #0271BE",
"!L	c #0172BC",
"!M	c #0271C1",
"!N	c #0573BF",
"!O	c #0372BD",
"!P	c #0373BC",
"!Q	c #0062B7",
"!R	c #DCF0F9",
"!S	c #0270BE",
"!T	c #0271BF",
"!U	c #0273BC",
"!V	c #0273BD",
"!W	c #0371BF",
"!X	c #0273C0",
"!Y	c #036FBD",
"!Z	c #F9FBFD",
"![	c #FEFFFC",
"!]	c #0056B1",
"!^	c #0372BB",
"!_	c #0271BC",
"!`	c #0059B2",
"!a	c #0D5FB5",
"!b	c #0472BD",
"!c	c #0071BD",
"!d	c #0074BF",
"!e	c #0457B2",
"!f	c #F3FBFB",
"!g	c #FDFDFD",
"!h	c #0576C0",
"!i	c #0371BD",
"!j	c #0371C0",
"!k	c #0171BC",
"!l	c #DBEAF4",
"!m	c #0172C0",
"!n	c #0174BC",
"!o	c #0061B6",
"!p	c #0065B7",
"!q	c #005AB3",
"!r	c #FBFCFB",
"!s	c #006CBC",
"!t	c #1276C0",
"!u	c #2D85C6",
"!v	c #2D7CC2",
"!w	c #0374BC",
"!x	c #0277C0",
"!y	c #055CB4",
"!z	c #FFFDFD",
"!{	c #FDFEFC",
"!|	c #FCFEFC",
"!}	c #004BAD",
"!~	c #DBEFE0",
"# 	c #8ACD5C",
"#!	c #83C48F",
"##	c #EBF6EB",
"#$	c #FEECE0",
"#%	c #FEF7F2",
"#&	c #B8DCCC",
"#'	c #72C33C",
"#(	c #7CC74A",
"#)	c #FCFDFC",
"#*	c #FAFFFE",
"#+	c #FED9C8",
"#,	c #FDA736",
"#-	c #FD9712",
"#.	c #FEAC4D",
"#/	c #84CB54",
"#0	c #F5FAF9",
"#1	c #D8C2B6",
"#2	c #86CC57",
"#3	c #FDA22B",
"#4	c #84CB55",
"#5	c #0057B2",
"#6	c #F75A74",
"#7	c #FA977C",
"#8	c #F4143A",
"#9	c #F52C4E",
"#:	c #F30E34",
"#;	c #F53E5D",
"#<	c #F43958",
"#=	c #F53B5B",
"#>	c #F63658",
"#?	c #F54361",
"#@	c #F53757",
"#A	c #F63859",
"#B	c #F63758",
"#C	c #0072BC",
"#D	c #F3183D",
"#E	c #F63857",
"#F	c #F53958",
"#G	c #F53859",
"#H	c #F43858",
"#I	c #FBFDFF",
"#J	c #F43758",
"#K	c #0461B6",
"#L	c #AD98B4",
"#M	c #5C4E80",
"#N	c #F4F3F7",
"#O	c #4A6CA9",
"#P	c #28B6F0",
"#Q	c #01A4EC",
"#R	c #0EA7ED",
"#S	c #18AEEF",
"#T	c #46BEF2",
"#U	c #22B2EF",
"#V	c #1FB2EF",
"#W	c #1FB3EF",
"#X	c #23B4EF",
"#Y	c #51A5D9",
"                                                                                                                                                                                                                                                                ",
"                                                                                                                                                                                                                                                                ",
"                                                                                                                                                                                                                                                                ",
"                                                                                                                                                                                                                                                                ",
"                                                                                                                                                                                                                                                                ",
"                                                                                                                                                                                                                                                                ",
"                                                                                                                                                                                                                                                                ",
"                                                                                                                                                                                                                                                                ",
"                                                                                                                                                                                                                                                                ",
"                                                                                                                                                                                                                                                                ",
"                                                                                                                                                                                                                                                                ",
"                                                                                                                                                                                                                                                                ",
"                                                                                                                                                                                                                                                                ",
"                                                                                                                                                                                                                                                                ",
"                                                                                                                                                                                                                                                                ",
"                                                                                                                                                                                                                                                                ",
"                                                                                                                                                                                                                                                                ",
"                                                                                                                                                                                                                                                                ",
"                                                                                                                                                                                                                                                                ",
"                                                                                                                                                                                                                                                                ",
"                                                                                                                                                                                                                                                                ",
"                                                                                                                                                                                                                                                                ",
" ! ! ! ! ! ! ! ! ! ! ! ! ! ! ! ! ! ! ! ! ! ! ! ! ! ! ! ! ! ! ! ! ! ! ! ! ! ! ! ! ! ! ! ! ! ! ! ! ! ! ! ! ! ! ! ! ! ! ! ! ! ! ! ! ! ! # # ! $ % & $ ' ! $ ' % ( % ) & ! * ' + ( $ ! ! ! ! ! ! ! ! ! ! ! ! ! ! ! ! ! ! ! ! ! ! ! ! ! ! ! ! ! ! ! ! ! ! ! ! ! ! ! !",
" ! ! ! ! ! ! ! ! ! ! ! ! ! ! ! ! ! ! ! ! ! ! ! ! ! ! ! ! ! ! ! ! ! ! ! ! ! ! ! ! ! ! ! ! ! ! ! ! ! ! ! ! ! ! ! ! ! ! ! ! ! ! ! ! ! ! ! ! , - . / 0 1 0 2 3 4 1 5 6 ' + $ 6 7 # ) ) ! ! ! ! ! ! ! ! ! ! ! ! ! ! ! ! ! ! ! ! ! ! ! ! ! ! ! ! ! ! ! ! ! ! ! ! ! ! !",
" ! ! ! ! ! ! ! ! ! ! ! ! ! ! ! ! ! ! ! ! ! ! ! ! ! ! ! ! ! ! ! ! ! ! ! ! ! ! ! ! ! ! ! ! ! ! ! ! ! ! ! ! ! ! ! ! ! ! ! ! ! ! ! ! ! ! ! . 3 8 ! ! ! ! ! ! ! ! ! $ 9 / ) ! . ) % $ ! ! ! ! ! ! ! ! ! ! ! ! ! ! ! ! ! ! ! ! ! ! ! ! ! ! ! ! ! ! ! ! ! ! ! ! ! ! ! !",
" ! ! ! ! ! ! ! ! ! ! ! ! ! ! ! ! ! ! ! ! ! ! ! ! ! ! ! ! ! ! ! ! ! ! ! ! ! ! ! ! ! ! ! ! ! ! ! ! ! ! ! ! ! ! ! ! ! ! ! ! ! ! ! ! ! $ : ; ! ! < = > ? ? ? @ > A B ! ! 2 3 ' # ) ) ! ! ! ! ! ! ! ! ! ! ! ! ! ! ! ! ! ! ! ! ! ! ! ! ! ! ! ! ! ! ! ! ! ! ! ! ! ! ! !",
" ! ! ! ! ! ! ! ! ! ! ! ! ! ! ! ! ! ! ! ! ! ! ! ! ! ! ! ! ! ! ! ! ! ! ! ! ! ! ! ! ! ! ! ! ! ! ! ! ! ! ! ! ! ! ! ! ! ! ! ! ! ! ! ! & / ! C ? D E F G H I I H G J K L = ! ! : , ( 6 # ! ! ! ! ! ! ! ! ! ! ! ! ! ! ! ! ! ! ! ! ! ! ! ! ! ! ! ! ! ! ! ! ! ! ! ! ! ! !",
" ! ! ! ! ! ! ! ! ! ! ! ! ! ! ! ! ! ! ! ! ! ! ! ! ! ! ! ! ! ! ! ! ! ! ! ! ! ! ! ! ! ! ! ! ! ! ! ! ! ! ! ! $ ! ! ' ) $ M ! 6 N $ & ! ! O P Q R R I S H T H U V W X R Y Z [ ! ] + # $ ) % ) ^ ' 6 ) ! ! ! ! ! ! ! ! ! ! ! ! ! ! ! ! ! ! ! ! ! ! ! ! ! ! ! ! ! ! ! !",
" ! ! ! ! ! ! ! ! ! ! ! ! ! ! ! ! ! ! ! ! ! ! ! ! ! ! ! ! ! ! ! ! ! ! ! ! ! ! ! ! ! ! ! ! ! ! ! ! ! ! ! ! ! ! ! # % $ # N $ _ ! ! A P ` R a b c d e f g h i d c e j k l m D : ' . ! ! ^ - % # ( 6 ! ! ! ! ! ! ! ! ! ! ! ! ! ! ! ! ! ! ! ! ! ! ! ! ! ! ! ! ! ! ! !",
" ! ! ! ! ! ! ! ! ! ! ! ! ! ! ! ! ! ! ! ! ! ! ! ! ! ! ! ! ! ! ! ! ! ! ! ! ! ! ! ! ! ! ! ! ! ! ! ! ! ! ! ! * $ ) % ) ) ! ! M ! ! n m l T i o p q r s t t u v w s p x e y a z P A ! % { 7 # ' $ & ! ! ! ! ! ! ! ! ! ! ! ! ! ! ! ! ! ! ! ! ! ! ! ! ! ! ! ! ! ! ! ! !",
" ! ! ! ! ! ! ! ! ! ! ! ! ! ! ! ! ! ! ! ! ! ! ! ! ! ! ! ! ! ! ! ! ! ! ! ! ! ! ! ! ! ! ! ! ! ! ! ! ! ! ! ! ! { ) # | ! $ } ! B ~!  V y i r s!! v r t r s r p w s r p!#!$ y!%!& m ? $ !!' ' % ) % ^ ! ! ! ! ! ! ! ! ! ! ! ! ! ! ! ! ! ! ! ! ! ! ! ! ! ! ! ! ! ! ! !",
" ! ! ! ! ! ! ! ! ! ! ! ! ! ! ! ! ! ! ! ! ! ! ! ! ! ! ! ! ! ! ! ! ! ! ! ! ! ! ! ! ! ! ! ! ! ! ! ! ! ! ! ! N $ ! ^ M!(!) ! <!*!+!,!-!.!/ p!0 v t v r p!1 r r r r r t!2 s!!!3!4 V z!5!6 ! 2 ( + ! ) ! ! ! ! ! ! ! ! ! ! ! ! ! ! ! ! ! ! ! ! ! ! ! ! ! ! ! ! ! ! ! !",
" ! ! ! ! ! ! ! ! ! ! ! ! ! ! ! ! ! ! ! ! ! ! ! ! ! ! ! ! ! ! ! ! ! ! ! ! ! ! ! ! ! ! ! ! ! ! ! ! ! ! ! ! ' N # ) . 4 ! > J!7!8!9!:!; s q t t!< r r t!/ r r r x t s!0 w!=!/!>!?!@!+!A = ! /!' , # ! ! ! ! ! ! ! ! ! ! ! ! ! ! ! ! ! ! ! ! ! ! ! ! ! ! ! ! ! ! ! !",
" ! ! ! ! ! ! ! ! ! ! ! ! ! ! ! ! ! ! ! ! ! ! ! ! ! ! ! ! ! ! ! ! ! ! ! ! ! ! ! ! ! ! ! ! ! ! ! ! ! ! ! ! ! M ' 3 - ! O Q X!B!C p r w!D!1!9 s q r!! p r r t!< p p p!=!=!E!F!G!H!I c ` G ? ! !!J ! ! ! ! ! ! ! ! ! ! ! ! ! ! ! ! ! ! ! ! ! ! ! ! ! ! ! ! ! ! ! ! !",
" ! ! ! ! ! ! ! ! ! ! ! ! ! ! ! ! ! ! ! ! ! ! ! ! ! ! ! ! ! ! ! ! ! ! ! ! ! ! ! ! ! ! ! ! ! $ 6 $ N $ ! ! ! 6 1 ! C D ` I c!K r!. v!! p!/!/ r!/!=!9!H t!=!L w!! p!I!M!N!= f u!O!P r!B!Q ` ~!6 ! 9 ! $ $ # ! ! $ ! ! ! ! ! ! ! ! ! ! ! ! ! ! ! ! ! ! ! ! ! ! ! ! !",
" ! ! ! ! ! ! ! ! ! ! ! ! ! ! ! ! ! ! ! ! ! ! ! ! ! ! ! ! ! ! ! ! ! ! ! ! ! ! ! ! ! ! ! ! ! ! # + N ! ! ) )!( !!R!A!  T c!S r r r r r r!T!!!U!V!T u!D r!=!G!/ r t q!O!2!9!W b r q!X!Y!B j! !A = !!Z ' N %![ ) ' ! ! ! ! ! ! ! ! ! ! ! ! ! ! ! ! ! ! ! ! ! ! ! ! !",
" ! ! ! ! ! ! ! ! ! ! ! ! ! ! ! ! ! ! ! ! ! ! ! ! ! ! ! ! ! ! ! ! ! ! ! ! ! ! ! ! ! ! ! ! ! ! M * M ) ( $ ; ! @ J!]!N!?!< r r r r r r r t!; p!G q!K p t r r!K r r!^!=!<!H!_ b!0 r r w!T!?!N!` Y n ! . & $ N ! * ! ! ! ! ! ! ! ! ! ! ! ! ! ! ! ! ! ! ! ! ! ! ! ! !",
" ! ! ! ! ! ! ! ! ! ! ! ! ! ! ! ! ! ! ! ! ! ! ! ! ! ! ! ! ! ! ! ! ! ! ! ! ! ! ! ! ! ! ! ! ! ' ' $ ' $ & 6 ! L!a X!8!b!C!; r r r r r r!G!%!W!X!O!b r p r!H!= r r x!c!d r s!G w!I!$!1!K!G s!3 c!Q!e D!f ! 5 ) N![ ! ! ! ! ! ! ! ! ! ! ! ! ! ! ! ! ! ! ! ! ! ! ! ! !",
" ! ! ! ! ! ! ! ! ! ! ! ! ! ! ! ! ! ! ! ! ! ! ! ! ! ! ! ! ! ! ! ! ! ! ! ! ! ! ! ! ! ! ! ! ! ! $ ) 6!g ! 8 D!] k!h!/!#!=!% r r r r r r!=!i!j s f!G!N y!3 i y t i i!3 f!. p!;!k!V!!!=!0 v s!S!2 d T!  P!l ! !!( ! ! ! ! ! ! ! ! ! ! ! ! ! ! ! ! ! ! ! ! ! ! ! ! ! !",
" ! ! ! ! ! ! ! ! ! ! ! ! ! ! ! ! ! ! ! ! ! ! ! ! ! ! ! ! ! ! ! ! ! ! ! ! ! ! ! ! ! ! ! ! ! ) $ .!g !!R P!+!Y h!m!I!9!D!F r r r r r r!C!n!k!Q!o!p I I I V k U U U k S!_!/!j!#!k s!X s!i!E!!!D!H!X o!q Q ? ( ! 4 ! ! ! ! ! ! ! ! ! ! ! ! ! ! ! ! ! ! ! ! ! ! ! ! !",
" ! ! ! ! ! ! ! ! ! ! ! ! ! ! ! ! ! ! ! ! ! ! ! ! ! ! ! ! ! ! ! ! ! ! ! ! ! ! ! ! ! ! ! ! ! ^!g!r ! @ F z e h!E!.!b!#!2!O r r r r r r t!s!t!*!* P!u!u!v J J J J F F J y!<!<!O t!V!w!T!. r!0!.!K!/!<!x W!  ~!6 ! : $ ! ! ! ! ! ! ! ! ! ! ! ! ! ! ! ! ! ! ! ! ! ! !",
" ! ! ! ! ! ! ! ! ! ! ! ! ! ! ! ! ! ! ! ! ! ! ! ! ! ! ! ! ! ! ! ! ! ! ! ! ! ! ! ! ! ! ! ! ! : ) ! L!y R!B!=!T!V r!=!H r s r r!= r r r!8 X K ! !!z!Z!f!6!R!R!l!l =!6 > j!s w!k r!T!/ r!@ t!;!X!=!=!i!$!B T!+ P = !!g . # ! ! ! ! ! ! ! # ! ! ! ! ! ! ! ! ! ! ! ! !",
" ! ! ! ! ! ! ! ! ! ! ! % ! ! ! ! ! ! ! ! ! ! ! ! ! ! ! ! ! ! ! ! ! ! ! ! ! ! ! ! ! ! ! ! ! !!6 D z H!B!i q r r r r r r p s!=!= r p!G!N R ~!J B ]!{ ) # ' ! # ) ! =!A U!;!k!: x q!< r r r r r r r!_!j!S!w e ` m n ! N 1 # ! ) $ ! ! # 6 # ' # ! ! ! ! ! ! ! ! ! !",
" ! ! ! ! ! ! ! ! ! ! ! ! ! ! ! ! ! ! ! ! ! ! ! ! ! ! ! ! ! ! ! ! ! ! ! ! ! ! 6 # # ! # 6 ! ?!A z!@!x!S!W r r r r r r r p p t r r r i a Q ? ! : . { ;!|!| M!Z ! [ Y!7 x!!!_!!!;!% s r r r r r r!= w!j!$!F!^!8!Q!q D!f ! 9 ! $ # N , $ $ ) ^ # ! ! ! ! ! ! ! ! ! !",
" ! ! ! ! ! ! ! ! ! ! ! % ! ! ! ! ! ! ! ! ! ! ! ! ! ! ! ! ! ! ! ! ! ! ! ! ! ! $ ) $ ! . _ !!*!} j!B T!H q r r r r r r r r r t r r r e!p J A ! / $ * N ' ) ] ! = J!&!B!.!_ p!=!U!G r r r r r r r p!!!/!E!T!j!k!B T!7 E = !!g M # ! 6 $ # 6 ! ! ! ! ! ! ! ! ! ! ! !",
" ! ! ! ! ! ! ! ! ! ! ! % ! ! ! ! ! ! ! ! ! ! ! ! ! ! ! ! ! ! ! ! ! ! ! ! ! ! ) 6 ! ! # % *!R L!q R!4!;!T r r r r r r r r r r r r r i W!A!6 ! & $ , M ) 4 !!l E!` c!V!^ p!#!F s v r r r r r r r q!2!^!D p q!!!< d!N l m n ! ! ^ ' { M | , ) ! ! ! ! ! ! ! ! ! ! !",
" ! ! ! ! ! ! ! ! ! ! ! ! ! N , # ! ! ! ! ! ! ! ! ! ! ! ! ! ! ! ! ! ! ! ! ! ! ) ! !!| ! ! N ! ! @ G!q!X f!= r r r r r r r r r p r!9!1 X Z ! 0 ; ! ' !!| !!f K z!8!m!_!C t!= r w!= p r r r r r r!K!!!2!U s!H!i!m!K f e V!e D B ! { % # ! ' # ! ! ! ! ! ! ! ! ! ! !",
" ! ! ! ! ! ! ! ! ! ! ! ! N ! $ ! , ! ! ! ! ! ! ! ! ! ! ! ! ! ! ! ! ! ! ! 6 ! !!~# # #!## ! . - !!R!A!7 a!h r r r r r r r r r p!H x!,!Q O !!Z ! ! ! ^!' ! L!] b h!=!; x!k!W!T q!K!= r r r r r r r!C q!O r r!E!3!-!^!2!4!,!+!u!l ! ! 5 ) 6 # ! ! ! ! ! ! ! ! ! ! !",
" ! ! ! ! ! ! ! ! $ !!z , !#$#$#% ! 7 # ! ! ! ! ! ! # # # ! ! ! ! ! $ ! ; ! !#&#'#'#(#'#(!~ ! !#) ! 8 ~!a R!h f!= r r r p r!= x!D g U m ? !!J # ! ) . $ = m I c!K r!H r!1 r r!/!G!! r r r r r r p x!T!$ r!H!=!F q!.!T!T!P f!`!p ?#* ! : # N ! ! ) # ! # ! ! ! ! !",
" ! !![ $ ) # ' ! { -!z !#+#,#-#.#+ ! ' ; ^ ' ) $ $ ' ' # + # N 6 N $!| !!r#&#'#(# #/# #(#'#!#0 !!| 0 ! ? F ` b!4!_!H r r p!=!F r!b S Y = !#) ; 6 { ! 8!* `!B!D!. q r r r r r r r r r r r r r r r r r r r r r r r r r r r r d!p!7 D!6 !!Z ; ! { * 6 ! ^ $ ! ! ! !",
" ! # ' ; . ! % N 7 ! 6#1#-#-#,#-#-#+ $ ! 7 N % . ) M ! ( # N ^ # !!g !### #'#/#2#/#/#/# #/#'# !~ !!|!Z ! A!*!  j f!<!2!= r!-!T r!N V!v!R ! 5 M N , 5 @!&!@!X!%!9 w r r r r r r r r r r r r r r r r r r r r r r r r r r r r!K!x!D! !A [ ! 1!'!| ! N M $ N 6 ! ! !",
" ! ! M ; ^ # ! N $#%#.#-#3#.#,#,#3#-#.#% $ - 6 . M $ $ ^ ) M ) !!| !!~#2#'#2#2#4#4#4#4#/#2#2#'#(#& ! # 9 !!f D X!$ w q!C!L!/!- p f!p P!Z $ % ! ^ ' ( P!q!B!S x!/!- r r r r r r r r r r r r r r r r r r r r r r r r r r r r r s g!8!q Y n !!'!J 7 N 6 7 ' $ ! ! !",
" ! ! ' ! $ % N (#$#,#-#,#,#,#,#,#,#,#-#,#+ !!z % -!z!g % % ! !#) !#&#(#'# #2#/#4#4#4#4#4#4#2# #'#'#& { N!J # ! Z l d!O!/!=!k r!9 w!o!* !!J ! ' * ! @!y!F r!^ u!G r r r r r r r r r r r r r r r r r r r r r r r r r r r r r r!G!k!I!8 W!e D#* !!( ! # ^ ; # ! ! !",
" ! ! { # #!z !#$#3#-#,#,#,#,#,#,#,#,#,#-#3#$ % ! $ ! ! ! ) $ - 6###(#'# #4#/#2#/#2#4#4#4#4#4#/# #'#'!~ !!|!g M >!p T q s!K w t!-!> R ~ ! 2 6 ) ) ! K#5!?!T w!G s!2 r r r r r r r r r r r r r r r r r r r r r r r r r r r r r s!d!K!<!x!s!7!u A ! ' ! N 6 ! ! ! !",
" ! ! N 6 M ; $#$#3#-#,#,#,#,#,#,#,#,#,#-#.!) !#+#6#6#6#+ $ $!{ {!r# #'#2#2#/#4#4#4#4#4#2#4#4#2#2#'# ## ) % ) M = S j x t r r v!%!,!y O ! 9 ! + ' < b a w!i!^!F q!E r r r r r r r r r r r r r r r r r r r r r r r r r r r r r x!1!/!H!O g!-!` m n ! 6 % # ! ! ! !",
" ! ! $ ) # 6 ' $#$#.#-#3#,#,#,#,#,#3#-#. | _#7#8#8#9#:#8#7!) !!z )### #'#(#2#4#4#2#/#/#4#4#2#/#'# ## ! ^ _ # ! ~ l!X!/!V p p!m!%!s!a ? ! 0 ! M ! n#5!0!1 p!<!H!/ t r r r r r r r r r r r r r r r r r r r r r r r r r r r r r r s p p!I!T w g V!  D 8 ; . ! ! ! !",
" ! ! ! ! ! ! ! ! ! !#7#-#3#,#,#,#3#-#7 !#%#6#:#9#;#<#=#>#:#6#$ ! - N !#&#'#(# #2#/#4#/#2# #(#'#! ! ! # 5 # ! ? I a h!=!; p!F p!-!s m @ ! 3 )!g ! D!`!G r r r r r r r r r r r r r r r r r r r r r r r r r r r r r r r r r r r r r r r r r r r!3!,!+ D B 1 M ! ! !",
" ! ! ! ! ! ! ! ! ! N !#+#3#-#3#-#3#+ !#+#?#:#=#=#@#A#B#=#=#8#9#+ $ )!) !!~#(#'#/# #/# #2#'#'#& !![ 6 1 # C L!` I!?!^!#!;!= r!H!- a F = ! } ! . .!u W!G r r r r r r r r r r r r r r r r r r r r r r r r r r r r r r r r r r r r r r r r r r!%#C y!Y!7 L & 1 ! ! !",
" ! ! ! ! ! ! ! ! ! ) 7 !#$#.#3#.#$ !#+#9#D#;#<#E#F#G#F#H#B#?#9#D#7!) $!) !### #'#(#4#(#'# !~ !!( $ B ! < Z!  H!x!H q!k!= p!=!H!- a F!l ! . $ !!l G!s!- r r r r r r r r r r r r r r r r r r r r r r r r r r r r r r r r r r r r r r r r r r!0 r!F!h!p Y A !#I ! !",
" ! ! ! ! ! ! ! ! ! ! # 7 ! 6#$ 7 $#7#8#9#?#J#B#A#<#B#A#A#H#B#?#9#:#6#$ $!r ! ]#&#(#'#'#!## !!| -!Z ! = E z!1 d!D!K!G!X r p!=!D!- U F < !!' 5 ! @ Q!,!G r r r r r r r r r r r r r r r r r r r r r r r r r r r r r r r r r r r r r r r r r r!O!K!0!P!N!q!5 5 / ! !",
" ! ! ! ! ! ! ! ! ! ! # 6 7!z (#%#6#:#9#?#@#F#A#G#E#H#<#E#<#A#@#;#=#8#9#+ !!( ) !!~#&!~#) !!| .!g ! n Y!&!8 d!S!L!9!G!L q!; p w t k J < !!{ / ! ?!y!>!G r r r r r r r r r r r r r r r r r r r r r r r r r r r r r r r r r r r r r r r r r r s b!H!C!B#K!v!R !!' !",
" ! ! ! ! ! ! ! ! ! $ # $!z ,#$#?#:#H#;#@#A#F#B#@#B#H#H#H#A#H#F#@#=#;#D#:#1 !!( - ! ! ! !!{ % ! ( ~!e W!8 h s!G!/!U!T w!=!T q t!N V J!6 #!( 3 ! O!y!k r r r r r r r r r r r r r r r r r r r r r r r r r r r r r r r r r r r r r r r r r r r p r!D!i y k G > ! 3 !",
" ! ! ! ! ! ! ! ! ! $ ' *!) !#7#:#G#;#H#H#F#A#F#B#A#G#B#G#G#B#H#F#J#B#?#8#? ! ' $!(!|!g 6 $ ! B K!}!, c!/!F!0!j r!. r!U!/!! q t!b k J!6 ' M / ! L!y!> r r r r r r r r r r r r r r r r r r r r r r r r r r r r r r r r r r r r r r r r r r r p r!1!F i H k @ ! 3 !",
" ! ! * ' # % N ! ! ! ; ;!) !#7#:#@#;#G#E#G#H#G#A#E#A#B#E#F#@#E#A#E#G#;#:#6 ! 6 ) ^ + $!| N $ 6 @ F!q!> d!T!m!^!P!H!.!<!/!V!- r!P k J!6 ! .#) # O!y!> r r r r r r r r r r r r r r!i!H p!F!=!=!# s r r r r r r r r r r r r r r r r r r r r r r!F!C!= o H V @ ! 3 !",
" ! ! ! !!z # ! A#L!l ! 6 1 ##$#6#:#@#;#F#@#>#@#H#>#B#<#E#E#H#A#>#;#E#:#?#$ ! ^ } ! ! # # 5 & ; !!6 Z!] k c!G!T q!d!=!<!= r!c x!b S J < ! ; ] ! n!y!,!G r r r r r r r r r r r r r!.!C!V!i!j!: p!F r r r r r r r r r r r r r r r r r r r r r r!k!-!< y S G > ! 3 !",
" ! ! #!g ! _#L#M#M#M#& # #!) !!)#7#8#9#;#G#J#A#H#F#E#@#G#G#B#E#;#9#8#6!) ! .#) !!R ? n = ! +!' . # ! L m X y!?!$ w!O!j!T!W!2!= t a F!R !!' 4 ! n!y!,!G r r r r r r r r r r r r r!G!H p r!-!W!G!V r r r r r r r r r r r r r r r r r r r r r p!U!^!M c!Q J!l ! / !",
" ! ! % !#N#L#M#M#O#M#M#L#N ! 4 ) $#1#9#D#;#=#@#G#J#G#E#<#>#G#?#9#D#7 ! %!{#I ! [#P#Q#Q#R ? ! # } #!Z ! >!v#5 b!? r!:!V!G!F!G!. t a F A ! 3!' ! @ Q!,!G r r r r r r r r r r r r r!2 w!@!$ y!3!k s r r r r r r r r r r r r r r r r r r r r r!K s x w e l D B & M !",
" ! % % <#L#M#M#M#M#M#M#M#L#N!'!'!) !#+#?#:#@#;#@#B#@#E#>#A#;#D#9#+ !!) 3 ; ! ?#R#R#P#P#S#Q#T!6 ! 8 !!Z !!R Z!7 H!d!!!;!$!=!=!# y!s m > ! / { '!l G!s!- r r r r r r r r r r r r r!=!N r c I!, h!< r r r r r r r r r r r r r r r r r r r r r!I!I!S c!p m = ! 3 ! !",
" !!g ! <#M#M#O#M#M#M#O#M#M#N N!( 6!) $#%#7#:#9#?#F#H#@#;#<#:#?#+ !!)!z !#* ~#Q#S#P#U#V#P#V#Q#P [ ! 8 6 2 !#* L R!,!K v!.!=!-!;!V!s#K n !!r !!( ! P W!G r r r r r r r r r r r r r!E!H d!o F G!>!- r r r r r r r r r r r r r r r r r r r r r!b p!%!1 z ~ 8 / ! ! !",
" ! ! ! ! <#L#M#M#O#M#M#L#N !!z # ! '!) ! $#1#9#8#;#;#;#9#:#6#% !!) ; !!R#T#Q#V#P#V#W#U#V#P#X#R#S n ! { ^!' , ! D l h!L!= x w!E!G!S X ~ ! 9 N 5 ! D!& r r r r r r r r r r r r r r r!?!7!v!l D `!B!S r r r r r r r r r r r r r r r r r r r r!L o!U!+ K!f 1 % ! ! !",
" ! ! # % !#0#L#M#M#M#L!r ! % # % ! $ !!z * !#+#?#:#:#:#D#7!) !!) / ^ =#P#Q#U#X#W#X#U#U#W#W#X#P#S#Q ~#* 6 $ . . = k j x!d r!G p!b!N I P!Z . & ; # n!]!I p!j!# r s r r r!K!d!/!T h t z P < ! A Q k!x!^!.!=!. p!H r r r r r r r s#C!H q!E!F!/!?!s!+ Z!f % 3 ) ! ! !",
" ! ! # |!g ! !#&#L#& ! # % ! ! ! ) * $ ) %!z $#%#1#7#7#+ $ ( * {#I !#T#Q#P#X#W#U#U#W#V#W#U#W#W#P#R#R = !!J M ! >!p!Y!1!< p t p v e V Y A !!J ! # : J X!B!K!<!E!E!0!H!;!D p w g T!+ K!6 !!' ! ~#5!8!O!i x!c x t r r r r r r r s!#!$ w w q e!Q!& ~ 8 !!( | ' ! ! !",
" ! ! ! # # % ! ! ! ! ! ! % ! # | ; ) ( $ ! ! N $ $ ! $ $ ( N ! ! 8 ! n#R#R#P#X#W#X#U#V#W#U#U#X#W#Q#T C ' 2 ! B Z l!? r!#!- s x r g T!y L ! 2 ) _ ! n!  U d g!X!. r!U h!X c i V!7 D C !!(!( !!R E!q!B!C r!^!F!W r r r r r r r!! v!! v f d!q m ? ! # ; ! ! ! ! ! !",
" ! ! # ! ; # ! # M ! # ' ' M ! ! $ % ) { ) ! $ 7 ' ) ' , ( % ) M ^ 5 ! ?#S#Q#X#X#V#W#X#U#X#P#S#Q O # # 9 !!6 Z!q!2 v w!T r s r x r i R E#N $ } ^ ! ! ~!e!o S T b b!N!b a k!& Y O ! ! M # $ 2 ! >!y!p!B!C t!T!0 r r r r r r r!E!G!$!x!D z!v!l ! $ # , # $ ! ! ! !",
" ! ! ' M ' ' # ' # ! ' ; M ! ' ! ! N M 5 $ ( ) ) # 6 ) M N ' ! ) ) ' _ '!R#T#Q#V#P#W#V#X#P#R#S ? '!J : ! A P! !@!X!;!=!- p!I r!K r!?!Y!a n # 1 _ % % ! n E Q!o!o!o R R#K Y Z!l !!J ' ! , ) ^!( ! O!e H!B r!H!P q r r r r r r p p!B U ` Z!f #!J M # ! ) 6 # ! ! !",
" ! ! ! ! ; # ! ! # ! ! ! # ; - % ) ( ! ) % & ! 6 ^ ' N ! # M . 6 $ N ) 3 !!f ~#Q#R#P#P#U#Q#P [ ! B - ! ? Y!7 c h p p!E!/ t p r b p r!8 W J!R # 0 ' M ] !!f ? O ~ D D ~ n = ! ! 0 ! 6 % 6 ) # , / ! L! !p!h t!. r r r r r r r!9!8 X!y L ( _!J ! ! 6 ) $ ! ! ! ! !",
" ! ! # ! ! ! # # ! # ! ! % % ! # # ( ) 6 6 * ) $ ) $ { ! ! ) ( ) ) , 6 M 5 ! ! ?#S#Q#R#Q#T!R ! B _#* ~!y R!8!/!/ r s!; p t r r q x s!% y!q!*!f 4!J ! M 9 ) ! ! ! ! ! ! ! ! 2 ] # ' M ! ; # $ % &!Z ! n G!s!!!# r r r r q!K!G e!` F ? ! /!J ! & ) ^ # $ 6 # ! ! !",
" ! ! # ! ! ! # # ! # ! ! ! ! ! ! # ! ! ! ! ! ! ! ! ! $ ! ! ! ! ! ! # ! ! # &#I ! =#T#T ? B #!Z !!f K!7 U!B!= r!= r q!T q r r r p w r!=!. e!] K ( ! 3 & 6 &!J 9 8 ]!J 9 : / M 6 ) # ) % M!(!( 5 ! ! ! ! Z R!;!U!L!I w!2!_ o!F!+ P A ! 0 & % ! $ ! # ! ! ! ! ! ! !",
" ! ! ! ! ! ! ! ! ! ! ! ! ! ! ! ! ! ! ! ! ! ! ! ! ! ! ! ! ! ! ! ! ! ! ! ! ! ! $ 5 ! 5!f ! ' 5 !!l!v#5!_!h!K r r r r r r r r r r r r r p!K!w!O ` P = ! ! ! # 6 M ' + 6 ! ! ! ! # # ! ! # ! ! ! !!l O!*!v!t!>!! r!!!L!$!T!x S!+ D!6 !!Z 6 M 6 ! ! ! ! ! ! ! ! ! ! !",
" ! ! ! ! ! ! ! ! ! ! ! ! ! ! ! ! ! ! ! ! ! ! ! ! ! ! ! ! ! ! ! ! ! ! ! ! ! $ ( ! & ! # - ! ! ? Q!&!w!3!W!V r r r r r r r r r r r r r r p s!N o X Q!* >!f ' ! ! ! ! ! ! ! ! ! ! ! !!f!l > O#Y J G!y X I!,!n r!F#C!P r e X!q O 8 # 0 $ N # ) ! ! ! ! ! ! ! ! ! ! !",
" ! ! ! ! ! ! ! ! ! ! ! ! ! ! ! ! ! ! ! ! ! ! ! ! ! ! ! ! ! ! ! ! ! ! ! ! ! ! ' ) ! 6 . (!f ~ ` W y q!j!9 r r r r r r r r r r r r r r!/!= r!;!# y!s l X!8!* ~ n @ > > @ ? n L D!*!u!t!Y#K!q l I!s!, r i f!k!H!H!! g!I!` G > ! ! _ $ ) ! M ^ ! ! ! ! ! ! ! ! ! ! !",
" ! ! ! ! ! ! ! ! ! ! ! ! ! ! ! ! ! ! ! ! ! ! ! ! ! ! ! ! ! ! ! ! ! ! ! ! ! ! _ { ' 6!z &!u!}!D!B!>!I!M!= r r r r r r r r r r r r r r r r b q q!=!# t#C U l ` l!Q W W!Q!o l!`!` l!Q k!s#C p!3!=!.!!!k!L r!1!M u!B j!] P < ! % + $ % | ; # ! ! ! ! ! ! ! ! ! ! ! !",
" ! ! ! ! ! ! ! ! ! ! ! ! ! ! ! ! ! ! ! ! ! ! ! ! ! ! ! ! ! ! ! ! ! ! ! ! ! ! ! # ; ;!' # ~ F!q!N d!i!X!<!= r r r r r r r r r r r r r q!#!P!=!H s!d!=!C!1 y!? f!=!S!@!! q x f f h f x r!b r!$!!!i!#!=!I p!_!j!8 V!] D C #!| 6 ) $ ) M # 6 * ! ! ! ! ! ! ! ! ! ! !",
" ! ! ! ! ! ! ! ! ! ! ! ! ! ! ! ! ! ! ! ! ! ! ! ! ! ! ! ! ! ! ! ! ! ! ! ! ! ! 6 ! $ % N ; ! A!*!7!s c v!W r r r r r r r r r r r r r r q!j!/!2 q!/!k t!T!1!/!C!<!= p!2 p r t v!>!W!!!= p!X!/!L r q!2!T q!S!G!8 X Q O ! ; 3 # # # # ^ ) % ! ! ! ! ! ! ! ! ! ! ! ! !",
" ! ! ! ! ! ! ! ! ! ! ! ! ! ! ! ! ! ! ! ! ! ! ! ! ! ! ! ! ! ! ! ! ! ! ! ! ! ! # ! # ! ! # : ! C ~!y R!B!=!<!T w!V p!H r!T r r r r r r!=!= p x!$!V!i r r!V!;!#!W r r r r r r p p q!= v q!C!X!V!k!.!K w v g i!] J @ ! 4 { ! ! ! ) # # ! ! ! ! ! ! ! ! ! ! ! ! ! ! !",
" ! ! ! ! ! ! ! ! ! ! ! ! ! ! ! ! ! ! ! ! ! ! ! ! ! ! ! ! ! ! ! ! ! ! ! ! ! ! ! ! ! ! ! ! !!J * ! ? F!7!h!d!F q!/ q!W!k!= q r r r r r r r r r r r r r r r r r r r r r r r r r r r!/ r!K!O#C w q!V!I!S!?!Y!+!*!l !!Z $ ! ! ! ! ! ! ! ! ! ! ! ! ! ! ! ! ! ! ! ! ! !",
" ! ! ! ! ! ! ! ! ! ! ! ! ! ! ! ! ! ! ! ! ! ! ! ! ! ! ! ! ! ! ! ! ! ! ! ! ! ! ! ! ! ! ! ! ! $!' 3 !!l!*!+ T!3!=!P!m!#!3!O r r r r r r r r r r r r r r r r r r r r r r r r r r r r x!= q!=!V!H!$!I v!x V!  ~!6 ! : ! ! ! ! ! ! ! ! ! ! ! ! ! ! ! ! ! ! ! ! ! ! ! !",
" ! ! ! ! ! ! ! ! ! ! ! ! ! ! ! ! ! ! ! ! ! ! ! ! ! ! ! ! ! ! ! ! ! ! ! ! ! ! ! ! ! ! ! ! ! ! ) . / !!f ~!]!Q o!3!b!G!#!T r r r r r r r r r r r r r r r r r r r r r r r r r r r r s!b!n t!M!E!W!1 d l#K ? ( ! / ! ! ! ! ! ! ! ! ! ! ! ! ! ! ! ! ! ! ! ! ! ! ! ! !",
" ! ! ! ! ! ! ! ! ! ! ! ! ! ! ! ! ! ! ! ! ! ! ! ! ! ! ! ! ! ! ! ! ! ! ! ! ! ! ! ! ! ! ! ! ! ! 5![ ! / ! ! @ F `!3 g!b!/!2 r r r r r r r r r r r r r r r r r r r r r r r r r r r r p!m r!H!= p o!=!] J A ! # M ! ! ! ! ! ! ! ! ! ! ! ! ! ! ! ! ! ! ! ! ! ! ! ! ! !",
" ! ! ! ! ! ! ! ! ! ! ! ! ! ! ! ! ! ! ! ! ! ! ! ! ! ! ! ! ! ! ! ! ! ! ! ! ! ! ! ! ! ! ! ! ! ' $ ) ! ) ) ! ! <!A!+ a!h!G p r r r r r r r r r r r r r r r r r r r r r r r r r r r r!H!i!j!D!F!B a!  K!6 !!' $ % ) ! ! ! ! ! ! ! ! ! ! ! ! ! ! ! ! ! ! ! ! ! ! ! ! !",
" ! ! ! ! ! ! ! ! ! ! ! ! ! ! ! ! ! ! ! ! ! ! ! ! ! ! ! ! ! ! ! ! ! ! ! ! ! ! ! ! ! ! ! ! ! ! N ! ' & _ ; 6 ! ! D!a!o!8 f!K r r r r r r r r r r r r r r r r r r r r r r r r r r r!< s!=!I c!Q!y ~#* #!g ' ( ' ) ! ! ! ! ! ! ! ! ! ! ! ! ! ! ! ! ! ! ! ! ! ! ! ! !",
" ! ! ! ! ! ! ! ! ! ! ! ! ! ! ! ! ! ! ! ! ! ! ! ! ! ! ! ! ! ! ! ! ! ! ! ! ! ! ! ! ! ! ! ! ! $ # ! # 6 $ ! ! ^!' ! ? J z i d v!T r!i w q r q r r r r w r r r r r r r!T r!9 r!K r!/!O!m f!h!q Y n !!' & # ) ) ! $ ! ! ! ! ! ! ! ! ! ! ! ! ! ! ! ! ! ! ! ! ! ! ! ! !",
" ! ! ! ! ! ! ! ! ! ! ! ! ! ! ! ! ! ! ! ! ! ! ! ! ! ! ! ! ! ! ! ! ! ! ! ! ! ! ! ! ! ! ! ! ! ! ! ! ! ! ! ! N ! % 2 ! A!*!] T c p!T!: w!$ p!C t t s r x r r r r r r r!# s!/!W q r!T s g!N z E [ !!Z ! ! ! ! ! ! ! ! ! ! ! ! ! ! ! ! ! ! ! ! ! ! ! ! ! ! ! ! ! ! ! !",
" ! ! ! ! ! ! ! ! ! ! ! ! ! ! ! ! ! ! ! ! ! ! ! ! ! ! ! ! ! ! ! ! ! ! ! ! ! ! ! ! ! ! ! ! ! ! ! ! ! ! ! ! ) ( ! M 9 # C ~ l R!8!X!0!/ r!K v r r!K r p r r r r r r r!9 s w!/!V!I!T!x j!+ Z!R ! 9 ! ! ! ! ! ! ! ! ! ! ! ! ! ! ! ! ! ! ! ! ! ! ! ! ! ! ! ! ! ! ! ! !",
" ! ! ! ! ! ! ! ! ! ! ! ! ! ! ! ! ! ! ! ! ! ! ! ! ! ! ! ! ! ! ! ! ! ! ! ! ! ! ! ! ! ! ! ! ! ! ! ! ! ! ! ! ! M M ' % 1 # ! ? G z i!3!b p r x p t t t r r r r r r r r!D!2 b!G!;!:!x I!` L C ! 3 ) ! ! ! ! ! ! ! ! ! ! ! ! ! ! ! ! ! ! ! ! ! ! ! ! ! ! ! ! ! ! ! ! !",
" ! ! ! ! ! ! ! ! ! ! ! ! ! ! ! ! ! ! ! ! ! ! ! ! ! ! ! ! ! ! ! ! ! ! ! ! ! ! ! ! ! ! ! ! ! ! ! ! ! ! ! ! ! ^ $ * ) 6#) ) !!R!A!+!s d!! r x p r r r r r r r r r r r!E!H!%!j!3 d!q Q @ ! ! ]!z | $ ! ! ! ! ! ! ! ! ! ! ! ! ! ! ! ! ! ! ! ! ! ! ! ! ! ! ! ! ! ! ! !",
" ! ! ! ! ! ! ! ! ! ! ! ! ! ! ! ! ! ! ! ! ! ! ! ! ! ! ! ! ! ! ! ! ! ! ! ! ! ! ! ! ! ! ! ! ! ! ! ! ! ! ! ! ) - $ ) 6 ; ! ^ ; ! B ~!e R!? t w w p p r s r r r r r r r!M t!; c!@!7 E A !!'!'![ ! ) ! ! ! ! ! ! ! ! ! ! ! ! ! ! ! ! ! ! ! ! ! ! ! ! ! ! ! ! ! ! ! ! !",
" ! ! ! ! ! ! ! ! ! ! ! ! ! ! ! ! ! ! ! ! ! ! ! ! ! ! ! ! ! ! ! ! ! ! ! ! ! ! ! ! ! ! ! ! ! ! ! ! ! ! ! ! % ' N ! ' $ ^ + ) _ ! ! @ F `!s!N!h h p p p r r r r r r r i d!-!p!  Z!6 !!{ ! ! % ' ! ! ! ! ! ! ! ! ! ! ! ! ! ! ! ! ! ! ! ! ! ! ! ! ! ! ! ! ! ! ! ! ! !",
" ! ! ! ! ! ! ! ! ! ! ! ! ! ! ! ! ! ! ! ! ! ! ! ! ! ! ! ! ! ! ! ! ! ! ! ! ! ! ! ! ! ! ! ! ! ! ! ! ! ! ! ! $ & | ! ! ' ! N # ! $ . !!6!*!a X k!@ i!h!B e e y d!h!h!N a W!q Y O ! ! M ! ! * ' ! 6 # ! ! ! ! ! ! ! ! ! ! ! ! ! ! ! ! ! ! ! ! ! ! ! ! ! ! ! ! ! ! ! !",
" ! ! ! ! ! ! ! ! ! ! ! ! ! ! ! ! ! ! ! ! ! ! ! ! ! ! ! ! ! ! ! ! ! ! ! ! ! ! ! ! ! ! ! ! ! ! ! ! ! ! ! ! ! ! ! ! ! ! ! ! ! ! ! ! & ! ! ?!* Y l!o!Q W S S k!p!Q!Q R X!v D!R ! 0 & $ ! ! ! ! ! ! ! ! ! ! ! ! ! ! ! ! ! ! ! ! ! ! ! ! ! ! ! ! ! ! ! ! ! ! ! ! ! ! !",
" ! ! ! ! ! ! ! ! ! ! ! ! ! ! ! ! ! ! ! ! ! ! ! ! ! ! ! ! ! ! ! ! ! ! ! ! ! ! ! ! ! ! ! ! ! ! ! ! ! ! ! ! ! ! ! ! ! ! ! ! ! ! ! ! ! M 9 ! ! [ ~ Z E F G G G F J!* D n < ! # 3 ! ' ' ! ! ! ! ! ! ! ! ! ! ! ! ! ! ! ! ! ! ! ! ! ! ! ! ! ! ! ! ! ! ! ! ! ! ! ! ! ! !",
" ! ! ! ! ! ! ! ! ! ! ! ! ! ! ! ! ! ! ! ! ! ! ! ! ! ! ! ! ! ! ! ! ! ! ! ! ! ! ! ! ! ! ! ! ! ! ! ! ! ! ! ! ! ! ! ! ! ! ! ! ! ! ! ! ! ! #!r : ! ! ! < = > @ > [!l!f ! ! ! 9 & ! ) % # ! ! ! ! ! ! ! ! ! ! ! ! ! ! ! ! ! ! ! ! ! ! ! ! ! ! ! ! ! ! ! ! ! ! ! ! ! ! !",
" ! ! ! ! ! ! ! ! ! ! ! ! ! ! ! ! ! ! ! ! ! ! ! ! ! ! ! ! ! ! ! ! ! ! ! ! ! ! ! ! ! ! ! ! ! ! ! ! ! ! ! ! ! ! ! ! ! ! ! ! ! ! ! ! ! ! ! ! ) 1!Z _ ! ! ! ! ! ! ! !#) 2 & ) $ ( 6 ) ! ! ! ! ! ! ! ! ! ! ! ! ! ! ! ! ! ! ! ! ! ! ! ! ! ! ! ! ! ! ! ! ! ! ! ! ! ! ! !",
" ! ! ! ! ! ! ! ! ! ! ! ! ! ! ! ! ! ! ! ! ! ! ! ! ! ! ! ! ! ! ! ! ! ! ! ! ! ! ! ! ! ! ! ! ! ! ! ! ! ! ! ! ! ! ! ! ! ! ! ! ! ! ! ! ! ! # # ) # 6 M!( 3 2 : 8 3 / & 6 6 ) ! ' # ! M ! ! ! ! ! ! ! ! ! ! ! ! ! ! ! ! ! ! ! ! ! ! ! ! ! ! ! ! ! ! ! ! ! ! ! ! ! ! ! !",
" ! ! ! ! ! ! ! ! ! ! ! ! ! ! ! ! ! ! ! ! ! ! ! ! ! ! ! ! ! ! ! ! ! ! ! ! ! ! ! ! ! ! ! ! ! ! ! ! ! ! ! ! ! ! ! ! ! ! ! ! ! ! ! ! ! ! ! { ^ ) $ ! ^ ! ) ! | - ! # ' ! ! ) ! % ' 7 # ! ! ! ! ! ! ! ! ! ! ! ! ! ! ! ! ! ! ! ! ! ! ! ! ! ! ! ! ! ! ! ! ! ! ! ! ! ! !",
"                                                                                                                                                                                                                                                                ",
"                                                                                                                                                                                                                                                                ",
"                                                                                                                                                                                                                                                                ",
"                                                                                                                                                                                                                                                                ",
"                                                                                                                                                                                                                                                                ",
"                                                                                                                                                                                                                                                                ",
"                                                                                                                                                                                                                                                                ",
"                                                                                                                                                                                                                                                                ",
"                                                                                                                                                                                                                                                                ",
"                                                                                                                                                                                                                                                                ",
"                                                                                                                                                                                                                                                                ",
"                                                                                                                                                                                                                                                                ",
"                                                                                                                                                                                                                                                                ",
"                                                                                                                                                                                                                                                                ",
"                                                                                                                                                                                                                                                                ",
"                                                                                                                                                                                                                                                                ",
"                                                                                                                                                                                                                                                                ",
"                                                                                                                                                                                                                                                                ",
"                                                                                                                                                                                                                                                                ",
"                                                                                                                                                                                                                                                                ",
"                                                                                                                                                                                                                                                                ",
"                                                                                                                                                                                                                                                                ",
"                                                                                                                                                                                                                                                                "
};
