/* XPM */
static char * icon_xpm[] = {
"256 256 246 2",
"  	c None",
" !	c #FFFFFF",
" #	c #FFFFFE",
" $	c #FFFFFD",
" %	c #FEFFFF",
" &	c #FEFFFE",
" '	c #FEFEFE",
" (	c #FDFEFE",
" )	c #FDFEFF",
" *	c #FDFFFF",
" +	c #FFFEFE",
" ,	c #FFFEFF",
" -	c #FEFEFF",
" .	c #FFFDFE",
" /	c #FEFFFD",
" 0	c #FDFFFE",
" 1	c #FFFDFC",
" 2	c #FFFDFF",
" 3	c #FDFFFD",
" 4	c #FFFEFD",
" 5	c #FFFEFC",
" 6	c #FFFFFC",
" 7	c #FEFEFD",
" 8	c #FDFDFE",
" 9	c #FCFDFE",
" :	c #FBFCFE",
" ;	c #FBFBFC",
" <	c #FBFCFD",
" =	c #FAFCFE",
" >	c #FAFCFC",
" ?	c #FCFDFC",
" @	c #FCFFFE",
" A	c #F9FCFD",
" B	c #F9FBFD",
" C	c #FCFEFC",
" D	c #F4F9FB",
" E	c #EDF9FA",
" F	c #F6FBFB",
" G	c #F8FBFD",
" H	c #FCFEFE",
" I	c #FBFDFE",
" J	c #E3EDF5",
" K	c #B8D9ED",
" L	c #A1D4EE",
" M	c #96C4E3",
" N	c #8BC0E1",
" O	c #79B3DC",
" P	c #73A8D5",
" Q	c #D0E6EF",
" R	c #F7FCFC",
" S	c #EAF4F7",
" T	c #DDF2F2",
" U	c #B1D3EB",
" V	c #65A5D5",
" W	c #4592CD",
" X	c #4189C8",
" Y	c #2C7FC4",
" Z	c #157BC2",
" [	c #0B6DBC",
" ]	c #0771BE",
" ^	c #0875C0",
" _	c #5697CF",
" `	c #ACC7E1",
" a	c #BFE2F4",
" b	c #FEFDFE",
" c	c #1E6CBB",
" d	c #0E61B6",
" e	c #095CB3",
" f	c #0561B6",
" g	c #005FB6",
" h	c #0060B7",
" i	c #0061B7",
" j	c #1B75BF",
" k	c #4AA5DA",
" l	c #FEFEFC",
" m	c #0064B8",
" n	c #005CB4",
" o	c #0057B2",
" p	c #0054B1",
" q	c #005BB4",
" r	c #0061B5",
" s	c #0068BA",
" t	c #0468B9",
" u	c #0063B7",
" v	c #005EB4",
" w	c #0059B3",
" x	c #0056B2",
" y	c #0058B0",
" z	c #3780C4",
" {	c #D9ECED",
" |	c #0655B1",
" }	c #006DBC",
" ~	c #0170BE",
"! 	c #0170BC",
"!!	c #0071BD",
"!#	c #026FBE",
"!$	c #0066B8",
"!%	c #0E68B9",
"!&	c #FDFEFC",
"!'	c #FEFFFC",
"!(	c #005AB2",
"!)	c #046EBD",
"!*	c #0573C0",
"!+	c #0577C1",
"!,	c #0478C1",
"!-	c #0476BF",
"!.	c #0475BE",
"!/	c #0373BE",
"!0	c #0375C0",
"!1	c #0475C0",
"!2	c #0377C1",
"!3	c #0579C1",
"!4	c #1E72B8",
"!5	c #FDFDFC",
"!6	c #004FAE",
"!7	c #006ABB",
"!8	c #0373C0",
"!9	c #0274C0",
"!:	c #0271BF",
"!;	c #0270BE",
"!<	c #0371BE",
"!=	c #0373BF",
"!>	c #0273BF",
"!?	c #0272BE",
"!@	c #0472BF",
"!A	c #0172BE",
"!B	c #0172BF",
"!C	c #0271C0",
"!D	c #0370BF",
"!E	c #0176C0",
"!F	c #0052AF",
"!G	c #0173C0",
"!H	c #0271BE",
"!I	c #0272BF",
"!J	c #0471BE",
"!K	c #0372BF",
"!L	c #0171BD",
"!M	c #0171BE",
"!N	c #0272C0",
"!O	c #0573BD",
"!P	c #0273BE",
"!Q	c #0072BE",
"!R	c #0271BC",
"!S	c #037AC1",
"!T	c #0055AF",
"!U	c #0476C1",
"!V	c #0370BC",
"!W	c #0372BE",
"!X	c #0372C0",
"!Y	c #0371C1",
"!Z	c #0171BF",
"![	c #0174BF",
"!]	c #F3FAFA",
"!^	c #0373BC",
"!_	c #0371BC",
"!`	c #0371BD",
"!a	c #0271BD",
"!b	c #0372BC",
"!c	c #0374C0",
"!d	c #0173BB",
"!e	c #0172BC",
"!f	c #0073BE",
"!g	c #0072BD",
"!h	c #0173BD",
"!i	c #0173BC",
"!j	c #FEFCF9",
"!k	c #0173BE",
"!l	c #0172BD",
"!m	c #0053AF",
"!n	c #E4F3F5",
"!o	c #0272BB",
"!p	c #0172C0",
"!q	c #0472BD",
"!r	c #0271BB",
"!s	c #0273C0",
"!t	c #0175BF",
"!u	c #0172BB",
"!v	c #0272BC",
"!w	c #0272BD",
"!x	c #0274BD",
"!y	c #0174BC",
"!z	c #FAFDFD",
"!{	c #0273BD",
"!|	c #0273BC",
"!}	c #0271C2",
"!~	c #0372C1",
"# 	c #0373BD",
"#!	c #0372BD",
"##	c #F9FFFE",
"#$	c #0372BB",
"#%	c #0371BF",
"#&	c #0073BC",
"#'	c #004BAC",
"#(	c #FEF9F8",
"#)	c #D1DFEC",
"#*	c #0371BB",
"#+	c #D1EBE8",
"#,	c #BCE0C9",
"#-	c #F5EEEE",
"#.	c #96D276",
"#/	c #85CC56",
"#0	c #83CA53",
"#1	c #86C86C",
"#2	c #70C239",
"#3	c #FEEFE6",
"#4	c #FED9C2",
"#5	c #7CC84B",
"#6	c #FDC2A3",
"#7	c #FEAD4C",
"#8	c #FEA939",
"#9	c #FD930F",
"#:	c #FDA02F",
"#;	c #84CB55",
"#<	c #FDA635",
"#=	c #85CA54",
"#>	c #FDA836",
"#?	c #FEFCFD",
"#@	c #DF8988",
"#A	c #F7506C",
"#B	c #F63A5A",
"#C	c #F41D41",
"#D	c #F51D41",
"#E	c #F43B5A",
"#F	c #F30C33",
"#G	c #F42F50",
"#H	c #F63E5D",
"#I	c #F63153",
"#J	c #F53758",
"#K	c #F53859",
"#L	c #F53958",
"#M	c #F63758",
"#N	c #F53856",
"#O	c #F63859",
"#P	c #F43858",
"#Q	c #BDAFB4",
"#R	c #7E648F",
"#S	c #5A4E82",
"#T	c #47BFF2",
"#U	c #22B3EF",
"#V	c #1EB3EF",
"#W	c #18AFEF",
"#X	c #0CA8ED",
"#Y	c #02A5EC",
"#Z	c #27B6F0",
"#[	c #20B3EF",
"#]	c #22B2EF",
"                                                                                                                                                                                                                                                                                                                                                                                                                                                                                                                                ",
"                                                                                                                                                                                                                                                                                                                                                                                                                                                                                                                                ",
"                                                                                                                                                                                                                                                                                                                                                                                                                                                                                                                                ",
"                                                                                                                                                                                                                                                                                                                                                                                                                                                                                                                                ",
"                                                                                                                                                                                                                                                                                                                                                                                                                                                                                                                                ",
"                                                                                                                                                                                                                                                                                                                                                                                                                                                                                                                                ",
"                                                                                                                                                                                                                                                                                                                                                                                                                                                                                                                                ",
"                                                                                                                                                                                                                                                                                                                                                                                                                                                                                                                                ",
"                                                                                                                                                                                                                                                                                                                                                                                                                                                                                                                                ",
"                                                                                                                                                                                                                                                                                                                                                                                                                                                                                                                                ",
"                                                                                                                                                                                                                                                                                                                                                                                                                                                                                                                                ",
"                                                                                                                                                                                                                                                                                                                                                                                                                                                                                                                                ",
"                                                                                                                                                                                                                                                                                                                                                                                                                                                                                                                                ",
"                                                                                                                                                                                                                                                                                                                                                                                                                                                                                                                                ",
"                                                                                                                                                                                                                                                                                                                                                                                                                                                                                                                                ",
"                                                                                                                                                                                                                                                                                                                                                                                                                                                                                                                                ",
"                                                                                                                                                                                                                                                                                                                                                                                                                                                                                                                                ",
"                                                                                                                                                                                                                                                                                                                                                                                                                                                                                                                                ",
"                                                                                                                                                                                                                                                                                                                                                                                                                                                                                                                                ",
"                                                                                                                                                                                                                                                                                                                                                                                                                                                                                                                                ",
"                                                                                                                                                                                                                                                                                                                                                                                                                                                                                                                                ",
"                                                                                                                                                                                                                                                                                                                                                                                                                                                                                                                                ",
"                                                                                                                                                                                                                                                                                                                                                                                                                                                                                                                                ",
"                                                                                                                                                                                                                                                                                                                                                                                                                                                                                                                                ",
"                                                                                                                                                                                                                                                                                                                                                                                                                                                                                                                                ",
"                                                                                                                                                                                                                                                                                                                                                                                                                                                                                                                                ",
"                                                                                                                                                                                                                                                                                                                                                                                                                                                                                                                                ",
"                                                                                                                                                                                                                                                                                                                                                                                                                                                                                                                                ",
"                                                                                                                                                                                                                                                                                                                                                                                                                                                                                                                                ",
"                                                                                                                                                                                                                                                                                                                                                                                                                                                                                                                                ",
"                                                                                                                                                                                                                                                                                                                                                                                                                                                                                                                                ",
"                                                                                                                                                                                                                                                                                                                                                                                                                                                                                                                                ",
"                                                                                                                                                                                                                                                                                                                                                                                                                                                                                                                                ",
"                                                                                                                                                                                                                                                                                                                                                                                                                                                                                                                                ",
"                                                                                                                                                                                                                                                                                                                                                                                                                                                                                                                                ",
"                                                                                                                                                                                                                                                                                                                                                                                                                                                                                                                                ",
"                                                                                                                                                                                                                                                                                                                                                                                                                                                                                                                                ",
"                                                                                                                                                                                                                                                                                                                                                                                                                                                                                                                                ",
"                                                                                                                                                                                                                                                                                                                                                                                                                                                                                                                                ",
"                                                                                                                                                                                                                                                                                                                                                                                                                                                                                                                                ",
"                                                                                                                                                                                                                                                                                                                                                                                                                                                                                                                                ",
"                                                                                                                                                                                                                                                                                                                                                                                                                                                                                                                                ",
"                                                                                                                                                                                                                                                                                                                                                                                                                                                                                                                                ",
"                                                                                                                                                                                                                                                                                                                                                                                                                                                                                                                                ",
" ! ! ! ! ! ! ! ! ! ! ! ! ! ! ! ! ! ! ! ! ! ! ! ! ! ! ! ! ! ! ! ! ! ! ! ! ! ! ! ! ! ! ! ! ! ! ! ! ! ! ! ! ! ! ! ! ! ! ! ! ! ! ! ! ! ! ! ! ! ! ! ! ! ! ! ! ! ! ! ! ! ! ! ! ! ! ! ! ! ! ! ! ! ! ! ! ! ! ! ! ! ! ! ! ! ! ! ! ! ! ! ! ! ! ! ! ! ! ! ! ! ! ! ! ! ! ! ! ! ! ! ! ! # $ # ! % % % & ' ( ) * % $ $ ! % % & $ $ $ ) ) % & ' + , - ) % , . + $ $ / 0 0 % % % % ! ! ! ! ! ! ! ! ! ! ! ! ! ! ! ! ! ! ! ! ! ! ! ! ! ! ! ! ! ! ! ! ! ! ! ! ! ! ! ! ! ! ! ! ! ! ! ! ! ! ! ! ! ! ! ! ! ! ! ! ! ! ! ! ! ! ! ! ! ! ! ! ! ! ! ! ! ! !",
" ! ! ! ! ! ! ! ! ! ! ! ! ! ! ! ! ! ! ! ! ! ! ! ! ! ! ! ! ! ! ! ! ! ! ! ! ! ! ! ! ! ! ! ! ! ! ! ! ! ! ! ! ! ! ! ! ! ! ! ! ! ! ! ! ! ! ! ! ! ! ! ! ! ! ! ! ! ! ! ! ! ! ! ! ! ! ! ! ! ! ! ! ! ! ! ! ! ! ! ! ! ! ! ! ! ! ! ! ! ! ! ! ! ! ! ! ! ! ! ! ! ! ! ! ! ! ! ! ! ! ! ! ! # # # ! ' ' & & ' ' - % - # # ! % % & # # # - - % & ' + , - ' & ' + + # $ / / & % % - % ! ! ! ! ! ! ! ! ! ! ! ! ! ! ! ! ! ! ! ! ! ! ! ! ! ! ! ! ! ! ! ! ! ! ! ! ! ! ! ! ! ! ! ! ! ! ! ! ! ! ! ! ! ! ! ! ! ! ! ! ! ! ! ! ! ! ! ! ! ! ! ! ! ! ! ! ! ! !",
" ! ! ! ! ! ! ! ! ! ! ! ! ! ! ! ! ! ! ! ! ! ! ! ! ! ! ! ! ! ! ! ! ! ! ! ! ! ! ! ! ! ! ! ! ! ! ! ! ! ! ! ! ! ! ! ! ! ! ! ! ! ! ! ! ! ! ! ! ! ! ! ! ! ! ! ! ! ! ! ! ! ! ! ! ! ! ! ! ! ! ! ! ! ! ! ! ! ! ! ! ! ! ! ! ! ! ! ! ! ! ! ! ! ! ! ! ! ! ! ! ! ! ! ! ! ! ! ! ! ! ! ! ! ! ! ! # 1 1 $ # ! ! ! , 2 , , ! % % % ! , , , , ' ' % % % # $ 3 3 % ! ! 4 5 6 # ! , . + ! ! ! ! ! ! ! ! ! ! ! ! ! ! ! ! ! ! ! ! ! ! ! ! ! ! ! ! ! ! ! ! ! ! ! ! ! ! ! ! ! ! ! ! ! ! ! ! ! ! ! ! ! ! ! ! ! ! ! ! ! ! ! ! ! ! ! ! ! ! ! ! ! ! ! ! ! ! !",
" ! ! ! ! ! ! ! ! ! ! ! ! ! ! ! ! ! ! ! ! ! ! ! ! ! ! ! ! ! ! ! ! ! ! ! ! ! ! ! ! ! ! ! ! ! ! ! ! ! ! ! ! ! ! ! ! ! ! ! ! ! ! ! ! ! ! ! ! ! ! ! ! ! ! ! ! ! ! ! ! ! ! ! ! ! ! ! ! ! ! ! ! ! ! ! ! ! ! ! ! ! ! ! ! ! ! ! ! ! ! ! ! ! ! ! ! ! ! ! ! ! ! ! ! ! ! ! ! ! ! ! ! ! % % ! # + 7 / ( 8 9 9 : ; < < = = > = : : : < < ? < @ * & # # 7 & % ! - ' 4 5 + ! , + + ! ! ! ! ! ! ! ! ! ! ! ! ! ! ! ! ! ! ! ! ! ! ! ! ! ! ! ! ! ! ! ! ! ! ! ! ! ! ! ! ! ! ! ! ! ! ! ! ! ! ! ! ! ! ! ! ! ! ! ! ! ! ! ! ! ! ! ! ! ! ! ! ! ! ! ! ! ! !",
" ! ! ! ! ! ! ! ! ! ! ! ! ! ! ! ! ! ! ! ! ! ! ! ! ! ! ! ! ! ! ! ! ! ! ! ! ! ! ! ! ! ! ! ! ! ! ! ! ! ! ! ! ! ! ! ! ! ! ! ! ! ! ! ! ! ! ! ! ! ! ! ! ! ! ! ! ! ! ! ! ! ! ! ! ! ! ! ! ! ! ! ! ! ! ! ! ! ! ! ! ! ! ! ! ! ! ! ! ! ! ! ! ! ! ! ! ! ! ! ! ! ! ! ! ! ! ! ! ! ! ! ! ! % % ! ! % % % - , , ! % & 6 6 ! # 5 4 , ! # 4 5 / 0 @ 0 $ # ! , , ! % ) - , + ' % % % % ! ! ! ! ! ! ! ! ! ! ! ! ! ! ! ! ! ! ! ! ! ! ! ! ! ! ! ! ! ! ! ! ! ! ! ! ! ! ! ! ! ! ! ! ! ! ! ! ! ! ! ! ! ! ! ! ! ! ! ! ! ! ! ! ! ! ! ! ! ! ! ! ! ! ! ! ! ! !",
" ! ! ! ! ! ! ! ! ! ! ! ! ! ! ! ! ! ! ! ! ! ! ! ! ! ! ! ! ! ! ! ! ! ! ! ! ! ! ! ! ! ! ! ! ! ! ! ! ! ! ! ! ! ! ! ! ! ! ! ! ! ! ! ! ! ! ! ! ! ! ! ! ! ! ! ! ! ! ! ! ! ! ! ! ! ! ! ! ! ! ! ! ! ! ! ! ! ! ! ! ! ! ! ! ! ! ! ! ! ! ! ! ! ! ! ! ! ! ! ! ! ! ! ! ! ! ! ! ! ! ! ! ! % % ( < A A ( ! ! ! ! ! ! ! ! ! ! ! ! ! ! ! ! ! ! ! ) A B ? C ' , ! & & % ! , , , ! % % ! ! ! ! ! ! ! ! ! ! ! ! ! ! ! ! ! ! ! ! ! ! ! ! ! ! ! ! ! ! ! ! ! ! ! ! ! ! ! ! ! ! ! ! ! ! ! ! ! ! ! ! ! ! ! ! ! ! ! ! ! ! ! ! ! ! ! ! ! ! ! ! ! ! ! ! ! ! !",
" ! ! ! ! ! ! ! ! ! ! ! ! ! ! ! ! ! ! ! ! ! ! ! ! ! ! ! ! ! ! ! ! ! ! ! ! ! ! ! ! ! ! ! ! ! ! ! ! ! ! ! ! ! ! ! ! ! ! ! ! ! ! ! ! ! ! ! ! ! ! ! ! ! ! ! ! ! ! ! ! ! ! ! ! ! ! ! ! ! ! ! ! ! ! ! ! ! ! ! ! ! ! ! ! ! ! ! ! ! ! ! ! ! ! ! ! ! ! ! ! ! ! ! ! ! ! ! ! ! ! ! ! ! ! ! $ # ! ! ! 8 B D D D E E E E E E E E E D D F G H ! ! ! # # # ! % & $ # ! ! ! , , ! ! ! ! ! ! ! ! ! ! ! ! ! ! ! ! ! ! ! ! ! ! ! ! ! ! ! ! ! ! ! ! ! ! ! ! ! ! ! ! ! ! ! ! ! ! ! ! ! ! ! ! ! ! ! ! ! ! ! ! ! ! ! ! ! ! ! ! ! ! ! ! ! ! ! ! ! ! ! ! !",
" ! ! ! ! ! ! ! ! ! ! ! ! ! ! ! ! ! ! ! ! ! ! ! ! ! ! ! ! ! ! ! ! ! ! ! ! ! ! ! ! ! ! ! ! ! ! ! ! ! ! ! ! ! ! ! ! ! ! ! ! ! ! ! ! ! ! ! ! ! ! ! ! ! ! ! ! ! ! ! ! ! ! ! ! ! ! ! ! ! ! ! ! ! ! ! ! ! ! ! ! ! ! ! ! ! ! ! ! ! ! ! ! ! ! ! ! ! ! ! ! ! ! ! ! ! ! ! ! ! ! ! ) I B : 6 ! ! ! - J K L M N N O O P P P O O N N M L K Q G ! ! ! ! ? A A H + 4 4 % ! , + # # ! ! ! ! ! ! ! ! ! ! ! ! ! ! ! ! ! ! ! ! ! ! ! ! ! ! ! ! ! ! ! ! ! ! ! ! ! ! ! ! ! ! ! ! ! ! ! ! ! ! ! ! ! ! ! ! ! ! ! ! ! ! ! ! ! ! ! ! ! ! ! ! ! ! ! ! ! ! !",
" ! ! ! ! ! ! ! ! ! ! ! ! ! ! ! ! ! ! ! ! ! ! ! ! ! ! ! ! ! ! ! ! ! ! ! ! ! ! ! ! ! ! ! ! ! ! ! ! ! ! ! ! ! ! ! ! ! ! ! ! ! ! ! ! ! ! ! ! ! ! ! ! ! ! ! ! ! ! ! ! ! ! ! ! ! ! ! ! ! ! ! ! ! ! ! ! ! ! ! ! ! ! ! ! ! ! ! ! ! ! ! ! ! ! ! ! ! ! ! ! ! ! ! ! ! ! ! ! ! % - ! ! ! ! R S T Q U N V W X Y Y Z Z [ ] ^ Z Z Y Y X W _ O ` a T S R ! ! ! ! b 7 5 / % ) ' $ # ! ! ! ! ! ! ! ! ! ! ! ! ! ! ! ! ! ! ! ! ! ! ! ! ! ! ! ! ! ! ! ! ! ! ! ! ! ! ! ! ! ! ! ! ! ! ! ! ! ! ! ! ! ! ! ! ! ! ! ! ! ! ! ! ! ! ! ! ! ! ! ! ! ! ! ! ! ! !",
" ! ! ! ! ! ! ! ! ! ! ! ! ! ! ! ! ! ! ! ! ! ! ! ! ! ! ! ! ! ! ! ! ! ! ! ! ! ! ! ! ! ! ! ! ! ! ! ! ! ! ! ! ! ! ! ! ! ! ! ! ! ! ! ! ! ! ! ! ! ! ! ! ! ! ! ! ! ! ! ! ! ! ! ! ! ! ! ! ! ! ! ! ! ! ! ! ! ! ! ! ! ! ! ! ! ! ! ! ! ! ! ! ! ! ! ! ! ! ! ! ! ! ! ! ! ! ! ! % 9 A - ! ! H Q M V W Y c d d e f f g h i i h g g g f f e d c j X k N a G ! ! $ G = l 6 3 @ * $ $ ! ! ! ! ! ! ! ! ! ! ! ! ! ! ! ! ! ! ! ! ! ! ! ! ! ! ! ! ! ! ! ! ! ! ! ! ! ! ! ! ! ! ! ! ! ! ! ! ! ! ! ! ! ! ! ! ! ! ! ! ! ! ! ! ! ! ! ! ! ! ! ! ! ! ! ! ! ! !",
" ! ! ! ! ! ! ! ! ! ! ! ! ! ! ! ! ! ! ! ! ! ! ! ! ! ! ! ! ! ! ! ! ! ! ! ! ! ! ! ! ! ! ! ! ! ! ! ! ! ! ! ! ! ! ! ! ! ! ! ! ! ! ! ! ! ! ! ! ! ! ! ! ! ! ! ! ! ! ! ! ! ! ! ! ! ! ! ! ! ! ! ! ! ! ! ! ! ! ! ! ! ! ! ! ! ! ! ! ! ! # # ! ! ! % % ! ! ! ! # ! ! ! % % ( ' ! ! ! J K M P X [ m n o p o q g r i m s s t u u r v q w x x y r ] z V N U Q R ! ! # ? @ @ % # # ! ! ! ! ! ! ! & # # # # ! ! ! ! ! ! ! ! ! ! ! ! ! ! ! ! ! ! ! ! ! ! ! ! ! ! ! ! ! ! ! ! ! ! ! ! ! ! ! ! ! ! ! ! ! ! ! ! ! ! ! ! ! ! ! ! ! ! ! ! ! ! ! ! ! ! !",
" ! ! ! ! ! ! ! ! ! ! ! ! ! ! ! ! ! ! ! ! ! ! ! ! ! ! ! ! ! ! ! ! ! ! ! ! ! ! ! ! ! ! ! ! ! ! ! ! ! ! ! ! ! ! ! ! ! ! ! ! ! ! ! ! ! ! ! ! ! ! ! ! ! ! ! ! ! ! ! ! ! ! ! ! ! ! ! ! ! ! ! ! ! ! ! ! ! ! ! ! ! ! ! ! % % % ! ! # $ $ , , % * ) - , % & / + , - % ) H > ! ! { N W [ e | y u } } } } ~! ! ! ! !!!! ~!#!# ~ ~! !  ~ } s!$ v | e!% Y O a $ ! : =!& / # ! ! % , , ' ' , ' 3!' $ $ / + , ! ! ! ! ! ! ! ! ! ! ! ! ! ! ! ! ! ! ! ! ! ! ! ! ! ! ! ! ! ! ! ! ! ! ! ! ! ! ! ! ! ! ! ! ! ! ! ! ! ! ! ! ! ! ! ! ! ! ! ! ! ! ! ! !",
" ! ! ! ! ! ! ! ! ! ! ! ! ! ! ! ! ! ! ! ! ! ! ! ! ! ! ! ! ! ! ! ! ! ! ! ! ! ! ! ! ! ! ! ! ! ! ! ! ! ! ! ! ! ! ! ! ! ! ! ! ! ! ! ! ! ! ! ! ! ! ! ! ! ! ! ! ! ! ! ! ! ! ! ! ! ! ! ! ! ! ! ! ! ! ! ! ! ! ! ! ! ! ! ! % % % ! ! # # # ' ' % % - ' + - ' 3 + . : I ! ! ! T M V Y i o p!( i!)!*!+!,!,!,!+!-!.!/!0!0!0!1!1!+!+!2!,!3!+!*!) u n o o g!4 _ N a @ ! #!5 ? % ! % , , ' ' 7 7!& 7 # # & ' ' % ! ! ! ! ! ! ! ! ! ! ! ! ! ! ! ! ! ! ! ! ! ! ! ! ! ! ! ! ! ! ! ! ! ! ! ! ! ! ! ! ! ! ! ! ! ! ! ! ! ! ! ! ! ! ! ! ! ! ! ! ! ! ! !",
" ! ! ! ! ! ! ! ! ! ! ! ! ! ! ! ! ! ! ! ! ! ! ! ! ! ! ! ! ! ! ! ! ! ! ! ! ! ! ! ! ! ! ! ! ! ! ! ! ! ! ! ! ! ! ! ! ! ! ! ! ! ! ! ! ! ! ! ! ! ! ! ! ! ! ! ! ! ! ! ! ! ! ! ! ! ! ! ! ! ! ! ! ! ! ! ! ! ! ! ! ! ! ! ! ! ! ! ! ! ! ! ! ' ' % ! ! $ $ , - 0 ' . b ! ! I T N Z x!6 y!7!8!2!9!:!;!<!=!>!?!@!@!?!A!>!>!A!A!?!=!=!A!A!A!B!C!D!D!0!E!# g!F!F ] V Q G 7 $!& % % ! ! ! & / l 7 - - ! ! % 0 0 % ! ! ! ! ! ! ! ! ! ! ! ! ! ! ! ! ! ! ! ! ! ! ! ! ! ! ! ! ! ! ! ! ! ! ! ! ! ! ! ! ! ! ! ! ! ! ! ! ! ! ! ! ! ! ! ! ! ! ! ! ! ! ! !",
" ! ! ! ! ! ! ! ! ! ! ! ! ! ! ! ! ! ! ! ! ! ! ! ! ! ! ! ! ! ! ! ! ! ! ! ! ! ! ! ! ! ! ! ! ! ! ! ! ! ! ! ! ! ! ! ! ! ! ! ! ! ! ! ! ! ! ! ! ! ! ! ! ! ! ! ! ! ! ! ! ! ! ! ! ! ! ! ! ! ! ! ! ! ! ! ! ! ! ! ! ! ! ! ! + + + ! , , ' - - - , ! ! # # ! ! % A B ! ! E L V Y n x n t ]!,!3!2!G!H!I!=!>!H!J!J!K!>!=!>!A!!!L!?!?!H!H!M!A!I!N!1!+!+!O!) r x o c _ M T ! ! = R ) ! & 6 6 & # # # ! - ) % % ! ! ! ! ! ! ! ! ! ! ! ! ! ! ! ! ! ! ! ! ! ! ! ! ! ! ! ! ! ! ! ! ! ! ! ! ! ! ! ! ! ! ! ! ! ! ! ! ! ! ! ! ! ! ! ! ! ! ! ! ! ! ! ! !",
" ! ! ! ! ! ! ! ! ! ! ! ! ! ! ! ! ! ! ! ! ! ! ! ! ! ! ! ! ! ! ! ! ! ! ! ! ! ! ! ! ! ! ! ! ! ! ! ! ! ! ! ! ! ! ! ! ! ! ! ! ! ! ! ! ! ! ! ! ! ! ! ! ! ! ! ! ! ! ! ! ! ! ! ! ! ! ! ! ! ! ! ! ! ! ! ! ! ! ! ! ! ! ! ! + . ' % , , ' ' , , , ! ! ! ! ! ! ! ! ! @ S L W q!6 v ]!3!,!P!L!L!M!A!A!G!>!>!?!<!<!=!=!=!>!A!!!!!A!?!<!<!?!?!A!Q!A!)!)!R!E!S!* f!6!T z N Q G ! # ! ( / 5 5 ! ! $ $ ! - ) % ! ! ! ! ! ! ! ! ! ! ! ! ! ! ! ! ! ! ! ! ! ! ! ! ! ! ! ! ! ! ! ! ! ! ! ! ! ! ! ! ! ! ! ! ! ! ! ! ! ! ! ! ! ! ! ! ! ! ! ! ! ! ! ! ! !",
" ! ! ! ! ! ! ! ! ! ! ! ! ! ! ! ! ! ! ! ! ! ! ! ! ! ! ! ! ! ! ! ! ! ! ! ! ! ! ! ! ! ! ! ! ! ! ! ! ! ! ! ! ! ! ! ! ! ! ! ! ! ! ! ! ! ! ! ! ! ! ! ! ! ! ! ! ! ! ! ! ! ! ! ! ! ! ! ! ! ! ! ! ! ! ! ! ! ! ! ! ! ! ! ! ! , & 0 - , ! $ 6 $ ! % % % % - B F ! ! Q O z e x m }!.!+!U!P!H!V!@!@!?!L!L!L!?!=!K!W!?!<!<!?!A!Q!A!?!<!<!<!H!A!Q!Q!X!Y!Z![!.!.!) u!( | c _ U ! ! $ D : b + # # 7 + , , - 3 / & ! ! ! ! ! ! ! ! ! ! ! ! ! ! ! ! ! ! ! ! ! ! ! ! ! ! ! ! ! ! ! ! ! ! ! ! ! ! ! ! ! ! ! ! ! ! ! ! ! ! ! ! ! ! ! ! ! ! ! ! ! ! ! !",
" ! ! ! ! ! ! ! ! ! ! ! ! ! ! ! ! ! ! ! ! ! ! ! ! ! ! ! ! ! ! ! ! ! ! ! ! ! ! ! ! ! ! ! ! ! ! ! ! ! ! ! ! ! ! ! ! ! ! ! ! ! ! ! ! ! ! ! ! ! ! ! ! ! ! ! ! ! ! ! ! ! ! ! ! ! ! ! ! ! ! ! ! ! ! ! ! ! ! ! ! ! ! ! ! ! ! & 0 - , ! $ 6 6 ! & & ( ) 2 ! !!] Q O j!F!F t!3!2!^!_!`!H!H!W!K!@!?!a!L!L!?!=!=!?!H!<!<!?!A!A!A!?!<!<!<!H!A!?!?!>!G!Z ~!V!b!-!3 ] o!6 t _ K J # ! ! , 8 / $ ' ' - , , 3 3 & ! ! ! ! ! ! ! ! ! ! ! ! ! ! ! ! ! ! ! ! ! ! ! ! ! ! ! ! ! ! ! ! ! ! ! ! ! ! ! ! ! ! ! ! ! ! ! ! ! ! ! ! ! ! ! ! ! ! ! ! ! ! ! !",
" ! ! ! ! ! ! ! ! ! ! ! ! ! ! ! ! ! ! ! ! ! ! ! ! ! ! ! ! ! ! ! ! ! ! ! ! ! ! ! ! ! ! ! ! ! ! ! ! ! ! ! ! ! ! ! ! ! ! ! ! ! ! ! ! ! ! ! ! ! ! ! ! ! ! ! ! ! ! ! ! ! ! ! ! ! ! ! ! ! ! ! ! ! ! ! ! ! ! ! ! ! ! ! ! , , - % ! # / / ' ' % 6 5 < : B ! ! U W!% x v }!<!*!c!P!d!e!L!f![!g!L!?!=!=!?!L!H!?!A!?!@!@!?!?!?!?!?!?!?!?!?!?!K!=!h!i!`!D!a!W!*!0!G!  u w e Y O J ! # : A C + % 0 @ 0 ! , , ! ! ! ! ! ! ! ! ! ! ! ! ! ! ! ! ! ! ! ! ! ! ! ! ! ! ! ! ! ! ! ! ! ! ! ! ! ! ! ! ! ! ! ! ! ! ! ! ! ! ! ! ! ! ! ! ! ! ! ! ! ! ! ! !",
" ! ! ! ! ! ! ! ! ! ! ! ! ! ! ! ! ! ! ! ! ! ! ! ! ! ! ! ! ! ! ! ! ! ! ! ! ! ! ! ! ! ! ! ! ! ! ! ! ! ! ! ! ! ! ! ! ! ! ! ! ! ! ! ! ! ! ! ! ! ! ! ! ! ! ! ! ! ! ! ! ! ! ! ! ! ! ! ! ! ! ! ! ! ! ! ! ! ! ! ! ! ! ! ! + 4 ' % ! ! / & - , -!j!j # ! ! T L _ g!6 n!J!3!.!V!C!N!k!g!!!f![!l!l!?!P!?!?!L!H!?!?!/!@!@!?!?!?!?!?!>!>!P!P!W!@!K!Q!h!<!@!I!I!Y!A!f!S!+ t!F!m j O K E ! ! ' B * & @ 0 ! , , ! ! ! ! ! ! ! ! ! ! ! ! ! ! ! ! ! ! ! ! ! ! ! ! ! ! ! ! ! ! ! ! ! ! ! ! ! ! ! ! ! ! ! ! ! ! ! ! ! ! ! ! ! ! ! ! ! ! ! ! ! ! ! ! !",
" ! ! ! ! ! ! ! ! ! ! ! ! ! ! ! ! ! ! ! ! ! ! ! ! ! ! ! ! ! ! ! ! ! ! ! ! ! ! ! ! ! ! ! ! ! ! ! ! ! ! ! ! ! ! ! ! ! ! ! ! ! ! ! ! ! ! ! ! ! ! ! ! ! ! ! ! ! ! ! ! ! ! ! ! ! ! ! ! ! ! ! ! ! ! ! ! ! ! ! ! ! ! ! ! $ 6 $ ! ! ! , , ! , 2 >!j + !!n N j | o t!c!9!l!o!o!B!p!C!Z!A!A!?!=!=!?!L!L!L!?!?!?!=!=!?!?!?!?!?!?!?!>!>!>!>!=!q!<!B!G!K!@!?!A!A!e!r!Z!s!c } i!m e W L E ! ( G - ! ' - , # $ # ! ! ! ! ! ! ! ! ! ! ! ! ! ! ! ! ! ! ! ! ! ! ! ! ! ! ! ! ! ! ! ! ! ! ! ! ! ! ! ! ! ! ! ! ! ! ! ! ! ! ! ! ! ! ! ! ! ! ! ! ! ! ! !",
" ! ! ! ! ! ! ! ! ! ! ! ! ! ! ! ! ! ! ! ! ! ! ! ! ! ! ! ! ! ! ! ! ! ! ! ! ! ! ! ! ! ! ! ! ! ! ! ! ! ! ! ! ! ! ! ! ! ! ! ! ! ! ! ! ! ! ! ! ! ! ! ! ! ! ! ! ! ! ! ! ! ! ! ! ! ! ! ! ! ! ! ! ! ! ! ! ! ! ! ! ! ! ! ! # 6 # + $ $ - , # < ; ! ! E K P Y p!m!$ ^!3!t!u!v!v!A!Z!<!D!<!K!K!=!K!<!H!?!l!?!=!=!>!>!L!L!?!=!=!>!?!A!A!G!G!=!K!<!i!i!w!W!h!l!g!R!r! !x!2!3 [ n!F f X O a ! ! ! G 9 8 ' $ 6 # ! ! ! ! ! ! ! ! ! ! ! ! ! ! ! ! ! ! ! ! ! ! ! ! ! ! ! ! ! ! ! ! ! ! ! ! ! ! ! ! ! ! ! ! ! ! ! ! ! ! ! ! ! ! ! ! ! ! ! ! ! ! ! !",
" ! ! ! ! ! ! ! ! ! ! ! ! ! ! ! ! ! ! ! ! ! ! ! ! ! ! ! ! ! ! ! ! ! ! ! ! ! ! ! ! ! ! ! ! ! ! ! ! ! ! ! ! ! ! ! ! ! ! ! ! ! ! ! ! ! ! ! ! ! ! ! ! ! ! ! ! ! ! ! ! ! ! ! ! ! ! ! ! ! ! ! ! ! ! ! ! ! ! ! ! ! ! ! ! ! ! , . 5 6 & % $!& $ % F U _ d!6 g!J!E![!;!e!y!P!?!?!w!_!J!J!@!=!P!H!<!K!=!P!?!=!=!A!A!L!L!?!=!=!=!?!L!L!A!A!?!I!?!d!d!o!v!i!e!L!H!?!x!y!l!>!c!1 }!T!F j V Q 9 !!z ! - ' $ $ # ! ! ! ! ! ! ! ! ! ! ! ! ! ! ! ! ! ! ! ! ! ! ! ! ! ! ! ! ! ! ! ! ! ! ! ! ! ! ! ! ! ! ! ! ! ! ! ! ! ! ! ! ! ! ! ! ! ! ! ! ! ! ! !",
" ! ! ! ! ! ! ! ! ! ! ! ! ! ! ! ! ! ! ! ! ! ! ! ! ! ! ! ! ! ! ! ! ! ! ! ! ! ! ! ! ! ! ! ! ! ! ! ! ! ! ! ! ! ! ! ! ! ! ! ! ! ! ! ! ! ! ! ! ! ! ! ! ! ! ! ! ! ! ! ! ! ! ! ! ! ! ! ! ! ! ! ! ! ! ! ! ! ! ! ! ! ! ! ! ! ! - - 4 + & A G ! ! T N X!%!m n!)!+!E!k!;!:!>!l!R!@!W!w!v!b!{!{!?!H!?!I!>!k!?!W!W!?!A!?!?!?!>!>!K!<!;!;!?!?!A!l!A!?!?!P!|!i!v!C!}!p!{!|!w!>!t!,!. s w o c _ M E ! ! 8 = ( # ! ! ! ! ! ! ! ! ! ! ! ! ! ! ! ! ! ! ! ! ! ! ! ! ! ! ! ! ! ! ! ! ! ! ! ! ! ! ! ! ! ! ! ! ! ! ! ! ! ! ! ! ! ! ! ! ! ! ! ! ! ! ! ! !",
" ! ! ! ! ! ! ! ! ! ! ! ! ! ! ! ! ! ! ! ! ! ! ! ! ! ! ! ! ! ! ! ! ! ! ! ! ! ! ! ! ! ! ! ! ! ! ! ! ! ! ! ! ! ! ! ! ! ! ! ! ! ! ! ! ! ! ! ! ! ! ! ! ! ! ! ! ! ! ! ! ! ! ! ! ! ! ! ! ! ! ! ! ! ! ! ! ! ! ! ! ! ! ! ! ! ! % % - , ! ! ! A S N Y p!F t!3!9!>!H!w!?!~!X!R!r!@!K!A!h!i!i!i!?!?!?!A!A!A!?!?!?!?!?!=!=!?!?!?!<!<!<!<!?!?!A!l!A!}!}!8# !v!w!~!}!}!A!v!/!>!i!v!=!S!c f!6!T Y M!n G ! ! ! % % ! ! ! ! ! ! ! ! ! ! ! ! ! ! ! ! ! ! ! ! ! ! ! ! ! ! ! ! ! ! ! ! ! ! ! ! ! ! ! ! ! ! ! ! ! ! ! ! ! ! ! ! ! ! ! ! ! ! ! ! ! ! ! !",
" ! ! ! ! ! ! ! ! ! ! ! ! ! ! ! ! ! ! ! ! ! ! ! ! ! ! ! ! ! ! ! ! ! ! ! ! ! ! ! ! ! ! ! ! ! ! ! ! ! ! ! ! ! ! ! ! ! ! ! ! ! ! ! ! ! ! ! ! ! ! ! ! ! ! ! ! ! ! ! ! ! ! ! ! ! ! ! ! ! ! % & $ & * ( 5 $ % ! ! ! ! ! ! ! # /!z > ; ! ! a V!4!( w s!;!.!9!?!H!?!?!I!I!w!w!W!?!?!B!B!k!l!?!?!?!w!e!w!?![![!u!b!=!/!v!v!v!e!w!/!=!?!w!?!>!s!Y!Y!8!@!?!{!x!9!G!M!L!w# !^#!!N!~!c!V r w w Y V a## ! , R H % ! % 0 * % # $ % % ! ! % % ! ! ! ! ! ! ! ! ! ! ! ! ! ! ! ! ! ! ! ! ! ! ! ! ! ! ! ! ! ! ! ! ! ! ! ! ! ! ! ! ! ! ! ! ! ! ! ! ! !",
" ! ! ! ! ! ! ! ! ! ! ! ! ! ! ! ! ! ! ! ! ! ! ! ! ! ! ! ! ! ! ! ! ! ! ! ! ! ! ! ! ! ! ! ! ! ! ! ! ! ! ! ! ! ! ! ! ! ! ! ! ! ! ! ! ! ! ! ! ! ! ! ! ! ! ! ! ! ! ! ! ! ! ! ! ! ! ! ! ! ! % & $ & @ ( 5 $ % ! ! ! ! ! ! ! ' 7 $ ! ! S a V!%!6!(!)!3!0!;!H!?!?!?!?!?!?!?!?!?!?!?!H!:!I!I!?!w!w!w!w!?!I![!f!u#$!=!/!v!w!w!h!h!P!>!?!?!?!s!s!W#!!P!P!?!{!P!P!K!H!H!?!W!/!K!C!#!;!2!3 [ w!6!% V U!n ! ! ! 9 - % 0 * - + $ / & ! ! & % ! ! ! ! ! ! ! ! ! ! ! ! ! ! ! ! ! ! ! ! ! ! ! ! ! ! ! ! ! ! ! ! ! ! ! ! ! ! ! ! ! ! ! ! ! ! ! ! ! !",
" ! ! ! ! ! ! ! ! ! ! ! ! ! ! ! ! ! ! ! ! ! ! ! ! ! ! ! ! ! ! ! ! ! ! ! ! ! ! ! ! ! ! ! ! ! ! ! ! ! ! ! ! ! ! ! ! ! ! ! ! ! ! ! ! ! ! ! ! ! ! ! ! ! ! ! ! ! ! ! ! ! ! ! ! ! ! ! ! ! ! ! ! ! #!& 7 + ! ! ! ! ! ! , , , I < # ! E M Y d p r! !x!c!>!?!?!?!?!?!?!?!?!?!?!?!?!?!v!v#%!Y!/!|!i!{!=!X!C!Z!M!r!_!?!?!w!>!>!>!?!L!L!=!8!=!?!w# # !i#&!i!A!C!Y!D!@!=!N!C!p!G!>! !r!P!-!. } i!T d z O!n ! ! D : & $ + 2 b (!'!' , , $ # ! ! ! ! ! ! ! ! ! ! ! ! ! ! ! ! ! ! ! ! ! ! ! ! ! ! ! ! ! ! ! ! ! ! ! ! ! ! ! ! ! ! ! ! ! ! ! ! ! !",
" ! ! ! ! ! ! ! ! ! ! ! ! ! ! ! ! ! ! ! ! ! ! ! ! ! ! ! ! ! ! ! ! ! ! ! ! ! ! ! ! ! ! ! ! ! ! ! ! ! ! ! ! ! ! ! ! ! ! ! ! ! ! ! ! ! ! ! ! ! ! ! ! ! ! ! ! ! ! ! ! ! ! ! ! ! ! ! ! ! ! ! ! ! + 1 . , ! ! ! ! % % , 9 < ! !## Q N X p!6 f ^!S!-!_!H!?!?!?!?!?!?!?!?!?!?!?!?!?!w!w!K!X!?!l!h!P!=!X!C!Z!M!l!w!?!K!I!>!I!I!<!a!a!=!8!=!b#$!^# !e!e!|!l!M!D ]!@!P!B!I!B!B!P!v!R!;!N!E!S ^ i!F o Y O K E ! ! # C 8 2 - )!' / , , + ! ! ! ! ! ! ! ! ! ! ! ! ! ! ! ! ! ! ! ! ! ! ! ! ! ! ! ! ! ! ! ! ! ! ! ! ! ! ! ! ! ! ! ! ! ! ! ! ! ! !",
" ! ! ! ! ! ! ! ! ! ! ! ! ! ! ! ! ! ! ! ! ! ! ! ! ! ! ! ! ! ! ! ! ! ! ! ! ! ! ! ! ! ! ! ! ! ! ! ! ! ! ! ! ! ! ! ! ! ! ! ! ! ! ! ! ! ! ! ! ! ! ! ! ! ! ! ! ! ! ! ! ! ! ! ! ! ! ! ! ! ! ! ! ' b 2 2 - - , , - @ * ! < ? ! ! a P c!F!( t!I!t!i!w!?!?!?!?!?!?!?!?!?!?!?!?!?!?!?!>!=!=!>!Z!Z!>!>!?!?!?!?!?!f!k!=!@!=!?!L!H!<!<!<!?!?!?#$#$!v!?!H!J!q!o!u!_ ]#%!g#&!|!<!<!?!P!=!X!C!p!9!~!9 } q!F f W U @ ! 9 H 9 % % % , , ! , 2 , ! ! ! ! ! ! ! ! ! ! ! ! ! ! ! ! ! ! ! ! ! ! ! ! ! ! ! ! ! ! ! ! ! ! ! ! ! ! ! ! ! ! ! ! ! ! ! ! ! !",
" ! ! ! ! ! ! ! ! ! ! ! ! ! ! ! ! ! ! ! ! ! ! ! ! ! ! ! ! ! ! ! ! ! ! ! ! ! ! ! ! ! ! ! ! ! ! ! ! ! ! ! ! ! ! ! ! ! ! ! ! ! ! ! ! ! ! ! ! ! ! ! ! ! ! ! ! ! ! ! ! ! ! ! ! ! ! ! ! ! ! # # 7 ' - - ' ' - , - H A > ! !!n L _ c!F x t ^!-!x!R!Z!p!?!?!?!?!?!?!?!?!?!?!?!?!?!?!>!9!/!I!Z!Z!8!W!_!_#!!W!?!B!Q!W!/# !w!R!a!<!W!W!?!?!?!v!u!l!G!A!J!J#!!d!b!@!K!A!g!h#%!J!K!W!<!=!I!;#%!~!3!,!) w!F r W N Q## ! ! A!z % , , ! + l 7 ! ! ! ! ! ! ! ! ! ! ! ! ! ! ! ! ! ! ! ! ! ! ! ! ! ! ! ! ! ! ! ! ! ! ! ! ! ! ! ! ! ! ! ! ! ! ! ! ! !",
" ! ! ! ! ! ! ! ! ! ! ! ! ! ! ! ! ! ! ! ! ! ! ! ! ! ! ! ! ! ! ! ! ! ! ! ! ! ! ! ! ! ! ! ! ! ! ! ! ! ! ! ! ! ! ! ! ! ! ! ! ! ! ! ! ! ! ! ! ! ! ! ! ! ! ! ! ! ! ! ! ! ! ! ! ! ! ! ! ! ! # $ $ # % & $ & % , , - ( l ) G M X e!6 i!1!-!.!q!_!?!p!p!?!?!?!?!?!?!?!?!?!?!?!?!?!?!{!x#!#%!C!N!=#!!_!_!q!W!?!A!A!?!w!v!v!v!w!?!?!?!?!>!>!A!!!f![!k!H!<!K!>!P!?!=!=!B!B!C!@!@!<!;!{!x!b!V!C!?!y!-!~ t y!F j O Q B ! $ ( % , , , 4!'!' ! ! ! ! ! ! ! ! ! ! ! ! ! ! ! ! ! ! ! ! ! ! ! ! ! ! ! ! ! ! ! ! ! ! ! ! ! ! ! ! ! ! ! ! ! ! ! ! ! !",
" ! ! ! ! ! ! ! ! ! ! ! ! ! ! ! ! ! ! ! ! ! ! ! ! ! ! ! ! ! ! ! ! ! ! ! ! ! ! ! ! ! ! ! ! ! ! ! ! ! ! ! ! ! ! ! ! ! ! ! ! ! ! ! ! ! ! ! ! ! ! ! ! ! ! ! ! ! ! ! ! ! ! ! ! ! ! ! ! ! ! # # # ! - ' # # & ? B ; ! ! Q O z e!m h!)!,!.#!!J!:!B!k!P!?!?!?!?!?!?!?!?!?!?!?!?!?!?!b!b#%!D!Y!/!P!9!9!x!w#%!K!^!^!>!I!w!^!^!w!L!A!A!?!?!?!Z ~!l!h!s!N!?!I!>!A!!!w# !G!p!:!<!{!k!Q!f!h!`!V!;! !y!E!U ^!$ y!T c _ L E ! ! F A ( 4 $ $ & ! ! ! ! ! ! ! ! ! ! ! ! ! ! ! ! ! ! ! ! ! ! ! ! ! ! ! ! ! ! ! ! ! ! ! ! ! ! ! ! ! ! ! ! ! ! ! ! ! !",
" ! ! ! ! ! ! ! ! ! ! ! ! ! ! ! ! ! ! ! ! ! ! ! ! ! ! ! ! ! ! ! ! ! ! ! ! ! ! ! ! ! ! ! ! ! ! ! ! ! ! ! ! ! ! ! ! ! ! ! ! ! ! ! ! ! ! ! ! ! ! ! ! ! ! ! ! ! ! ! ! ! ! ! ! ! ! ! ! ! ! ! ! % % , , ! # $ $ ! ! D Q O [!F o t!,!2!?! !L!N!N!l!{# !?!?!?!?!?!?!?!?!?!?!?!?!?!?!_!_!:!I#%!V! !M![!g!!!C#%!^!^!s!N!I!/# !{!l!k!k!P!P!P!X!X!{!v!X!N!A!A!?!M!M!R!v!{!I!<!a!i!f![!Q!L!<!<!;!R!e!L!Z!0!- ^ f!6 n X M S A ! ! # $ / ! ! ! ! ! ! ! ! ! ! ! ! ! ! ! ! ! ! ! ! ! ! ! ! ! ! ! ! ! ! ! ! ! ! ! ! ! ! ! ! ! ! ! ! ! ! ! ! ! ! ! !",
" ! ! ! ! ! ! ! ! ! ! ! ! ! ! ! ! ! ! ! ! ! ! ! ! ! ! ! ! ! ! ! ! ! ! ! ! ! ! ! ! ! ! ! ! ! ! ! ! ! ! ! ! ! ! ! ! ! ! ! ! ! ! ! ! ! ! ! ! ! ! ! ! ! ! ! ! ! ! ! ! ! ! ! ! ! ! ! ! ! ! , , % % ! ! ! > > 4 !## U W c!T q!7!I!0!9!G!f!f![!|#$!<!:!I!?!?!?!?!?!?!?!?!?!?!?!?!?!M ~!y!y!J!)!)!)!)!) ] ] ] ] ]!*!* ^ ^ ^!-!1!+!+!-!-!-!+!3!+!.!q!V!L!M!C!Y!N!B!e!r!V!Y!X!k!k!?!a!V!u!{!W!q!V!u!h!P!1!U ~ m o e Y V a ! ! : =!z , , ! ! ! ! ! ! ! ! ! ! ! ! ! ! ! ! ! ! ! ! ! ! ! ! ! ! ! ! ! ! ! ! ! ! ! ! ! ! ! ! ! ! ! ! ! ! ! ! ! !",
" ! ! ! ! ! ! ! ! ! ! ! ! ! ! ! ! ! ! ! ! ! ! ! ! ! ! ! ! ! ! ! ! ! ! ! ! ! ! ! ! ! ! ! ! ! ! ! ! ! ! ! ! ! ! ! ! ! ! ! ! ! ! ! ! ! ! ! ! ! ! ! ! ! ! ! ! ! ! ! ! ! ! ! ! ! ! ! ! ! ! + + & & # ( ) # ! @!n ` _ q#' f ]!,!9 ~!Z!N![![![!|!o!<!C!I!?!?!?!?!?!?!?!?!?!?!?!?!?!M!g!y!y!7 m i r r r m!$ m m m m m m m m!$!$!$!$!$ s!$!$ u m s! !^!w!M!C!Y!X!X!?! !V!8!c!=!W!D!<#!!e!h!>!q!V!b!|!;!;!G!S!3 t!T!6!% V K!n @ ! ! 8 8 ! ! ! ! ! ! ! ! ! ! ! ! ! ! ! ! ! ! ! ! ! ! ! ! ! ! ! ! ! ! ! ! ! ! ! ! ! ! ! ! ! ! ! ! ! ! ! ! ! !",
" ! ! ! ! ! ! ! ! ! ! ! ! ! ! ! ! ! ! ! ! ! ! ! ! ! ! ! ! ! ! ! ! ! ! ! ! ! ! ! ! ! ! ! ! ! ! ! ! ! ! ! ! ! ! ! ! ! ! ! ! ! ! ! ! ! ! ! ! ! ! ! ! ! ! ! ! ! ! ! ! ! ! ! ! ! ! ! ! ! ! / / 4 5 l R G ! ! Q O Y | p m!B!2!P!i!l!N!@!q!J!~!G!h!{# !?!?!?!?!?!?!?!?!?!?!?!?!?!?!H!?![!M }!7!7!7 s s!$!$ u r h n n q!(!(!(!( w w q q w!T!F p h! !-!.!w!A!a!_!K!=!?!w!x!/# !W!C!N!s!?!A!f!>!W!q!<!H!A!w!{!P!t!  g!m d Y N T ! ! = = % ! ! ! ! ! ! ! ! ! ! ! ! ! ! ! ! ! ! ! ! ! ! ! ! ! ! ! ! ! ! ! ! ! ! ! ! ! ! ! ! ! ! ! ! ! ! ! ! !",
" ! ! ! ! ! ! ! ! ! ! ! ! ! ! ! ! ! ! ! ! ! ! ! ! ! ! ! ! ! ! ! ! ! ! ! ! ! ! ! ! ! ! ! ! ! ! ! ! ! ! ! ! ! ! ! ! ! ! ! ! ! ! ! ! ! ! ! ! ! ! ! ! ! ! ! ! ! ! ! ! ! ! ! ! ! ! ! ! ! ! / / 1 ? > ! ! E K P Y!m!F t ^!S!t!;!u!y!N!J!q!J!K!G!f!w#!!?!?!?!?!?!?!?!?!?!?!?!?!?!?!1!; s [ Y _ V V V _ _ W W W W W X X X X z z z z z Y Y z z X z Z!v! !`!A!H!`!w!P!N!:!{!|!{!?!C!Y!~!X!B!f!f!9!X!<!a!l!o!r! !2!S ^ f!6 y z O K E ! ! 8 I % ! ! ! ! ! ! ! ! ! ! ! ! ! ! ! ! ! ! ! ! ! ! ! ! ! ! ! ! ! ! ! ! ! ! ! ! ! ! ! ! ! ! ! ! ! ! !",
" ! ! ! ! ! ! ! ! ! ! ! ! ! ! ! ! ! ! ! ! ! ! ! ! ! ! ! ! ! ! ! ! ! ! ! ! ! ! ! ! ! ! ! ! ! ! ! ! ! ! ! ! ! ! ! ! ! ! ! ! ! ! ! ! ! ! ! ! ! ! ! ! ! ! ! ! ! ! ! ! ! ! ! ! ! ! ! ! ! ! % - . ; < ! $ U W d!6 g!#!=!/!|!H!C!P!x!?!?!?!w!v!l!A!H!<!?!?!?!?!?!?!?!?!?!?!?!?!?!?!+ }!( c P Q D D J { Q Q Q a a K K U U U U ` ` M M M M M U U O Y s s!J!?!X!Y!d!d!}!Y!w!e!A!A!?!J!J!@!>!A!B!s!s!?!v!v!w!?!<!H!G!U!8!7 q!m!% W L # ! 9 = % ! ! ! ! ! ! ! ! ! ! ! ! ! ! ! ! ! ! ! ! ! ! ! ! ! ! ! ! ! ! ! ! ! ! ! ! ! ! ! ! ! ! ! ! ! ! !",
" ! ! ! ! ! ! ! ! ! ! ! ! ! ! ! ! ! ! ! ! ! ' ' ' ! ! ! ! ! ! ! ! ! ! ! ! ! ! ! ! ! ! ! ! ! ! ! ! ! ! ! ! ! ! ! ! ! ! ! ! ! ! ! ! ! ! ! ! ! ! ! ! ! ! ! ! ! ! ! ! ! ! ! ! ! ! ! ! ! ! H A ; ! ! T M X d!F q!)!3!2!P!R!H!I!P!P!?!?!?!w!v!w!?!H!H!?!?!?!w!{!{!w!w!?!?!?!?!?!? ^!7 o!4 M 1 ! ! ! ! ! # ! % @ C F D E E E S S S!n T { E !!n N Y g!7!*!w!?!Z!d!o!}!}!w!e!A!A!?!<!J!W!>!?!?!N!>!?!w!w!?!?!`!D!Z!9!,!- t q p d X N Q ! ! ! ? ? , ! 7 & ! ! ! ! ! % % ! ! ! ! ! # # # # ! ! ! ! ! ! ! ! ! ! ! ! ! ! ! ! ! ! ! ! ! ! ! ! !",
" ! ! ! ! ! ! ! ! ! ! ! ! ! ! ! ! ! ! ! ! ! ' ' ' ! ! ! ! ! ! ! ! ! ! ! ! ! ! ! ! ! ! ! ! ! ! ! ! ! ! ! ! ! ! ! ! ! ! ! ! ! ! ! ! ! ! ! ! ! ! ! ! ! ! ! ! ! ! ! ! ! ! ! ! ! ! ! ! ! ! ! ! H H E N Y!m!m!$!,!y!e!>!I!?!?!?!?!?!?!?!?!?!?!?!?!?!?!?!?!<!w!i!i!v!w!?!A!A!?!?!? ^!7 g Y `#(!&## ) 8 8 l!' & ! $ 4 , - % # $ $ # , ' 6 % D U _ [ i }!1!v!R!!!o#$!N!p!w!v!?!?!?!?!?!?!?!?!?!?!?!?!?!?!?!w!_!W!s!I!v!d!t!U s p!F Z O T!z ( # $ , + l / ! ! ! ! ! % % ! ! ! ! ! # $ $ # ! ! ! ! ! ! ! ! ! ! ! ! ! ! ! ! ! ! ! ! ! ! ! ! !",
" ! ! ! ! ! ! ! ! ! ! ! ! ! ! ! ! ! ! ! ! ! ! ! ! ! ! ! ! ! ! ! ! ! ! ! ! ! ! ! ! ! ! ! ! ! ! ! ! ! ! ! ! ! ! ! ! ! ! ! ! ! ! ! ! ! ! ! ! ! ! ! ! ! ! ! ! ! ! ! ! ! ! ! ! ! ! ! ! ) ! ! ! ! K V Y!( y!$#!!,!1!<!H!H!?!?!?!?!?!?!?!?!?!?!?!?!?!?!A!?!<!a!l!l!w!?!?!A!A!?!=!?!) m u W#) 1 I F ) - 8!' 6 # ! ! $ $ # ! ! ! ! ! 8 ! ! J N X c t!D!N!=!L!e!w#$#!!s!s!`!_!?!?!?!?!?!?!?!?!?!?!?!?!?!?!w!v!v!<!Y#%!M!i!.!+!Y s o y c _ L E ! ! : G!& # , ! ! , , ! ! ! , , ! ! % & & % , 4 6 $ ! ! ! ! ! ! ! ! ! ! ! ! ! ! ! ! ! ! ! ! !",
" ! ! ! ! ! ! ! ! ! ! ! ! ! ! ! ! ! ! ! ! ! ! ! ! ! ! ! ! ! ! ! ! ! ! ! ! ! ! ! ! ! ! ! ! ! ! ! ! ! ! ! ! ! ! ! ! ! ! ! ! ! ! ! ! ! ! ! ! ! ! ! ! ! ! ! ! ! ! ! ! ! ! ! ! ! ! ! ! ) )!]!n a V i#' e ]!S!E!V!Y!@!<!H!?!?!?!?!?!?!?!?!?!?!?!?!?!?!A!?!<!H!A!A!?!?!?!A!A!?!c!? s r [ V J % ! B - - (!&!& ' ' ) C!&!& ) 8 8 9 9 %!z S N j!6!F!7!3!c!H!L!w# !W!N!s!>!`!_!?!?!?!?!?!?!?!?!?!?!?!?!?!?!v!v!?#%!D!Y!p!N!V!V!t!S ] e#' n W M T G ! ! ! - , ! ! , , ! ! ! , + ! ! % % % % , 4 6 $ ! ! ! ! ! ! ! ! ! ! ! ! ! ! ! ! ! ! ! ! !",
" ! ! ! ! ! ! ! ! ! ! ! ! ! ! ! ! ! ! ! ! ! ! ! ! ! ! ! ! ! ! ! ! ! ! ! ! ! ! ! ! ! ! ! ! ! ! ! ! ! ! ! ! ! ! ! ! ! ! ! ! ! ! ! ! ! ! ! ! ! ! ! ! ! ! ! # / & ! # $ # ! ! # $ C ! % D K P X c!( v }!/!E![!M!I!K!<!<!?!?!?!?!?!?!?!?!?!?!?!?!?!?!A!A!?!K!=!=!?!?!?!?!H!<!1!A r n Y O!n ! ! = , - % % % $ $ 0 0 & & % ! ) G ( ! T O Y!F x!7!M!9!K!`!v!w!?!C!C!A!h!=!/!?!?!?!?!?!?!?!?!?!?!?!?!?!?!v!w!X!~#%!?!B!p!Z!V!^!.!-!) i y e Y P a ! ! 8 F ( % ! % & $ # , + 5 7 ' ! ! + + , ' & & ! ! ! ! ! ! ! ! ! ! ! ! ! ! ! ! ! ! ! ! !",
" ! ! ! ! ! ! ! ! ! ! ! ! ! ! ! ! ! ! ! ! ! ! ! ! ! ! ! ! ! ! ! ! ! ! ! ! ! ! ! ! ! ! ! ! ! ! ! ! ! ! ! ! ! ! ! ! ! ! ! ! ! ! ! ! ! ! ! ! ! ! ! ! ! ! ! # / & ! # $ # ! ! # / = ! ! E O Z#'#' f ^!S!E ~!R!l!l!?!<!<!?!?!?!?!?!?!?!?!?!?!?!?!?!?!A!A!?!=!=!=!?!?!?!?!H!<!U!A n e X M S # ! : , - % ! , $ $ / & % ! ! ( % ! !!n M Y!m y!)!3!U ~!`!_!v!w!?!:!a!e!i!>!>!?!?!?!?!?!?!?!?!?!?!?!?!?!?!v!w!~!N!l!i!w!B!p!Y!V#*!x!,!3 t p!6 c V K!n ! ! ! ' ' % & $ # , + 5 7 ' ! ! 4 4 , - % % ! ! ! ! ! ! ! ! ! ! ! ! ! ! ! ! ! ! ! ! !",
" ! ! ! ! ! ! ! ! ! ! ! ! ! ! ! ! ! ! ! ! ! ' ' ' ! ! ! ! ! ! ! ! ! ! ! ! ! ! ! ! ! ! ! ! ! ! ! ! ! ! ! ! ! ! ! ! ! ! ! ! ! ! ! ! ! ! ! ! ! ! ! ! ! ! ! ! % , , % % ! ! ! % ) = ! ! E O j#'#' f!+!3!2! !r!o!w!I!?!?!?!?!?!?!?!?!?!?!?!?!?!?!?!?!?!?!?!=!=!=!?!?!?!?!?!?!+!A!( e _ U D ! ! < ! % % + . , # $ # , , ! A ' ! S N z |!T! !E!E!~!N!v!e!l!B!?!o!o!^!/!A!A!?!?!?!?!?!?!?!?!?!?!?!?!?!?!A!A!I!A!u!d!^!b#%!~!K!L!e![!0!K ~ r!m e Y N E ! , ? ? ' , ! ! ! ! % % % ! # $ $ % % ! ! ! ! ! ! ! ! ! ! ! ! ! ! ! ! ! ! ! ! ! ! !",
" ! ! ! ! ! ! ! ! ! ! ! ! ! ! ! ! ! ! ! ! ! ' ' ' ! ! ! ! ! ! ! ! ! ! ! ! ! ! ! ! ! ! ! ! ! ! ! ! ! ! ! ! ! ! ! ! ! ! ! ! ! ! ! ! ! ! ! ! ! ! ! ! ! ! ! ! % , , & 3!&!&!&!& C I ! - D U O _ c w q t!*!,!x!r!H!C!A!A!?!?!?!?!?!?!?!?!?!?!?!?!?!?!?!?!?!=!=!=!?!?!?!?!?!?!+!A q d V a R ! ! : ! % % 4 4 , ! # ! , 8 ! ? ! S ` z |!T t!3!2!!!W!q!e!A!p!p!I!w!v#!!W!A!A!?!?!?!?!?!?!?!?!?!?!?!?!?!?!G!k!e!e!v!o#$!b!H!N!X!I!a!u!{!2!3!O g!6!( Y O a!] ! ! b : & # # # * * * % # 6 6 % % ! ! ! ! ! ! ! ! ! ! ! ! ! ! ! ! ! ! ! ! ! ! !",
" ! ! ! ! ! ! ! ! ! ! ! ! ! ! ! ! ! ! ! ! ! ' ' ' ! ! ! ! ! ! ! ! ! ! ! ! ! ! ! ! ! ! ! ! ! ! ! ! ! ! ! ! ! ! ! ! ! ! ! ! ! ! ! ! ! ! ! ! ! ! ! ! ! ! ! ! , - % #!' 7 ' ' 7!' & % 9 ' : D Q P [!6 o t!,!E!Q!C!C!A!A!?!?!?!?!?!?!?!?!?!?!?!?!?!?!?!?!?!?!?!?!?!?!?!?!?!?!-!L n!% O J @ % ! 8 % % % $ $ ' - , , , : ! ! E L W |!m }!U!9!?!o#$#$!l!G!s!N!C!~!X!;!;!A!A!?!?!?!?!?!?!?!?!?!?!?!?!?!?!>!P!i!|!q!_!_!w!A!A!W!@!@!?!P!>!=!c!E!) e!6 f _ K!] ! - 9 $ $ $ / 0 ) ) % # 6 6 , , , ! ! ! ! ! ! ! ! ! ! ! ! ! ! ! ! ! ! ! ! ! !",
" ! ! ! ! ! ! ! ! ! ! ! ! ! ! ! ! ! ! ! ! ! ! ! ! ! ! ! ! ! ! ! ! ! ! ! ! ! ! ! ! ! ! ! ! ! ! ! ! ! ! ! ! ! ! ! ! ! ! ! ! ! ! ! ! ! ! ! ! ! ! ! ! ! ! ! ! ,!5 C ! ! ! ! ! ! ! # C ? ! ! ! @ a O z n!F g!)!3!2!I!R!a!?!?!?!?!?!?!?!?!?!?!?!?!?!?!?!?!?!?!?!A!?!?!?!?!A!A!* }!( [ N D % H ! - & # ! $ $ ! % ' ( % = - I a _ d!T f!+!,!Z! #*!r!l!>!s!>!w!?!X!X!`!a!A!A!?!?!?!?!?!?!?!?!?!?!?!?!?!?!K!W!{!{!v!b#!!?!?!l!v!J#%!p!A!A#%!1!S!+ [ y!F d W N Q ! ! 4 F C ' ' & ' ! ! $ $ + + , ! ! ! ! ! ! ! ! ! ! ! ! ! ! ! ! ! ! ! ! ! !",
" ! ! ! ! ! ! ! ! ! ! ! ! ! ! ! ! ! ! ! ! ! ! ! ! ! ! ! ! ! ! ! ! ! ! ! ! ! ! ! ! ! ! ! ! ! ! ! ! ! ! ! ! ! ! ! ! ! ! ! ! ! ! ! ! ! ! ! ! ! ! ! ! ! ! ! ! , , ! !!& > > > C!& ! ! , , :!5 > !## M z e!T h ~!>!P!|!w!?!?!?!?!?!?!?!?!?!?!?!?!?!?!?!?!?!?!?!A!A!?!?!A!k!k!J s v j ` , ! = , ' $ # ! # $ ! ! / C % ! ) Q O c!6!$ ^!*!C!!!r!_!M!p!=!/!v!o!v!?!?!q#!!A!A!?!?!?!?!?!?!?!?!?!?!?!?!?!?!<!<!=!P#&!i# !W!<!w!o!_!H!p!B!A!K!q!L![!9!1 t!F!F Y O { A ! @ & - , # $ # ! ! # $ # ! ! ! ! ! ! ! ! ! ! ! ! ! ! ! ! ! ! ! ! ! ! !",
" ! ! ! ! ! ! ! ! ! ! ! ! ! ! ! ! ! ! ! ! ! ! ! ! ! + 1!j!j!j!j 5 # ! ! ! ! ! ! ! ! ! ! ! ! ! ! ! ! ! ! ! ! ! ! ! ! ! ! ! ! ! ! ! ! ! ! ! ! ! ! ! ! ! ! C > ! ! F#+#,#,#,#,#+ C ! ! > > ? l ! ! S K V j p p t ^!S!E!H!;!?!?!?!?!?!?!?!?!?!?!?!?!?!?!?!?!?!A!A!w!w!L![![!7 u!$ X K ! ! G - ' # ! ! ! # & + # 9 I ! F N Y x w!#!3!q!a!A!B!I!p!G!e!v!`!<!H!?!?#%#%!e!e!?!?!?!?!?!?!?!?!?!?!?!?!?!?!<!H!Z!B!x!|!^!w!W!?!v!e!w!>!s!>#!#$!r#&!E!S!O!$ x o c _ L## ! ! B : ' # ' ' ! # / & ! ! ! ! ! ! ! ! ! ! ! ! ! ! ! ! ! ! ! ! ! ! !",
" ! ! ! ! ! ! ! ! ! ! ! ! ! ! ! ! ! ! ! ! ! ! ! ! ! ! ! % % % % ! ! # ! ! ! ! ! ! ! ! ! ! ! ! ! ! ! ! ! ! ! ! ! ! ! ! ! ! ! ! ! ! ! ! ! ! ! ! ! ! ! # ! ! !!&#-#,#.#/#0#0#1#.#,!] 7 ! ! ! 7 B B ! ! Q O Y e x u }!0!9!?!?!?!?!?!?!?!?!?!?!?!?!?!?!?!?!?!?!A!A!v!v!L!9!9 s g [ _ Q % ! G - - ! ! ! ! ! / 7 ) - ! G a X y n [!C!x!o!v!?!p!p!s!P!r!R!<!Y!C!?!?!C!:!v!v!?!?!?!?!?!?!?!?!?!?!?!?!?!?!?!A!Z!B!K!/!w!w!?!?!w!i!{!=!8!=!b#$#$!u!Q![!t!3!O!(!6 h W U!n I ! ! , - ' ' ! # / & ! ! ! ! ! ! ! ! ! ! ! ! ! ! ! ! ! ! ! ! ! ! !",
" ! ! ! ! ! ! ! ! ! ! ! ! ! ! ! ! ! ! ! ! ' - ! 4 1 # ! * * * % ! 5 1 + ! ! ! ! ! ! ! ! ! ! ! ! ! ! ! ! ! ! ! ! ! ! ! ! ! ! ! ! ! ! ! ! ! ! ! ! ! & C ? ! ! {#.#/#2#2#2#2#2#2#/#,#- ! ! ? ? < b ! !## T ` _ i#' w [!,!2!;!a!?!?!?!?!?!?!?!?!?!?!A!A!?!?!?!>!>!_!_!?!0!1 i q j P Q ! ! A ! ! ! ! ! , , # (!z , ! a V d!6!$!3!c!|!w!v!v!w!w!?!K!W!W!?!I!I!?!?!h!h!/!/!?!?!?!?!?!?!?!?!?!?!?!?!?!?!A!?!>!K!;!Z!B!I!?!v!v!v!?!C!:!A!I!K!w!w!Z!p!P!.!^ } i w e Y P Q ! ! b G H ! ! # / ' , , ! ! ! ! ! ! ! ! ! ! ! ! ! ! ! ! ! ! ! ! !",
" ! ! ! ! ! ! ! ! ! ! ! # ! ! ! ! ! % ! ! ' 1 5 ! ! ##3#3#4#4#3#( ! ! ! 4 # ! ! ! # # ! ! ! ! ! ! ! ! ! # # # # # % ! ! ! ! ! ! ! ! ! ! % ! ! # ' ! ! !!]#+#.#5#2#2#2#5#5#2#2#2#0#.#+!] ! ! ! & A B ! ! R U _ c x o!$!;!c!0!=!?!w!?!?!?!?!?!?!?!A!A!?!?!w!>!>!<!_!?!0!1 h y Y O J ! ! = $ # ! ! # , , ! (!z * D N!4 y f!#!,# !_!I!?!w!v!v!w!K!@!K!?!?!?!?!?!i!h!=!=!?!?!?!?!?!?!?!?!?!?!?!?!?!?!A!?!=!K ~!Z!p!I!?!v!v!w!?!C!Z!A!N!~!N!?!C!C!H!_!^!S!+!%!F!6 [ P K!n ! ! ! < ' # / ' , , ! ! ! , + # ! ! ! # & % ! ! ! ! ! ! ! ! !",
" ! ! ! # / & % , , ! # $ # ! ! ! & 0 % % ,!j!j ! !#3#6#7#8#7#6#4#( ! +!j 5 ! % & / $ $ + , ! ! % % % # $ $ $ $ / 0 & ! , , ! ! ' ' ! % @ * ! 7!5 ' ! >#,#.#2#2#2#0#0#0#0#0#0#2#2#2#.#, F ! #!& C / ! ! @ F J N j!m!F m!U!+!*!w!e!?!w!v!w!?!?!?!?!?!A!l!v!H!C!I!w!V!.!1 g y z M!n ! ! < 5 5 % & / & % 8 % 9 E K W!T q!Y!8!w!_!<!~!s!>!?!?!?!?!?!?!?!?!?!?!?!?!?!?!?!?!?!?!?!?!?!?!?!?!?!?!?!?!?!?!?!?!?!?!?!?!?!?!?!?!?!?!?!?!?!?!I!?!?!?!?!?!?!?!9!9!<!7 r!T d X N S ! + D < , $ # , , ! ! , . 1 / & ! # $ 3 0 ! ! ! ! ! ! ! ! !",
" ! ! ! $!' / % , , ! & # $ # # ! & & % l 1 ! !#(#4#6#8#9#9#9#:#7#6#3 ! ! !!j 7 ' & $ 6 1 2 ! ! & & - + # # # # & 3 / # + + # # ' ' ! % * C!& ! ! ,#-#,#.#2#2#2#;#/#/#/#/#/#/#/#2#2#2#.#, {!j ! !!& > = < ! ! T N X!% p q t ^!E!y!_!V!v!|!{!?!?!?!?!A!w!w!:!C!I!w!V!O!. g!( X ` S ! ! < 5 1 - ' & # & = ! ! { P c!m m!3!0! !_!K!N!N!?!?!?!?!?!?!?!?!?!?!?!?!?!?!?!?!?!?!?!?!?!?!?!?!?!?!?!?!?!?!?!?!?!?!?!?!?!?!?!?!?!?!?!?!?!?!?!w!?!?!?!?!?!?!?!H!?!9!+ ] v!6 q z O a @ ! ! :!& & # , ! & ( + + & & , + / 3 & # # ! ! ! ! ! ! !",
" ! ! ! $ 6 $ ! , , % % , 4 l / ! ! ! ! 5 1 ! !#4#7#9#9#9#:#:#9#9#:#6#3 ! %!j 4 , ! # $ 1 . ! ! ' ' , , , ! ! % % / $ $ / / $ $ ! ! ! ! ! ( 0 !!'#-#,#5#2#2#5#/#/#;#;#;#0#0#;#/#/#5#2#2#5#.#+ 2 ! 3 C , , ! 8 % I K _!%!6 w!)!t!x!b!V!v!i!i!w!?!?!?!?!/!=!X!C!I!w!_!O!. v n _ U E ! ! 9 , 2 b b , $ 7 B ! ! U Y!( v!7!0!9!w# !>!p!H!_#!!?!?!?!?!?!?!?!?!?!?!?!?!?!?!?!?!?!?!?!?!?!?!?!?!?!?!?!?!?!?!?!?!?!?!?!?!?!?!?!?!?!?!?!?!?!?!?!?!?!?!?!?!?!?!?!H!P!t!y!7!( p!% _ Q ! ! G - # / + , @ C & ! ! , 2 ' 0 - , $ $ ! ! ! ! ! ! !",
" ! ! ! + $ $ # 3 C % ! , + 7 & , 4 5 1 ! %#3#6#7#:#9#9#:#<#:#:#9#9#:#7#4#3 ! ! . 1 7 ! + ' @ 0 , , & & - % % * * + + + 7 7 # # ! ! !!5 ? ! !!j#,#.#0#2#2#5#/#/#/#;#;#=#0#0#;#/#/#/#5#2#2#5#.#,#- ! ! ( C!z G ! !## a O z w p m ]!E![!w!l!l!v!w!?!?!w!/!=!K!:!A!A#!!.!q g i _ a G ! ! 9 ! , - - ' l 7 = D Q P d y!)!8!s!9!/!b!l!B!I#!#!!?!?!?!?!?!?!?!?!?!?!?!?!?!?!?!?!?!?!?!?!?!?!?!?!?!?!?!?!?!?!?!?!?!?!?!?!?!?!?!?!?!?!?!?!?!?!?!?!?!?!?!?!?!?!?!H!?!x!,!- t o!F!% _ M T ! ! # A : , 3 C % ! # + , % % , , / / ! ! ! ! ! ! !",
" ! ! ! , , + $ C C & ! ! ! , , , # ! 7 l#3#6#>#9#9#:#8#8#8#>#8#8#:#9#9#7#6#3 1 % % % ! ! & C @ , , 0 0 % % % 0 0 , , , ' ' ! ! ! ! - b ! # F#,#.#2#2#5#/#/#/#0#;#/#;#=#=#;#/#;#;#/#/#/#5#2#2#/#, S!& ' & 0 , 8 < , ! S M z e!( t!9!E!?!H!?!v!v!?!?!v!w!?!?!?!A!A!?!@!J g!$ V Q ( ! ! 9 ! ! % & / > # !!n M z!T n!0!2!}!8!/!v!e!A!>!=!W!?!?!?!?!?!?!?!?!?!?!?!?!?!?!?!?!?!?!?!?!?!?!?!?!?!?!?!?!?!?!?!?!?!?!?!?!?!?!?!?!?!?!?!?!?!?!?!?!?!?!?!?!?!?!?!?!?!<!<!.!,!O f p p Z N T R # ! , , / / ! # $ & % % ! , - 0 0 ! ! ! ! ! ! !",
" ! ! ! % - ' + / 3 / # $ ! ! + 4 % % !#4#7#:#9#9#:#8#8#8#>#>#8#8#<#:#9#9#>#6#4 C % %!j 5 ! 0 / # ! ) - ! % % / / , - % ! ! , - # / ? ! !#-#,#1#2#2#5#0#/#/#/#;#;#;#;#=#/#/#;#;#;#/#/#/#0#5#2#2#0#.#+!j ! ! ! ? ? # ! !!n U V t q!7!*# !/!=!B!Q!L!R!v!w!A!>!=!?!A!k!K!) v s P J ! % ! ) , , ! # $ F ! ! { V!% o m!2!2 ~!H!?!G!k!v!w!>!?!?!?!?!?!?!?!?!?!?!?!?!?!?!?!?!?!?!?!?!?!?!?!?!?!?!?!?!?!?!?!?!?!?!?!?!?!?!?!?!?!?!?!?!?!?!?!?!?!?!?!?!?!?!?!?!?!?!K!C!X!0!1!O m o o!4 V U!] ! ! F G 3 5 5 + & % ' 4 6 $ & % ! ! ! ! ! ! !",
" ! ! ! & ' ' , ! ! / / $ # ! ! % %#3#4#7#9#9#9#<#8#8#<#<#<#<#<#<#8#7#<#9#9#:#7#4#3 7 % 4 + ! # / 7 b . + ' ' $ $ , - % ! ! , - 3 & ! C#-#,#/#2#2#5#/#/#=#=#;#/#;#;#;#=#/#/#;#;#;#;#=#0#/#/#0#2#2#2#.#,!] % ! 7 $ C!z : ! ! K X d h t# !-!=!A!Q!!!R!v!w!A!>!=!?!A!k!<!) v!V O D ! C ! - , , ! # $ A % G U z q m }![!9!_!;!M!G![!v!v!?!?!?!?!?!?!?!?!?!?!?!?!?!?!?!?!?!?!?!?!?!?!?!?!?!?!?!?!?!?!?!?!?!?!?!?!?!?!?!?!?!?!?!?!?!?!?!?!?!?!?!?!?!?!?!?!?!?!?!>!N!:!#!H!2!, ]!(#' f _ `!n## ! ! 3 l 5 , % % 7 5 6 6 # ! ! ! ! ! ! ! !",
" ! ! ! # $ $ $ ! ! 0 0 , 1 ! * @#3#6#7#9#9#:#<#8#8#>#>#>#8#>#<#>#8#8#8#:#:#9#9#7#6#3 ! ! 1 . b!5!j#(#(#(#(!j#? 7 ' ' ! ! ! , +!j ! ! {#.#5#2#2#5#;#/#/#/#;#=#=#;#/#/#/#;#;#;#=#=#/#/#=#/#/#/#0#2#2#2#1#,!] ! ! 2 b ) C ! ! S M X f v!B!U!w!o!o!l!l!v!R!!!M!?!A!k!9!# t r Z M 8 ! R ' ! ! # $!5 , ( G Q O d x!#!U!I!^!^!`!M!f![!/!/!?!?!?!?!?!?!?!?!?!?!?!?!?!?!?!?!?!?!?!?!?!?!?!?!?!?!?!?!?!?!?!?!?!?!?!?!?!?!?!?!?!?!?!?!?!?!?!?!?!?!?!?!?!?!?!?!?!?!?!P!?!l!e!A!~!U!. } i y e Y P Q ! ! G < ( ! ! ! &!' & & l 7 ! ! ! ! ! ! !",
" ! ! ! # / # $ # # & ' . 1 !!j#3#6#7#9#9#:#8#8#8#<#<#<#>#8#<#<#>#<#<#8#8#8#:#9#9#8#6#3!j!j#? ' % % ! ! ! ! % % % 7 ' ! ! ! 4 +!j C!]#,#5#2#2#0#/#/#0#=#;#;#=#=#;#/#/#/#;#;#;#=#=#/#/#;#=#0#/#/#/#5#2#2#.#+ > ! 2!5 %!z < = B Q P!%!( ~!1!w#$!b!l!A!w!R!A!H!?!A!k!9 }!$!$ Y L ! ! R ' # ! # # ; , !!] ` X | y![!3!:!q!^!/!P!e!A!K!=!?!?!?!?!?!?!?!?!?!?!?!?!?!?!?!?!?!?!?!?!?!?!?!?!?!?!?!?!?!?!?!?!?!?!?!?!?!?!?!?!?!?!?!?!?!?!?!?!?!?!?!?!?!?!?!?!?!?!?!H!w!y!y!A!D!@!t!S!3 t!F!F j P a S ! ! ! ( ( ! ! & % % 7 7 ! ! ! ! ! ! !",
" ! ! ! & 0 % ! $ $ , 1 1 ! !#3#6#8#9#9#>#8#8#>#>#>#<#<#>#>#<#<#<#>#>#>#>#>#>#>#9#9#7#4#( 7#?!j ! ! % ! ! ! ! ! 2#? . % % ! l # # F#+#.#2#2#/#/#0#;#;#0#=#/#;#;#/#/#;#;#;#;#;#;#;#;#;#=#=#=#=#/#/#/#2#2#;#,!] ! ! C % 9 . 8 ! E N ^ v }!O!B!K#%!?!?!<!W!=!=!=!?!P!c s h t W U ! ! B 7 $ % - , = ! % S O j o v!y!3!I!?!?!=!=!?!H!<!w!i!h!?!?!?!?!?!?!?!?!?!?!?!?!?!?!?!?!?!?!?!?!?!?!?!?!?!?!?!?!?!?!?!?!?!?!?!?!?!?!?!?!?!?!?!?!?!?!?!?!?!?!?!?!?!?!?!?!?!<!?![!f!A!I!I!l!A!G!N!7 n x d X M E ! , ? < ! , , ' ' ! ! ! ! ! ! ! ! !",
" ! ! ! ' - % & / & , . 5 ! %#(#6#9#9#9#8#7#8#<#<#>#>#<#>#>#<#<#<#<#<#<#>#8#7#8#9#9#7#4#( ! ! %#3#4#4#4#4#4#4#3 1 ! !#?#? &!' # ! >#+#.#2#2#/#/#/#;#0#=#=#/#;#;#/#;#;#;#;#;#;#;#/#;#;#;#=#0#=#/#/#=#2#2#/#,!] , ! C % - + : - C M Z r!7!)!A!~!~!?!?!<!W!=!I!?!w!/!U s q!% _ K ! ! =!& / % ) ( A # ! Q _!% g t!o!.!I!w!w!K!K!I!:!<!v!d!h!?!?!?!?!?!?!?!?!?!?!?!?!?!?!?!?!?!?!?!?!?!?!?!?!?!?!?!?!?!?!?!?!?!?!?!?!?!?!?!?!?!?!?!?!?!?!?!?!?!?!?!?!?!?!?!?!?!K!=!s!G!A!l!R! !;!I!U!3 [ v!6 q X N Q## ! !!z I ! # 7 ! ! ! ! ! ! ! ! !",
" ! ! ! , , ' / & % - - & % % %#4#7#9#9#:#8#8#>#<#<#>#>#>#<#>#>#>#<#<#<#8#8#<#9#9#9#6#3 + ! !#3#6#@#A#A#A#A#@#6#4!j % ' 7 / 3 ! 7 !!]#,#2#2#2#0#/#/#0#=#=#;#;#=#;#;#;#;#;#;#;#/#/#;#;#;#;#;#/#/#0#2#2#2#.#-!& , , ' ! % ! I ! G M ^ v!) ]!l!>!=!?!?!?!?!?!M!L!r!x!,!$ y c V a ! ! A H & ! 0 C C # 2 K Y r!$ ]!?!K!<!v!v!`#%!p!p!?!|!i!w!?!?!?!?!?!?!?!?!?!?!?!?!?!?!?!?!?!?!?!?!?!?!?!?!?!?!?!?!?!?!?!?!?!?!?!?!?!?!?!?!?!?!?!?!?!?!?!?!?!?!?!?!?!?!?!?!?!>!=!@!K!?!R!r!v# # #!!?!E![ t o!F c V a H ! C!z % # $ ! ! ! ! ! ! ! ! !",
" ! ! ! - , ' ' - - & % % & & %#(#4#7#:#9#9#:#8#8#8#<#<#<#<#>#>#<#<#8#8#8#:#9#9#8#6#4 ! !#(#4#@#B#C#C#D#C#C#C#E#@#6#- ! !!j#( . 7 ! ' {#.#0#2#2#5#/#/#/#0#0#=#=#/#/#;#=#=#=#;#;#;#;#;#0#/#/#/#5#2#2#0#. { C ! 7 , , , H H A!& J O [ n!#!*!A!k!{!w!?!A!A!A!Z!Z!R!x!3!$ o c V Q ! ! A ) , ! 0 0 3 ( J N c y!7 ^!K!J!<!l!l!_!`!k!k!?!/!P!?!?!?!?!?!?!?!?!?!?!?!?!?!?!?!?!?!?!?!?!?!?!?!?!?!?!?!?!?!?!?!?!?!?!?!?!?!?!?!?!?!?!?!?!?!?!?!?!?!?!?!?!?!?!?!?!?!?!>!=!J!<!?!L!R!P!/!P!;!:!9!, ^ t w!T c _ M!n ! ! G ? $ ! ! ! ! ! ! ! ! !",
" ! ! ! % % - , , , $ # % & $ / % !#3#6#:#9#9#:#>#8#8#>#<#<#>#<#>#8#8#8#:#9#9#8#6#( ! 5#(#4#A#D#F#F#C#G#D#C#F#F#C#A#6#( 1 ! ! ! ' , ' -#-#,#0#2#2#5#/#/#/#;#;#;#/#/#=#=#=#=#;#;#;#;#;#=#/#/#5#2#2#5#,#- ! ! !!' ! , , 9 ! ! E L _ f g!Z!U!B!h!i!w!?!A!A!A!p!p!a!x!,!$ x!4 O Q ! ! = - , ! ( ! ! I a V d p }!3!@!J!?!A!A!_!b!i!h!?!K!=!?!?!?!?!?!?!?!?!?!?!?!?!?!?!?!?!?!?!?!?!?!?!?!?!?!?!?!?!?!?!?!?!?!?!?!?!?!?!?!?!?!?!?!?!?!?!?!?!?!?!?!?!?!?!?!?!?!?!?!?!<!<!?!A!A!>!>!p!C!Y#%!H![!2!U m!6!T Y M D * b!5 3 ! ! ! ! ! ! ! ! !",
" ! ! ! ! ! ! ! ! ! # ! ! ! # # ! ! ##3#6#7#9#9#9#<#7#8#>#:#:#>#8#7#<#9#9#:#7#4#3 ! !#3#@#H#C#F#C#G#G#I#G#G#C#C#F#D#H#@#4 ! ! ,#?!j 4 ! %#-#,#.#2#2#2#0#/#/#/#;#;#=#=#=#;#;#;#;#;#0#/#/#/#2#2#2#.#,#- ! ! ! # # ! ( < ; ! ! Q _ c g t!G!9!l!v!w!l!A!?!:!C!Z!B!a!/!+ m p Y N { ! ! I * % , < 4 ! F ` W e o }!,!W!<!?!?!?!w!w!w!w!?!I!I!?!?!?!?!?!?!?!?!?!?!?!?!?!?!?!?!?!?!?!?!?!?!?!?!?!?!?!?!?!?!?!?!?!?!?!?!?!?!?!?!?!?!?!?!?!?!?!?!?!?!?!?!?!?!?!?!?!?!?!?!?!?!?!?!?!I!I!B!I!I!<!H!k!E!U!Y u!m | z N T ! + R - ! ! ! ! ! ! ! !",
" ! ! ! ! ! ! ! ! ! ! ! ! ! ! ! +!j # ! l#4#7#9#9#9#:#>#8#8#8#8#>#:#9#9#:#7#4 ! %#(#4#@#J#F#F#G#H#H#H#E#E#H#H#H#G#F#F#G#@#4#- . % % $!j 7 ! !#,#.#5#2#2#5#;#/#/#;#0#=#;#/#;#;#/#/#/#=#0#2#2#2#.#, l ! 3!&!' # % ' # ! ! F Q O j!( s ]!s!P!v!?!I!A!A!?!:!C!Z!l!a!c!+ u x z N T # ! I * % , = l ! F M z f n }!+!?!H!?!?!?!?!?!?!?!?!?!?!?!?!?!?!?!?!?!?!?!?!?!?!?!?!?!?!?!?!?!?!?!?!?!?!?!?!?!?!?!?!?!?!?!?!?!?!?!?!?!?!?!?!?!?!?!?!?!?!?!?!?!?!?!?!?!?!?!?!?!?!?!?!?!?!?!?!?!?!?!?!?!?!w!H!C!2!3 t p!F Y M E % I - ' ! ! ! ! ! ! !",
" ! ! ! ! ! ! ! ! ! ! ! ! ! ! ! ! 4 ! ! !#(#4#6#8#9#9#:#8#7#7#8#:#9#9#8#6#4#( * ;#4#A#D#F#C#G#B#H#H#E#K#L#B#H#H#B#I#C#F#C#A#6#3 % % 1#( , ! ! F {#,#/#2#2#5#/#/#/#0#0#=#=#0#;#/#/#/#0#2#2#5#. { F ! ! # $ # , 9 B b !## K _ c y u!p!U#$#$!=!}!p!I!w!?!?!I!w!v!a!9!+ u o z M!n $ ! I - , ! = 0 % D O Z v u ~!0!?!?!?!?!?!?!?!?!?!?!?!?!?!?!?!?!?!?!?!?!?!?!?!?!?!?!?!?!?!?!?!?!?!?!?!?!?!?!?!?!?!?!?!?!?!?!?!?!?!?!?!?!?!?!?!?!?!?!?!?!?!?!?!?!?!?!?!?!?!?!?!?!?!?!?!?!?!?!?!?!?!?!?!?!/# !e!y!-!1 } p!m X M S ! ! > ! ! ! ! ! ! !",
" ! ! ! ! ! ! ! ! ! ! ! ! ! ! ! ! ! 4!j 1 ! !#3#6#7#9#9#9#:#:#9#9#9#7#6#3 ! !#3#6#A#D#F#C#B#H#H#J#J#J#M#M#M#M#J#H#H#E#C#F#F#H#@#4#( ! ! '#(!5 ! !#-#,#1#2#2#2#5#/#/#/#=#=#/#/#/#0#5#2#2#;#. { ! ! C > 3 # - = # ! !!n U _ f!6 v ]!2!t#$!b!N!p!p!I!w!?!?!w!w!v!a!9!+ u!( X L S $ ! 9 - , ! H * ! S V!) r t!L!c!?!?!?!?!?!?!?!?!?!?!?!?!?!?!?!?!?!?!?!?!?!?!?!?!?!?!?!?!?!?!?!?!?!?!?!?!?!?!?!?!?!?!?!?!?!?!?!?!?!?!?!?!?!?!?!?!?!?!?!?!?!?!?!?!?!?!?!?!?!?!?!?!?!?!?!?!?!?!?!?!?!?!?!?!/# !u!u!r!+!3 t p d W K A % > ! ! ! ! ! ! !",
" ! ! ! ! ! ! ! ! ! ! ! ! ! ! ! ! ! ! + , ! ! +#(#4#7#:#9#9#9#9#9#7#4#3 7 !#-#6#H#F#F#G#N#E#E#L#L#N#M#J#K#N#N#N#N#O#B#L#G#D#F#D#@#4 ! % 1#( . , ! &!]#+#.#2#2#2#0#/#/#=#=#/#/#/#5#2#2#.#,#-!& ! ! ! / 0 % 8 F 7 !!n N z |!m m ~!E!y!{!/!?!L!l!v!?!?!A!l!v!v!v!w!=!1 r!( X U E ! ! ( % ! % % ! ! Q W i!$ ]!?!P!?!?!?!?!?!?!?!?!?!?!?!?!?!?!?!?!?!?!?!?!?!?!?!?!?!?!?!?!?!?!?!?!?!?!?!?!?!?!?!?!?!?!?!?!?!?!?!?!?!?!?!?!?!?!?!?!?!?!?!?!?!?!?!?!?!?!?!?!?!?!?!?!?!?!?!?!?!?!?!?!?!?!?!?!?!?!A!l!`!W![!@!7!m!% O { A ' ! - ! ! ! ! !",
" ! ! ! ! ! ! ! ! ! ! ! ! ! ! ! ! ! ! , +!j 5 ! ! 5#4#6#7#:#:#8#6#4 5 ! ,#4#@#H#F#F#G#H#H#E#P#N#L#N#K#J#K#K#L#N#N#M#B#H#H#I#C#F#D#A#6#3 % ! %#(!j ! !!&#+#.#/#2#2#2#5#0#=#0#5#2#2#5#.#,!] ! ! ?!& ! % H G ! ! * a O z w!F r ]!,!-!v!a!>!?!L!e!v!?!?!A!l!v!v!v!w!=!1 i!( X U!] ! ! ( % % * ! ! D U z q!$ ^!P!P!?!?!?!?!?!?!?!?!?!?!?!?!?!?!?!?!?!?!?!?!?!?!?!?!?!?!?!?!?!?!?!?!?!?!?!?!?!?!?!?!?!?!?!?!?!?!?!?!?!?!?!?!?!?!?!?!?!?!?!?!?!?!?!?!?!?!?!?!?!?!?!?!?!?!?!?!?!?!?!?!?!?!?!?!l!f!A!I!N!: ~!3!- y!T X ` D ! !!z ! ! ! ! !",
" ! ! ! ! ! ! ! ! ! ! ! ! ! ! ! ! ! ! ! # $ $ ! + ! ##3#4#6#6#4#3 1 ! !#4#@#D#F#C#I#H#E#L#N#L#O#K#P#L#K#M#O#K#B#B#K#J#M#B#H#E#G#F#F#H#@#3 ! ' + 5 l!' 3 #!]#,#1#2#2#2#5#5#2#2#2#5#. { > , , 7 ! ! ! ! ! A ! ! Q V!%!6 q!;!y!|!q!J!<!H!A!?!?!A!A!?!?!A!l!v!_!_!`!=!1 i n W K F ! ! 8 - * ) ! , J M Y o s ^!P!?!?!?!?!?!?!?!?!?!?!?!?!?!?!?!?!?!?!?!?!?!?!?!?!?!?!?!?!?!?!?!?!?!?!?!?!?!?!?!?!?!?!?!?!?!?!?!?!?!?!?!?!?!?!?!?!?!?!?!?!?!?!?!?!?!?!?!?!?!?!?!?!?!?!?!?!?!?!?!?!?!?!?!?!?!h!y!w!I!G!G!<!-!x m w!% V J ! ! A ! ! ! ! !",
" ! ! ! ! ! ! ! ! ! ! ! ! ! ! ! ! ! ! ! ! # # + 1 # ! !#(#3#3#( ! !#-#6#A#D#F#C#I#H#H#P#J#M#O#O#K#P#L#O#M#O#O#O#L#L#K#M#L#E#H#E#G#F#F#M#@#4#( ! *!j!j & ! ! S#,#.#0#2#2#2#2#5#1#, { & ! !!& l 6!& < < ! ! E M _!%!m!( }!U!2!?!V!;!:!I!P!=!s!I!A!?!?!A!l!v!_!_!`!=!* i n W K A ! ! 8 ' ( ( ! 7 { N Y x s!3!>!a!?!?!?!?!?!?!?!?!?!?!?!?!?!?!?!?!?!?!?!?!?!?!?!?!?!?!?!?!?!?!?!?!?!?!?!?!?!?!?!?!?!?!?!?!?!?!?!?!?!?!?!?!?!?!?!?!?!?!?!?!?!?!?!?!?!?!?!?!?!?!?!?!?!?!?!?!?!?!?!?!?!?!?!?#!#!!D!Z![!h#$!O!=!J u y z U!] ! 9 ! % ! ! !",
" ! ! ! ! ! ! ! ! ! ! ! ! ! ! ! ! ! ! ! ! ! ! ! # 6 5 4 % % ! !!j#3#6#A#F#F#G#E#H#L#N#P#O#O#M#J#K#L#N#N#O#M#M#M#K#L#L#O#N#N#N#E#H#N#C#F#D#A#4#-#? % + !!5 ? ! ! {#,#.#1#/#.#.#,!] ! 6!& @ % # 6 5 $ # H E ` Y!T!F f!3!S!p!C#%!a!!!A!>!=!=!P!?!?!?!?!A!l!v!_!_#!!=!* i g _#) < ! ! ( /!& ( ! l Q O c!T s!3!>!a!?!?!?!?!?!?!?!?!?!?!?!?!?!?!?!?!?!?!?!?!?!?!?!?!?!?!?!?!?!?!?!?!?!?!?!?!?!?!?!?!?!?!?!?!?!?!?!?!?!?!?!?!?!?!?!?!?!?!?!?!?!?!?!?!?!?!?!?!?!?!?!?!?!?!?!?!?!?!?!?!?!?!?!?!J!J!D!Z!h!d!o#!!~!3 }!T c O { H ! ! ) ! ! !",
" ! ! ! ! ! ! ! ! ! ! ! ! ! ! ! ! ! ! ! # # & 0 % # $ # , % @ *#4#@#N#F#C#G#K#H#H#O#J#P#O#B#J#P#L#L#N#N#P#P#L#N#N#P#L#O#M#N#J#E#H#H#I#C#F#C#H#@#3 ! ! !!j 7 ! !!j#-#+#+#,#+ {!] ! ! !!'!' & H > 1 ! % a P Y!( y u!V!-!2!I!:!H!e!u!h!G!s!i!u!v!I!?!I!B!A!l!w!W!/!W ] i i _#) 0 % # 7 /!& 9 ! # Q O c p!$!3!P!H!?!?!?!?!?!?!?!?!?!?!?!?!?!?!?!?!?!?!?!?!?!?!?!?!?!?!?!?!?!?!?!?!?!?!?!?!?!?!?!?!?!?!?!?!?!?!?!?!?!?!?!?!?!?!?!?!?!?!?!?!?!?!?!?!?!?!?!?!?!?!?!?!?!?!?!?!?!?!?!?!?!?!?!?!?!<#%!W!b!e!A!Z!I!3 ~ p d _ K G ! ! 9 ! ! !",
" ! ! ! ! ! ! ! ! ! ! ! ! ! ! ! ! ! ! ! # $ / 0 % ! , # 1 1#(#4#@#G#F#F#P#H#H#L#N#M#O#L#O#O#J#P#L#L#O#P#P#E#E#L#N#O#K#M#M#O#O#J#I#B#H#H#G#F#F#I#@#3#( !#? -!&!j 4 ! ! ! ! ! ! ! 7 C 3 6 6 & ! ! ! E a P!%#' o [!3!2!D!<!=!I!A!i!d!d!k!p!e!o!v!I!?!I!p!B!A!P!=!=!W ] i i _ Q & * # l /!& 9 ! ! a P c p s!3!P!H!?!?!?!?!?!?!?!?!?!?!?!?!?!?!?!?!?!?!?!?!?!?!?!?!?!?!?!?!?!?!?!?!?!?!?!?!?!?!?!?!?!?!?!?!?!?!?!?!?!?!?!?!?!?!?!?!?!?!?!?!?!?!?!?!?!?!?!?!?!?!?!?!?!?!?!?!?!?!?!?!?!?!?!?!A!A!K!q!b!l!p!Z!A!, ~ q e X M D ! ! 9 ! ! !",
" ! ! ! ! ! ! ! ! ! ! ! ! ! ! ! ! ! ! % % ! ! % % %#? ! +#(#4#A#C#F#D#I#E#E#O#N#N#M#B#L#K#M#M#M#J#J#M#K#P#P#P#P#K#O#O#P#L#L#N#K#J#L#H#H#O#I#D#F#D#@#3#? + * 1 6 ! ! ! ! ! ! ! ! ! # $ # ' 9 ! ! E L W d!m g!7!*!0!9!I!H!W!=!/!A!i!d!|!<!J!@#%!`!v!w!C!C!?!/!=!>!W ] i u _ Q ! ) # l & H : ! ! a V c x s!3!P!H!?!?!?!?!?!?!?!?!?!?!?!?!?!?!?!?!?!?!?!?!?!?!?!?!?!?!?!?!?!?!?!?!?!?!?!?!?!?!?!?!?!?!?!?!?!?!?!?!?!?!?!?!?!?!?!?!?!?!?!?!?!?!?!?!?!?!?!?!?!?!?!?!?!?!?!?!?!?!?!?!?!?!?!?!?!?!A!?!_!R!_!a!?!-!  g g Y N D ! ! I ! ! !",
" ! ! ! ! ! ! ! ! ! ! ! ! ! ! ! ! ' ' % % ! ! , % %!j ! !#3#@#G#F#C#H#H#B#J#N#N#N#O#B#B#L#O#M#M#M#J#J#K#K#P#P#P#K#O#O#P#P#N#P#L#L#J#J#O#B#A#L#F#F#H#6#( ! *!j # 3 C > > ? ? ?!& & # $ ( - 8 E Q N X |!6 f ^!,!9!I!I!>!?!A!8!X!B!k!x!?!<#%!8!:!a!v!w!}!C!?!/!=!P#! ] i m _ Q ! ( # ' % H : ! ! K V c o!7!3!P!H!?!?!?!?!?!?!?!?!?!?!?!?!?!?!?!?!?!?!?!?!?!?!?!?!?!?!?!?!?!?!?!?!?!?!?!?!?!?!?!?!?!?!?!?!?!?!?!?!?!?!?!?!?!?!?!?!?!?!?!?!?!?!?!?!?!?!?!?!?!?!?!?!?!?!?!?!?!?!?!?!?!?!?!?!?!?!A!A!`!J!`!H!?!.!  u i j O!] ! ! I ! ! !",
" ! ! ! ! ! ! ! ! ! ! ! ! ! ! ! ' ' ' - # $ 4 . - %#( ! !#4#A#C#C#G#E#E#K#L#L#P#P#L#K#B#B#L#K#M#O#O#K#K#K#M#M#K#K#K#K#M#M#K#L#L#O#K#P#J#O#H#P#C#F#C#@#3 ! !#( % % ! ! # / / , , ! % % = ! ! { O c#'!6 ~!t!i!i!e!A!:!C!B!f!N!Y!?!I!~!Y!C!e!d!l!A!v#!!~!X!?!/!=!{!_ ] i!$ _ Q ! 7 # - ! ( 9 ! ! K V!% w s!+!P!H!?!?!?!?!?!?!?!?!?!?!?!?!?!?!?!?!?!?!?!?!?!?!?!?!?!?!?!?!?!?!?!?!?!?!?!?!?!?!?!?!?!?!?!?!?!?!?!?!?!?!?!?!?!?!?!?!?!?!?!?!?!?!?!?!?!?!?!?!?!?!?!?!?!?!?!?!?!?!?!?!?!?!?!?!A!A!A!W!q!@!}!C!?!1!# t i ^ O E ! ! : ! ! !",
" ! ! ! , + + # # # ! ! # + b b ! ! ! #!5 l l ' - !#( ! !#4#P#F#G#H#H#B#J#P#L#K#K#L#K#O#B#L#K#M#N#N#L#L#O#M#M#J#L#L#L#M#M#N#L#L#L#L#P#J#M#H#H#G#F#C#A#3 ! !#( ! % # # / @ @ - + 4 ' -!z ! #!n N Y#'#'!$!/!,!E!i!L!;!}!p!f!w!`# !W!<!Y!Y!I!u!l!l!l!?!=!=!=!=!?!w!_ ] i!$ _ Q # ' # ) #!& < ! $ K V!% y s!+!>!H!?!?!?!?!?!?!?!?!?!?!?!?!?!?!?!?!?!?!?!?!?!?!?!?!?!?!w!a#!!w!A!B!:!I!?!w!w!?!I!H!W!?!?!?!?!?!?!?!?!?!?!?!?!?!?!?!?!?!?!?!?!?!?!?!?!?!?!?!?!?!?!?!?!?!?!?!?!?!?!?!?!?!?!?!A!A!I!K!`#%!}!I!h!c!# t i ^ O E ! ! : ! ! !",
" ! ! ! , . 4 $ $ $ ! # $ + , , ! % % $ $ / 3 0 - ,#( ! !#4#A#F#C#G#H#H#M#J#M#M#N#K#K#K#P#P#O#O#N#N#L#O#O#M#M#N#N#L#L#J#J#N#N#K#L#L#L#J#M#H#K#D#F#I#@#3 ! %!j , # $ / / 0 % ! $ l 4 , ) ! 7 $ T N Y f!F g!`!.!.!?!:!C!p!B!o#$# !^!o!w!~!Y!:!w!v!A!A# !/!=!I!?!w!b!O i m _ Q $ - ! ( / C ? ! 6 K V c o s!3!>!H!?!?!?!?!?!?!?!?!?!?!?!?!?!?!?!?!?!?!?!?!?!?!?!?!?!?!w!_!_!v!l!B!C!C!I!w!v!A!p!:!<!?!?!?!?!?!?!?!?!?!?!?!?!?!?!?!?!?!?!?!?!?!?!?!?!?!?!?!?!?!?!?!?!?!?!?!?!?!?!?!?!?!?!?!?!?!C!C!L!L!?!w!i!0 ~ t h ^ O E ! ! : ! ! !",
" ! ! ! , , + # # # # 7 ? 7 ! ! ;#-#- # ! ! < ? 8 - ; % !#3#@#I#F#F#I#H#H#B#M#N#L#N#K#J#M#M#M#K#J#M#M#M#K#K#L#N#N#N#P#P#P#J#O#O#P#N#K#H#H#J#C#F#D#@#4#( 1 &#? - ( H!z H ! ! # C A ( ! , , / # % T U V Y p!F f ^!S!t! !M!s!?!R#!!{!f!f!I!I!w!v!o!A!A!{!w!A!I!=# !b!O i i _ Q & - ! b / C < ! $ a V c x s!3!>!H!?!?!?!?!?!?!?!?!?!?!?!?!?!?!?!?!?!?!?!?!?!?!?!?!?!?!K#%!H!R!w!W#%!Y!Y!<!v!i!k!:!Y!I!?!?!?!?!?!?!?!?!?!?!?!?!?!?!?!?!?!?!?!?!?!?!?!?!?!?!?!?!?!?!?!?!?!?!?!?!?!?!?!?!?!?!?!?!:!Z!I!w!v!o!h!1 ~ m h Z O D ! ! I ! ! !",
" ! ! ! ! ! ! ! ! ! $ $ ! !!5#-#)#Q#Q#) D ) ! # ( )!5 % !#(#4#@#D#F#C#G#B#H#B#L#L#K#K#J#M#M#N#P#J#M#M#M#J#E#E#L#N#N#P#P#P#J#O#B#J#P#B#H#N#C#F#C#A#4 % !!j / ( ) , ! ! ! , ' $ # ! ! % , , $ < 8 ! ! Q O Y | x m ~!x!u!|!s!N!:!H!G!G!G!A!w!v!v!v!?!?!?!L!!!?!=# !b!O i h _#) H - ! b $!& 9 ! ! a V c x s!3!P!H!?!?!?!?!?!?!?!?!?!?!?!?!?!?!?!?!?!?!?!?!?!?!?!?!?!?!X!~!:!L!w# #!#%!Y#%!v!d!i!I!C!I!?!?!?!?!?!?!?!?!?!?!?!?!?!?!?!?!?!?!?!?!?!?!?!?!?!?!?!?!?!?!?!?!?!?!?!?!?!?!?!?!?!?!?!?!L!R!/!/!w!a!?!-!  i g Y N D ! ! I ! ! !",
" ! ! ! # $ # # ! 8 ;!5 ! ! {#Q#R#S#R#R#Q#- ! ! ? ;!j 5 1 !#(#4#@#H#F#F#G#H#H#E#M#M#K#P#M#M#P#P#O#O#N#N#N#P#P#M#O#L#L#K#K#K#J#J#M#H#H#G#F#F#I#@#4#( ! % 1 5!& I ) ! # / E S F # ! ! G!z 3 1#? , ! !## T ` _ i#'!( [!3!-!w!R!P!p!N!I!?!{!J!J!D!H!<#%!:!A!e!h!P!P#  ^ i v W a A % ! b + b 8 ! , a P c p s!3!P!H!?!?!?!?!?!?!?!?!?!?!?!?!?!?!?!?!?!?!?!?!?!?!?!?!?!?!N!8!W!w!h!h!u#!!X!K!`!w!P!P!h!?!?!?!?!?!?!?!?!?!?!?!?!?!?!?!?!?!?!?!?!?!?!?!?!?!?!?!?!?!?!?!?!?!?!?!?!?!?!?!?!?!?!?!k!f!d!d#$#!!}!C!C!+!  n e X M D ! ! 9 ! ! !",
" ! ! ! # $ $ $!5 ! ! ! D#)#Q#R#S#S#S#S#R#Q {#( ! ! 6!j 1 ! % %#3#6#A#C#C#C#I#L#H#B#P#P#P#O#J#P#O#L#N#N#L#M#J#M#O#K#K#O#M#N#L#E#B#M#G#F#C#B#@#3 ! !#( & ( l 4 ! ! D Q K L L L a E ! ! $ @ b 2 *!z A 4 ! @ K _ c o q!7!a!x!t!t!G!;!J#!#!!J!D!Y!:!<#%!C!A!y!h!?!?!/ ^ i n W K R % ! 8 , b 8 ! + Q P c p s!3!P!H!?!?!?!?!?!?!?!?!?!?!?!?!?!?!?!?!?!?!?!?!?!?!?!?!?!?!?!/!b!v!h!A!l!W!/!K#%!X!=!{!i!w!?!?!?!?!?!?!?!?!?!?!?!?!?!?!?!?!?!?!?!?!?!?!?!?!?!?!?!?!?!?!?!?!?!?!?!?!?!?!?!?!?!?!k!k!d!d#$#!!}!}!C!3 ~ o d _ U G ! ! 9 ! ! !",
" ! ! ! ! ! ' ' ; - ! ; `#R#S#S#S#R#R#S#S#S#Q#) ; ! & ; C # ! ! %#-#4#@#D#F#C#I#H#H#P#N#P#O#O#O#P#P#N#N#K#O#O#P#P#J#K#K#M#M#B#H#H#D#F#C#A#6#3 + ! # 1 # H A + ! D a#T#U#V#W#V#T L!n ! ! R I - , - - ! ! $ D T N j x!F u!-!S!E!R! !K!W!r!r!u!I!=!=!K!C!?!x!I!:!:!/!. u n W U D ! ! H - b ) ! 0 Q O!4 o s!+!>!H!?!?!?!?!?!?!?!?!?!?!?!?!?!?!?!?!?!?!?!?!?!?!?!?!?!?!w!i!i!o!`!D!Y!C#$#!!Y!~!K!`!`!?!?!?!?!?!?!?!?!?!?!?!?!?!?!?!?!?!?!?!?!?!?!?!?!?!?!?!?!?!?!?!?!?!?!?!?!?!?!?!?!?!?!?!<!<!`#!!P!I#%!D!K!3!  p!% P Q 9 ! ! ) ! ! !",
" ! ! ! ! !!5 ! ! ! J `#R#S#S#S#R#R#R#R#S#S#S#R `#- ! ! %!5 7!j - ! %#4#@#M#C#F#C#N#H#H#L#N#O#O#P#P#K#K#J#O#O#L#P#J#J#P#B#H#H#G#C#F#C#A#6#( ! %#(!j!' I ! ! !!n L#T#X#Y#Y#Y#Y#Y#Z N a D ! # # 8 b # 8 = F ! !!n N X!% y v!7!*!.!x!9!w!r!r!|!{!P!=!K!C!?!{!N!Y#%# !. u q X U E ! ! H ) 8 ( ! 0 T N Y o s!+!>!H!?!?!?!?!?!?!?!?!?!?!?!?!?!?!?!?!?!?!?!?!?!?!?!?!?!?!w!h!h!W!J!J!}!?!^!.!~!p!L!a#%!?!?!?!?!?!?!?!?!?!?!?!?!?!?!?!?!?!?!?!?!?!?!?!?!?!?!?!?!?!?!?!?!?!?!?!?!?!?!?!?!?!?!?!H!H!<!W!9!I!`#!!/!*!$ x Y ` S % ( ! - ! ! !",
" ! ! ! ! !!5 # !#-#Q#R#S#S#R#R#R#R#R#R#R#R#S#S#R#Q#- ! ! ; 0 & ! , !!j#3#6#A#F#F#D#E#H#B#J#P#L#M#J#P#K#J#N#N#N#K#J#J#P#H#H#I#C#F#G#@#4#( ! % @ H!'!& A ! ! T L#Z#Y#Y#X#W#V#W#Y#Y#X#T a = 6 6 9 8 $ & % ! ! ! % D K V!%!6 o!)!-!2!f!l# !q!@!?!A!?!?!?!?!?!N!~!W!x!- i w z M!n ! ! 9 0 C!& # $ S M z o s!+!>!?!?!?!?!?!?!?!?!?!?!?!?!?!?!?!?!?!?!?!?!?!?!?!?!?!?!?!?!?!X!~!N!l!l!d!|!/!s!B!!!l!?!?!?!?!?!?!?!?!?!?!?!?!?!?!?!?!?!?!?!?!?!?!?!?!?!?!?!?!?!?!?!?!?!?!?!?!?!?!?!?!?!?!?!?!k!f!A!?!>!I!?!.!x t q f _ Q ) ! A ! ! ! ! !",
" ! ! ! 8 ! 7 ;#)#Q#S#S#S#R#R#R#R#R#R#R#R#R#R#S#S#S#Q { ; 8 & 8 .#(#? ! !#3#6#A#G#F#F#G#H#H#E#N#M#M#P#P#J#N#N#J#J#M#H#H#E#C#F#F#H#@#4 ! ! !#( ? @ A $ !## a N#Z#Y#Y#X#U#Z#Z#Z#V#X#Y#X#T L Q C ! !!z H % ! : D ! !## K O z!(!T u ]!t![!=!W!=!B!Z!?!w!w!w!?!p!N!P!.!+ i x z M J ! ! ? 0 0 ' / $ D K X q!$ ^!I!?!?!?!?!?!?!?!?!?!?!?!?!?!?!?!?!?!?!?!?!?!?!?!?!?!?!?!?!w!*!~!H!{!S!x s u!7!p!E![!R!w!?!?!?!?!?!?!?!?!?!?!?!?!?!?!?!?!?!?!?!?!?!?!?!?!?!?!?!?!?!?!?!?!?!?!?!?!?!?!?!?!?!?!P!G!G!G#%!D!H!S!t!(!F Y N D ! ! = ! ! ! ! !",
" ! ! ! < % ! D#Q#R#S#S#R#R#R#R#R#R#R#R#R#R#R#R#S#S#R ` D ! ! 8 ! , , 1 ! !#(#4#@#G#F#C#G#H#E#J#M#M#K#P#N#N#M#J#J#M#H#B#G#F#F#A#6#- , , % 7 $ # ! H ! % a#T#X#Y#X#V#Z#U#U#[#U#Z#]#W#Y#Y#W N Q!z ! , ) ! , , ! 0!& # ! S L Y!( x t!G!2!Y!e#&!p!}!I!w!v!v!?!p!p!h!-!3 m!T Y O { ! ! ? & ! !!& $ ! Q _ u m ]!H!P!?!?!?!?!?!?!?!?!?!?!?!?!?!?!?!?!?!?!?!?!?!?!?!?!?!?!w!v!/!=#!!/!2!# h n!$!C!2!t!r!w!?!?!?!?!?!?!?!?!?!?!?!?!?!?!?!?!?!?!?!?!?!?!?!?!?!?!?!?!?!?!?!?!?!?!?!?!?!?!?!?!?!?!W!=!G!G!D!D!I!-! !T d P Q G ! ! ( ! ! ! ! !",
" ! ! !!5 % ! ;#)#R#S#S#S#R#R#R#R#R#R#R#R#R#R#S#S#S#Q { ; 7 ! ( & % -#?#? % ! .#3#6#A#C#F#C#J#H#H#L#N#N#N#N#N#P#H#H#I#C#F#G#A#6#- ! ! , 1!5 9 8 ! !!n L#T#X#Y#X#V#Z#Z#U#]#[#]#Z#Z#U#W#Y#Y#V#T L E ! ! I A ( # ( = , ! ! S U V!% q!7!*#%!e!u!Z!Y!>!P!w#!!=!s!B!e!/ ^ m!T c P Q - ! > ' ! ! < 7 ! S V [ i t!;!c!?!?!?!?!?!?!?!?!?!?!?!?!?!?!?!?!?!?!?!?!?!?!?!?!?!?!w!u!R!W!3!1 m f!% j [ [!#!A!/!P!?!?!?!?!?!?!?!?!?!?!?!?!?!?!?!?!?!?!?!?!?!?!?!?!?!?!?!?!?!?!?!?!?!?!?!?!?!?!?!?!I!?!b!q!P!A! !-!3 t y | z U D * < ! ! ! ! ! ! !",
" ! ! ! ' % ! ! D `#R#S#S#S#R#R#R#R#R#R#R#R#S#S#S#Q#) % !!5 ! & / & % , ,!5#?#? % <#6#A#C#F#C#I#P#E#E#E#E#P#K#E#L#G#C#F#G#@#4 ! %#(#? 1 $ + ! , =!n L#Z#Y#Y#W#Z#Z#U#V#V#[#]#[#[#U#Z#Z#[#X#Y#Y#T L E A , & @ / # , 8 9 = ! ! a W t r t!<!x!r!a!<!>!>!?!W!=!P!A!R# !1!$!(!% _ a ! ! ; ( % , ; ' ! D O j v u ~!1!?!?!?!?!?!?!?!?!?!?!?!?!?!?!?!?!?!?!?!?!?!?!?!?!?!?!w!i!h!?!c!$ p c _ V W j r!7!U!c!H!?!?!?!?!?!?!?!?!?!?!?!?!?!?!?!?!?!?!?!?!?!?!?!?!?!?!?!?!?!?!?!?!?!?!?!?!?!?!?!I!?#$#$#!!P!y!.!< o!6 z N J ! ! > ! ! ! ! ! ! !",
" ! ! ! ! ! ! !#? D#)#Q#R#S#S#R#R#R#R#R#R#S#S#R#Q { D ! , 7 4 4 # ! ! # 4 l 4 ! ! %#(#4#@#O#F#F#G#H#H#H#H#H#H#H#C#F#F#H#@#3!j ! ! 1 + ( 3 # ! 9 a#T#Z#Y#Y#W#U#Z#Z#U#V#V#V#[#]#]#U#U#Z#U#V#W#Y#X#Z#T a + ! @ 0 3 # ' ( ? ! ! D M X f g!w!0!g!R!_!l!I!=!/!w!i!i!w!P!c!7 i t X U ! % B!& / , : % ! D M z e n }!+!?!H!?!w!w!?!?!?!?!?!?!?!?!?!?!?!?!?!?!?!?!?!?!?!?!?!a!P!3!1 h!6 e _ K Q M z x u!3!0!;!?!?!?!?!w!?!?!?!?!?!?!?!?!?!?!?!?!?!?!?!?!?!?!?!?!?!?!?!?!?!I!I!?!?!?!?!?!?!?!?!?!o!o!C!U!3#* o#' c N J H!5 ' H ! ! ! ! ! ! !",
" ! ! ! ! ! ! ! ? ! ! J#Q#R#S#S#S#R#R#R#S#S#R#Q#- ! ! ; b + 5 4 ! ! ! # $ $ # +#(!j ! !#3#@#H#F#F#C#G#G#G#G#G#C#F#C#H#6#3 ! !#(#? , 0 0 3 & E a O#X#Y#Y#[#Z#Z#U#V#U#U#U#[#[#]#]#[#[#U#U#Z#Z#V#X#Y#Y#T a E % # @ $ # ! C ? G = J O [ n ~!1!f!{!h!l!I!=!/!v!d!i!w!>!=!# t r j M < !!z!& / , 9 % ! D ` W e x }!,!A!H!I!I!I!?!?!?!?!?!?!?!?!?!?!?!?!?!P!k!w!?!I!?!?!?!1!1!; i!m d _ U # ! Q _ w!(!J!c!>!?!w!?!I!I!?!w!?!I!?!?!w!?!?!?!?!?!?!?!?!?!?!?!?!?!?!?!?!?!A!l!w!?!I!?!w!?!?!I!?!w!y!t!U!~!7 y!6 c P Q ! % F 8 ! ! ! ! ! ! ! !",
" ! ! ! ! ! # # ! ! # b#- `#R#S#S#S#S#S#S#R `#- ! ! ! ' ! # 6 & - , ! % % ! ! ! + ! ! ! 1#3#6#A#G#F#F#F#F#F#F#F#G#@#6#- ! ! ! . b ( C $ $ E a#T#X#Y#X#W#Z#Z#U#V#[#U#]#]#U#U#U#[#V#[#U#U#U#]#Z#[#X#Y#X#T a R $ / ! ! ! H ! < # D N ^ h!7 ]!?![![!=!K!A!?!/!P!A#!!q!J!@!J g t O J ! H ! 8 % H $ # < a V d p }!3!g ~!Y!Y!~!I!?!I!K!<!<!?!?!?!?!H!;!M![!y!i!:!C!H!?!I!, ^ v!6!% _ a!] # ! : N j w f ~!2!x!r# !~!Y!<!v!K!~!B!l!v!w!?!?!?!?!?!?!?!?!?!?!?!?!?!?!<!H!!!u!d!?!C!l!i!l!Z!C!H!e!y!E!3 t!F!6 j O!n!z ! @!z b 2 ! ! ! ! ! ! !",
" ! ! ! ! ! $ 6 # ?#( ! ! ;#,#Q#R#S#S#R#Q#) D ! # ;#? ! ! # # % - , ! - - ! ! , ! %#?!j ! !#(#4#@#H#G#G#G#G#G#A#@#4#( * %#(!j % % (!z # & a#T#X#Y#X#Z#Z#Z#U#V#[#U#U#U#U#[#U#]#[#V#U#]#[#V#V#Z#Z#Z#X#Y#Y#T a G # ! * # - ! < ' ; M Z h s ]!@!>!f!=!K!A!?!8!s!A!w!`!J!*!1 n v _#) = - ! 8 % ( $!& 7 J M c!m s!+![!s#%!D#%!I!w!v!v!w!?!A!w!?!I!H!V!L![!y!e!D!C!A!-!-!7 n!m c V K % ! < = ! a V d p!7!3!c!r!b!@!Y!W!w!I!N!B!{!{!w!?!?!?!?!?!?!?!?!?!?!?!?!?!?!<!H!Z!l!i!H!C!?!{!w!;!;!>!t!-!) r!T e z O Q ! ! F!z / ' . ! ! ! ! ! ! !",
" ! ! ! ! ! 6 6 $ ! + , ! ! ;#)#Q#Q#Q#Q#) D ! # 7 ! ! ! ! ! ! ! ! ! , . . % % , , % ! ! & % 6#(#3#4#6#@#@#@#6#4#3#( % @ * , ' 0 % - = ! @ L#W#Y#X#V#Z#U#]#U#U#]#]#]#U#V#V#[#]#[#[#U#]#[#V#[#[#[#Z#U#Y#Y#Z L E ! ! H $ ' ! I - D N ^ n!7 ]!~#%!;!?!?!A!?!=!>!A!L!L!?!U!1 n y W U S ! # < % % ! B # ) Q _ v v t!c!U!?!r!r!H!{!d!d!i!f!f!e!w!B!I!_!R!A!?!<!D!?!h!x!O!(!6 c P Q A ! : 8 ! ! D U z x i ^!=#!!_!V!<!=!>!!!!!>!=!=!W!?!?!?!?!?!?!?!?!?!?!?!?!?!?!<#%!~!N!p!H!<!=!=!<!D!H!0!U ] f!6 e W L E H ! 3 $ $ 6 6 6 ! ! ! ! ! ! !",
" ! ! ! ! ! $ $ $ # ! 8 ; ! ! !#-#)#) J#? ! ! ? ? ! ! ! ! ! # $ $ $ + . . * * - , % ! ! 1 1 6 ! !#?#3#4#4#3#3#? ! ! &!5 7 ! % & ! - = ! * L#X#Y#X#U#Z#Z#[#[#U#U#[#U#U#U#U#[#[#V#[#U#]#U#[#V#U#Z#Z#V#Y#Y#T L D ! + H & = 9 ! ! Q V!%!(! !1!K#%!:!?!?!>!I!W!>!G!L!L!I!2!1 v y Y N J ! & A % ! , B ! ! D N Y!6 w!+!S![!r!V!M!A!e!e!w!A!k!e!v!l!B!Z!H!a!J!@!,!3 ] h!m x Y O Q % !!5 B!5 ' 8 !!n P c | f!P!,!R! !w!>!P!r!r!I!X!K!W!?!?!?!?!?!?!?!?!?!?!?!?!?!W!J#%!C!N!s!?!?!=!K!;!9!S ^ t x p!4 V U E ! ! = < # # $ 6 $ ! ! ! ! ! ! !",
" ! ! ! ! ! ! ! $ $ ! ! ! ! ! ' ' ! ! . . ' % ! ' ' ! ! ! ! $ 6 6 l ' , , * @ % ! ! ! ! ! ! ! , ' & / # # % % % - 0 & ! ! ! ! ! ! )!z ! ! a#T#X#Y#X#Z#U#]#U#[#V#V#[#U#U#]#]#V#V#V#[#]#U#U#V#U#Z#W#Y#Y#W L!n * # 4 ( %!z ! !!n N z n g!>!-!v!N!s!I!?!=!K!<!I!>!?!?!I!0!c!$ n!% _ Q ! ! G % ! , : , ! G a V d!6!7!c!G!P# !A!p!p!N!Y#%!?!w!v!d!f!p!p# !q!=!t!! t p!6 Y N T ! ! : 7 $ $!5 - ! I U _ d!F!7!S!k!M!A!B!w#$#$!:!C!<!W!?!?!?!?!?!?!?!?!?!?!?!?!?!W!@!<!!!A!=!>!A!?!?!L!E!2!7 o!F [ O Q H ! &!& $ # ! ! ! ! ! ! ! ! ! ! ! !",
" ! ! ! ! ! ! ! # $ 7 & ! - 8 % ! ! ! ! , 8 - ! # $ ' ' ! ! # $ $ 7 & - - - - ! ! , , ! % % , 1 l / ! ! ! ! ! ! 7 ? H , , , , , & 0 C ( - E a#T#V#Y#Y#W#Z#Z#U#V#V#U#[#U#]#]#U#U#[#[#[#[#Z#Z#Z#W#Y#Y#T L T @ # / & G B ! !!n M z d m }!k!/!^!X!N!I!?!=!<!<!<!>!>!>!I!>!P!)!$ f Y ` F # I ! % - ( & = ) D U W e#' w ]!3!S!,!9!E!}!Y!J#!!P!>!x!E!2!,!S!3 ] f!F!F t _ M T % ! - : ' ! # 8 , = ! S U z!6 n ]!2!E ~ ~!h# !q!C!p!p!>!?!?!?!?!?!?!?!?!?!?!?!?!?!W!{!|!i!I!Y!C!L!a!-!S!V g!6 q X N Q * ! ! 9 ? 5 $ # ! ! % % ! ! ! ! ! ! !",
" ! ! ! ! ! ! ! ! # l 7 ! ! ! # ' ? ? ' & ! ! ! # $ 7 ' ! ! ! ! ! % % ' ' , , * * , , ! % % ! # 5 5 .#?#? 1 1 5 ' @ @ ' + , , , 0 3 / H ) ! # a O#]#Y#Y#W#[#U#U#U#U#V#V#[#]#U#U#U#U#U#]#U#U#W#Y#X#Z L E ! ! $ @ % ! ! H J M X f n! !-!!!a# !K!:!I!?!?!<!<!<!?!>!>!?!?!A!+!# o d P J # ! ! ) % & / B ! ! S M X |!6 u!7 } }! !!!Z!Y!J!_!H!Z!{!R!  } } } u o |!% _ K## ! '!z H , ! ! % - , B ' ! E P c!F n![!,!C!M!k!>!K!C!p!f!G!?!?!?!?!?!?!?!?!?!?!?!?!?!?!i!y!x!X!Y!C!G!x!x!u v!F e X L## ! : 9 H ! + 5 5 $ ! ! % % ! ! ! ! ! ! !",
" ! ! ! # $ ' - ! # $ # ! # $ $ 7 7 ' - # $ 6 l 7 ' # ! ! ! ! ! ! ! ! ' ' , '!z H % % ! , , ! ! + + , ' ' . 1 ' - - - $ & % % % 2 + & 0 ( ! ! R T L#T#Y#Y#X#U#Z#Z#V#[#[#V#[#U#]#U#U#Z#Z#[#X#Y#X#T a S # ! !!& R F ! ! Q O Y e q!7!G!c!; ~!w!{!W!?!A!A!>!=!=!?!?!?!?!?!I!3![ q | X ` D % ! : ! , . 8 & $ % S U _!%!T!6!m!( u t!) ] ] ] ] ]!) t i q p!m y [ W M Q!] ! ! $!& % ! 4 4 , , / C $ ! ! Q V n#' t ^!2!9!<!?!I!p!l!d!i!?!I!?!?!?!?!?!?!?!?!?!?!?!?!l!h!P!D!;!B!2!3!) y!6!% V a E ! ! 7 8 ) $ # # + + % % $ $ ! ! ! ! ! ! !",
" ! ! ! # $ ' - ! # $ # ! # $ $ $ # ! ! # $ 6 l 7 ' ! ! ! # ' # ! ! ! ' ' , ' C H % % * , , ! ! , , # & % , , - - + + $ & % % % 2 2 % # ' = = $ $ E L#T#W#Y#Y#W#U#U#Z#U#V#V#[#U#Z#Z#[#W#Y#Y#W#T a $ # B = H + ! ! E Q P j!m!T t ^!>!Z!N!M!L!{# !?!A!A!>!=!=!?!?!?!?!?!>!2!t m e c V { ! + < ! - 2 ! & > + ! G K V Y c d f r r r!$!$!$ u i r r g e d c Y V L!] ! ! B ? l $ # ! 5 5 , , /!' $ < ) ! a W d!m r!1!,!/!P!?!A!v#$!|!?!I!?!?!?!?!?!?!?!?!?!?!?!?!A!M!L!k!0!+!; s y e!4 V a ! ! F R C - - $ # ! , , % % $ $ ! ! ! ! ! ! !",
" ! ! ! ! ! ! ! - 7 6 6 ! ! ! ! ! $ $ # ! ! # # ! ! ! ! # l!5 l ! ! , ! ! , , - - , * @ * % ! # # / / / $ + , ! # $ $ / ' , # $ ( ) ! # $ ' , # $ ! E a N#W#Y#Y#W#Z#Z#U#U#V#[#Z#Z#Z#W#Y#Y#Z N T R # 6 5 C I ; ! ! L W d p g ~# !q!?!p!G!k!v!w!?!?!?!?!A!A!A!?!<!<!W!k![!9!= ]!$ w Y `!] ; ? ! ) 0 / $ ( + # ! D J K O _ Y j ]!7!$!$ u m!$ s ] Y z _ N K J E ! ! ! , & $ $ 7 ' ! ! , , % & $ ( ! # F K _ o!6 t ^!E!c!<# # !/!/!?!?!?!?!?!?!?!?!?!?!?!?!?!?!A!L!e!E!, ^ f!6 y X M J A ! 6!5 3 0 ! ! ! , , , ! ! ! ! ! ! ! ! ! ! ! !",
" ! ! ! ! ! ! ! - ' 6 $ ! ! ! ! ! # $ # ! ! ! ! ! ! ! ! $ l!5 7 ! ! , % % , , , , , % * ) - ! # 6 / / / $ 4 + ! # $ # & ' - & / 0 * ! ! # + - I!z & ! ! Q N#Z#X#Y#X#W#Z#Z#Z#Z#Z#W#X#Y#X#T L T ! ! A F!& # ! % T M W g#' n!J!S!-! !?!I!B!{!v!v!w!?!W!W!A!A!A!?!J!J!W!f![!< ]!3!! y d _ K # ! 9 = & / $ ! (!z!5 ! ! ! { L M O P V _ W W W _ V P N M U T ! ! ! ) G ? , % ! # 7 ' & & , , % & $ ( ' ; ! @ U W e!6 v#!!1!c!c!8!X!X!?!?!?!?!?!?!?!?!?!?!?!?!?!?!L!x!- ^ t!(!m c W M!n ! ! R R 7 ! , ! ! ! , , , ! ! ! # # ! ! ! ! ! ! !",
" ! ! ! ! ! ! ! ! ! ! ! ! ! ! ! ! ! ! ! ! ! ! ! ' ' ' ' $ $ ! - - , ! * @ % ! 0 0 ' , , . . - & / # ! & / 4 4 ! ! ! ! , ) @ @ 0 % % % ! , ' 0 ) ) , ! ) H R a#T#X#Y#X#V#Z#Z#Z#V#Y#Y#Y#T a E 0 ! - , : ( # ! T O j | o!$!h!x!I!A!A!?!<!<!`!v!i!i!?!K!=!>!A!A!?!@!@!?!Q!A!J ]!U!f u y!% P E ! : = ! $ $ # ! ! , ! ! # ( A G F!] S { Q Q Q { S D F F R H ! ! ! ! & $ # ! % % % & 3 3 + , ! # 4 7 ' ) ! $ D K W x!F t!q!2!9!N!C!:!?!?!?!?!?!?!?!?!?!?!?!?!?!? ~!-!3 [ q!6 t V a D % ! ' , % % , , ! # / & ! % % ! ! $ $ ! ! ! ! ! ! !",
" ! ! ! # # # ! ! ! ! ! # # # # # ! ! # # ! ! ! ' ' ' ' # # ! ! ' + # & * % ! & & & + + . . - % ' , , % & ' ( % ! ! ! , % * * % ! ! % # 4 7 0 % ' (!z I ! !!] a O#Z#Y#Y#Y#X#X#Y#Y#Z O a D ! ! I F ; ! ! E K P Y!m p s ^!3!x ~!L!l!?!<!<!<!H!k!k!?!K!=!>!?!?!?!K!K!>!B!H!J!q!/!{!O u x Y N T ! ! G = ' # ! , 8 < B!5 ! ! ! ! ! ! # ! ! ! ! ! ! ! ! ! ! 8 A!z ( # # # # ' % ! ! 7 l $ ! ! ! ' ' ( H A > ! D U _!4 s!7!@!K!s!N!C!I!?!?!?!?!?!?!?!I!I!?!H!a!0!,!* u!T w z O a## ! ! A A + ! % - ) - + / / # & % % % # # ! ! ! ! ! ! !",
" ! ! ! # $ # ! ! ! ! # $ $ $ $ $ ! ! $ $ ! ! ! ! ! ! ! ! ! ! # $ $ $ # ! , , ! ! % ' ' , , ! ! , , , ! ! * @ % ! ! ! ! ! ! ! ! , , ! $ 6 / % # $ / & ! ) * ! ! T L#Z#Y#Y#Y#Y#Y#Z L!n / $ - 9 !!& 6 % E L _ e!6 g!q!E!t!R!L!A!v!v!?!?!?!:!C!p!p!?!?!?!?!?!?!?!A!A!=!K!<!w!i!r#!!3 ~ q | Y M = ! ( H - ! ! , ( @ ( , % - ) H C!& 7 ' - * ) - ) b b b - , 7 l # ! ! # $ + , ! ! , + $ # % % % ! ! ! ! % ! , ! { V#$ m t!)!c!>!I!?!?!?!?!?!?!?!?!?!?!?!?!a!9!9 m!T!( Y M E ! ( - H @ @ / # ! * @ - + $ $ $ # ! % % ! ! ! ! ! ! ! ! !",
" ! ! ! ! # ! ! ! ! ! # # # # # # ! ! # # ! ! ! ! ! ! ! ! ! ! # # # # ! ! , , ! ! ! % % ! ! ! ! ! ! ! ! ! % % ! ! ! ! ! ! ! ! ! , , ! # $ # ! # # # ! ! ) I ! ! ! T L O#T#T#T O L T ! ! # 9 F G ! ! T N X d!m v!)!U!E![!;!L!?!w!w!?!?!?!I!I!I!I!?!?!?!?!?!?!?!A!A!W!W!W!?!h!;#%!U!E!V!( y z N!n ! ! G G = I H 0 % - ) 9 ? ?!z ? ( ' 7 /!& 9 I : 9 8 - - ' ' ! ! , , # , 2 ( 8 ) 9 ? > = A G!z ) ! ! ! ! ! ! ! N Z i m!#!0!{!o!o!f!G!s!=!?!l!h!r!r!w!2!3!) q!F!% _ U!n ! ! ! 8 8 % * ' - ! % % ! ! # # # ! ! ! ! ! ! ! ! ! ! ! ! !",
" ! ! ! ! ! ! ! ! ! ! ! ! ! ! ! ! ! ! ! ! ! ! ! ! ! ! ! ! ! ! ! ! ! ! ! ! ! ! ! ! ! ! ! ! ! ! ! ! ! ! ! ! ! ! ! ! ! ! ! ! ! ! ! ! ! ! ! ! ! ! ! ! ! ! ! ! % H I ' # H T L L L T % ! I 9 8 ! ! ! G!n N Y!F!6 t!3!E!B!H!?!?!?!?!?!?!?!?!?!?!?!?!?!?!?!?!?!?!?!?!?!?!?!?!?!?!?!:!C ~!t!S!7 w x Y M S G 0 ! ! ! ! ! ! * % % / $ ! ! % & / / / ! ! ! ! ! ! % % % ! ! , - % % , + # ! ! ! # # ! ! ! ! I F E J Q J K P Y t!$ ~!0!v!o!o!f!G!s!=!?!l!i!d!|!/!;!7 n |!% _ K ! ! G A * , , ! % - - ! ! ! ! ! ! ! ! ! ! ! ! ! ! ! ! ! ! ! ! !",
" ! ! ! ! ! ! ! ! ! ! ! ! ! ! ! ! ! ! ! ! ! ! ! ! ! ! ! ! ! ! ! ! ! ! ! ! ! ! ! ! ! ! ! ! ! ! ! ! ! ! ! ! ! ! ! ! ! ! ! ! ! ! ! ! ! ! ! ! ! ! ! ! ! ! ! ! ! - ) + # ! ) E S E H ! # $!z A B ! ! K _ c | w s! !U!c!N!H!?!?!?!?!?!?!?!?!?!?!?!?!?!?!?!?!?!?!?!?!?!?!?!?!?!?!?!B!B!<!O!y!|!7 w!( Y V K## ! ! ! : B G G A!z = = 8 8!& C H ( ( ( ( ( ( ( 9 I I I = > A B G R A ? 7 + ! ! ! ! ! ! ! F Q K N V W X z j ^! ! #%!@!w!?!K!K!A!L!B!C!;!L!t!S ^ t!6!m Y O Q D ! ! 8!5 / ! ! - ' / # ! ! ! ! ! ! ! ! ! ! ! ! ! ! ! ! ! ! ! ! !",
" ! ! ! ! ! ! ! ! ! ! ! ! ! ! ! ! ! ! ! ! ! ! ! ! ! ! ! ! ! ! ! ! ! ! ! ! ! ! ! ! ! ! ! ! ! ! ! ! ! ! ! ! ! ! ! ! ! ! ! ! ! ! ! ! ! ! ! ! ! ! ! ! ! ! ! ! % ! ! ( I : , # # $ 4 A A!& ! ! * S K _ u!6 n!J!S!c!D!@!K!?!?!?!?!?!?!?!?!?!?!?!?!?!?!?!?!?!?!?!?!?!?!?!?!?!?!?!?!A!A!/!q!V!/!+!) n!m t _ ` Q T D # ! ! ! ! ! ! ! ! ! # ! ! ! ! ! ! ! ! ! ! ! ! ! ! ! ! ! ! ! ! ! # ( G E S J Q Q U M O _ z ] u x!F g }!y!x!@!@!I!N!N#!!o!r!L!;!N!c!1 } i x d z N Q # ! G B . 4 $ # # - ' / # ! ! ! ! ! ! ! ! ! ! ! ! ! ! ! ! ! ! ! ! !",
" ! ! ! ! ! ! ! ! ! ! ! ! ! ! ! ! ! ! ! ! ! ! ! ! ! ! ! ! ! ! ! ! ! ! ! ! ! ! ! ! ! ! ! ! ! ! ! ! ! ! ! ! ! ! ! ! ! ! ! ! ! ! ! ! ! ! ! ! ! ! ! ! ! ! ! % @ * ! ! % , , ! ! $ 6 l R = ! ! E N Y e x i! !.!c!Y!Y!/# !?!?!?!?!?!?!?!?!?!?!?!?!?!?!?!?!?!?!?!?!?!?!?!?!?!?!?!?!?!?!A!?!J!@!>!t! !$!( d!4 W O K S ! ! ! ! ! ! ! $ # ! - b b - ) % % ! ! ! ! ! ! ! ! ! ! ! ! , D S T Q U M O k X Y j c d e v r!$ s }!!!y!y!?!K!Y!C!M!u!d!q!` ~!9!+ [ n#' v _ U!n @ 6 $ ) ) % - ' $ $ ! , , , ! ! ! ! ! ! ! ! ! ! ! ! ! ! ! ! ! ! ! ! !",
" ! ! ! ! ! ! ! ! ! ! ! ! ! ! ! ! ! ! ! ! ! ! ! ! ! ! ! ! ! ! ! ! ! ! ! ! ! ! ! ! ! ! ! ! ! ! ! ! ! ! ! ! ! ! ! ! ! ! ! ! ! ! ! ! ! ! ! ! ! ! ! ! ! ! ! % 0 % ! ! ! - H!z!z H C 6 ! !!] a N z!m!6 f ^!S!.!#!Y!N!{!{!?!?!?!?!?!?!?!?!?!?!?!?!?!?!?!?!?!?!?!?!?!?!?!?!?!?!?!?!?!w!?!?!K#%!;!E!S!O t o!m u Y _ O M U K Q {!n E D R @ # , ! ! 0 @!z R D E S J T Q Q a K K L M N O P V _ X Y [ u n w!T o n!$ [ ^!+!+!/!e!u!v!W#%!H!!!e!v!_!.!2!@!$ x!T c V U!] ! ! ; > - % % - - # # % , + , ! ! ! ! ! ! ! ! ! ! ! ! ! ! ! ! ! ! ! ! !",
" ! ! ! ! ! ! ! ! ! ! ! ! ! ! ! ! ! ! ! ! ! ! ! ! ! ! ! ! ! ! ! ! ! ! ! ! ! ! ! ! ! ! ! ! ! ! ! ! ! ! ! ! ! ! ! ! ! ! ! ! ! ! ! ! ! ! ! ! ! ! ! ! ! ! ! # $ + , ! ! ! # $ $ % I ! ! % K V!%!F n!7!x!x!?#%!Y!>!k!A!A!?!?!?!?!?!?!?!?!?!?!?!?!?!?!?!?!?!?!?!?!?!?!?!?!?!?!?!?!h!i!`!<!f!f!C!:!P!x!x ~!7 r!( e f ^ Z W V O M L K a Q Q { { Q Q Q Q a K U ` M N O V _ W Y Z ^ ^ [!% e e!( q g m!7 } } ~!Z!B!M!w!I!>!>!R!r!v!v!v!w!?!X!~!A!E!E t o!m Z O T!z @ ! % , , % - , ! ! , - ) ' $ # ! ! ! ! ! ! ! ! ! ! ! ! ! ! ! ! ! ! ! ! !",
" ! ! ! ! ! ! ! ! ! ! ! ! ! ! ! ! ! ! ! ! ! ! ! ! ! ! ! ! ! ! ! ! ! ! ! ! ! ! ! ! ! ! ! ! ! ! ! ! ! ! ! ! ! ! ! ! ! ! ! ! ! ! ! ! ! ! ! ! ! ! ! ! ! ! ! + 4 - ) % # ! ! $ 6 ) H D K N _ c!T o!) ^!E!y!L!C!}!K!l!A!A!?!?!?!?!?!?!?!?!?!?!?!?!?!?!?!?!?!?!?!?!?!?!?!?!?!?!?!?!h!h!<!<!B!B!B!C!Y!/!-!,!* t r w w n u s j Y z X _ _ V V V V V V V _ _ _ W X z Y j j!% t m i v g g n!( q n i!$!)!O!1!+!,!2!E!G!w!v!w!I!a!<!I!h!y!l!:!X!U!3!# r!m f X N Q ! ! 4!z C - , % 7 4 4 # + - - & # # ! ! ! ! ! ! ! ! ! ! ! ! ! ! ! ! ! ! ! ! !",
" ! ! ! ! ! ! ! ! ! ! ! ! ! ! ! ! ! ! ! ! ! ! ! ! ! ! ! ! ! ! ! ! ! ! ! ! ! ! ! ! ! ! ! ! ! ! ! ! ! ! ! ! ! ! ! ! ! ! ! ! ! ! ! ! ! ! ! ! ! ! ! ! ! ! ! , . ) @ & $ % % / 7 8 !!n P t#'!F!$!-!U!s!Z!e!h!G!}#%!a!A!A!?!?!?!?!?!?!?!?!?!?!?!?!?!?!?!?!?!?!?!?!?!?!?!?!?!?!?!?!A!A!H!<!Y!:!A!N!~!W!v!H!C!8!c![!w!) t g!( o y!( v h i u m!$!$ m i r r v n!( y o o q q g m t t!)!#!P!x!c!1!1!c!k!l!B!~!X!w!e!L!L!v!w!?!q!@!}!G!y!f!p!=!/!< h!m d W U ! ! B 9 # 3 3 % - - 6 6 l l $ # ! ! ! ! ! ! ! ! ! ! ! ! ! ! ! ! ! ! ! ! ! ! ! ! !",
" ! ! ! ! ! ! ! ! ! ! ! ! ! ! ! ! ! ! ! ! ! ! ! ! ! ! ! ! ! ! ! ! ! ! ! ! ! ! ! ! ! ! ! ! ! ! ! ! ! ! ! ! ! ! ! ! ! ! ! ! ! ! ! ! ! ! ! ! ! ! ! ! ! ! ! ! , & & $ $ 7 ' & ' 8 !!n V!(#'#' t!3!S!9!#!;!9!9!s!H!a!R!a!?!?!?!?!?!?!?!?!?!?!?!?!?!?!?!?!?!?!?!?!?!?!?!?!?!?!?!?!A!l!{# #%!:!?!?!?!_!`!N!G!0!-!-!.!O!) s m i i i g h h h g g g i h h h h h r r i i m!$ s!)!)!)!J!O!.!-!+!+!U!c!s#!!J!@!Y!a!v!R!M!f!>!/!J!q!}!}!Z!E!S!3 t!F!F!4 V K E ! ! : I % ' ' % % , + 4!'!' # # & ' 2 , ! ! ! ! ! ! ! ! ! ! ! ! ! ! ! ! ! ! ! ! !",
" ! ! ! ! ! ! ! ! ! ! ! ! ! ! ! ! ! ! ! ! ! ! ! ! ! ! ! ! ! ! ! ! ! ! ! ! ! ! ! ! ! ! ! ! ! ! ! ! ! ! ! ! ! ! ! ! ! ! ! ! ! ! ! ! ! ! ! ! ! ! ! ! ! ! ! ! ! # $ $ $ l 7 & - 8 % E M X c e g s!r!.!=!=!K!K!>!A!a!_!`!?!?!?!?!?!?!?!?!?!?!?!?!?!?!?!?!?!?!?!?!?!?!?!?!?!?!?!?!I!I# # !?!?!?!w!v!_!<!G![!{!R!M!l!w!*!1!-!-!+!+!O!O!*!@!J ] ]!*!*!*!*!*!1!1!+!+!U!0!0!0!.!.!P!P!?!q!q!H!M ~!C!C!J!q!<!C!N!?!v!A!G!s!/!R!`!C!Y!s!0!I s w |!4 P Q ! ! G > ! % % , , % % , , , / / ! # / ' 2 , ! ! ! ! ! ! ! ! ! ! ! ! ! ! ! ! ! ! ! ! !",
" ! ! ! ! ! ! ! ! ! ! ! ! ! ! ! ! ! ! ! ! ! ! ! ! ! ! ! ! ! ! ! ! ! ! ! ! ! ! ! ! ! ! ! ! ! ! ! ! ! ! ! ! ! ! ! ! ! ! ! ! ! ! ! ! ! ! ! ! ! ! ! ! ! ! ! ! % % # + , & % . . .!5 ? J a N X q!6 v ]!S!E! !;!B!N!X!w!?!?!?!?!?!?!?!?!?!?!?!?!?!?!?!?!?!?!?!?!?!?!?!?!?!?!?!w!?!~!}!K#!!i!i!v!b!/!I!H!g#&# !>!p!:!J!O!.!x!x!.!.# # # !/!W!/# !/!=!=!@!1!1!c!/!/!1!=!/!/!1!c!>!P!?!/!/!A!! ~!Z!s!W!v!i!k!p!p!l!P!s!B!g!Q!a!)!1!S ^ f!6 o X M {## ! #!z C $ $ $ # # ! & & ! ! ' ' ! ! # ! , ! ! ! ! ! ! ! ! ! ! ! ! ! ! ! ! ! ! ! ! ! !",
" ! ! ! ! ! ! ! ! ! ! ! ! ! ! ! ! ! ! ! ! ! ! ! ! ! ! ! ! ! ! ! ! ! ! ! ! ! ! ! ! ! ! ! ! ! ! ! ! ! ! ! ! ! ! ! ! ! ! ! ! ! ! ! ! ! ! ! ! ! ! ! ! ! ! ! ! & % ! , , % % . . . ? $ ! !!n M W c o n!7!?!.![!Q!X!Y!?!?!?!?!?!?!?!?!?!?!?!?!?!?!?!?!?!?!?!?!?!?!?!?!?!?!?!?!w!?!X!~!Y!<!i!i!w!W!=!I!e!u!r!/!s!p!:!J!J!w!l!l!R!a#!#!!v!l!A!h!i!l!A!?!W!=!K!H!#!#!D!D!D!<!K!W!w!w!A!s!s!A!L!l!l!P!I!B!h!h!?!B!B!P!W!?!L!A!t!-!. } v!T d W L E ! ! > A * & $ $ $ $ # ! & / # ! ' ' ! ! ! ! ! ! ! ! ! ! ! ! ! ! ! ! ! ! ! ! ! ! ! ! ! ! !",
" ! ! ! ! ! ! ! ! ! ! ! ! ! ! ! ! ! ! ! ! ! ! ! ! ! ! ! ! ! ! ! ! ! ! ! ! ! ! ! ! ! ! ! ! ! ! ! ! ! ! ! ! ! ! ! ! ! ! ! ! ! ! ! ! ! ! ! ! ! ! ! ! ! ! ! # $ # ! ! ! 0 0 , , ! & $ ! ! 0 E Q O [!F p t!3!E!d!w!<!<!<!?!?!?!?!?!?!?!?!?!?!?!?!?!?!?!?!?!?!?!?!?!?!?!?!?!?!?!?!w!w!:!:!i!h!s!N!L!e!i!o!_!?!?!?# # !w!A!s!s!:!Y!@!K!A!A!A!?!?!?!?!?!?!?!A!A!A!A!A!I!~!X!?!v!v!l!B!p!p!?# # !o!r!I!~!C!a#$#!!C!Z!L!W!J!_!-!S!) q!6 t P Q D % ! ! $ ' , , ! ! ! , , ! & / # ! ! ! , , ! ! ! ! ! ! ! ! ! ! ! ! ! ! ! ! ! ! ! ! ! ! ! ! !",
" ! ! ! ! ! ! ! ! ! ! ! ! ! ! ! ! ! ! ! ! ! ! ! ! ! ! ! ! ! ! ! ! ! ! ! ! ! ! ! ! ! ! ! ! ! ! ! ! ! ! ! ! ! ! ! ! ! ! ! ! ! ! ! ! ! ! ! ! ! ! ! ! ! ! ! # $ # ! ! ! & & ! ! ! ! & = B 5 ! ! Q O z d p g }!-!2!>!V!V!?!I!:!K!W!w!w!?!?!w!v!w!I!:!I!?!?!?!?!?!?!?!?!?!?!?!?!?!v!v!H!:!h!k!s!N!L!e!h!w!`!?!?!?# !{!w!A!s!s!C!Y!K!K!A!A!A!?!?!?!?!?!?!?!A!A!A!A!A!I!X!K!w!R!L!?!I!Z!Z!N!8!/!r!r!A!N!Y!D#$!^!N!: ~!{!U!+!`!$ x q z P a ! ! . : H # , , , ! ! ! , , ! & & # ! ! ! , , ! ! ! ! ! ! ! ! ! ! ! ! ! ! ! ! ! ! ! ! ! ! ! ! !",
" ! ! ! ! ! ! ! ! ! ! ! ! ! ! ! ! ! ! ! ! ! ! ! ! ! ! ! ! ! ! ! ! ! ! ! ! ! ! ! ! ! ! ! ! ! ! ! ! ! ! ! ! ! ! ! ! ! ! ! ! ! ! ! ! ! ! ! ! ! ! ! ! ! ! ! ! ! ! ! ! ! ! ! ! ! ! ! ! ! ! $ $ 9 ) G U W f!6 v!@!2!t!v!R!?!C!C!@!q!|!i!A!?!v!o!v!:!C!I!?!?!?!?!?!?!?!?!?!?!?!?!?!?!?!?!?!?!?!?!?!?!?!?!?!?!?!?!?!?!?!?!?!?!?!?!?!?!?!?!?!?!?!?!?!?!?!?!?!?!?!?!?!?!?!?!w!v!!!Z!X!q!a!M!s!s!?!a!L!l!A!Y!Y!A!P!=!K!?!y!E!U m!F y Y M F H 9 # ! ! ! ! ! ! ! ! ! ! ! ! ! ! ! ! ! ! ! ! ! ! ! ! ! ! ! ! ! ! ! ! ! ! ! ! ! ! ! ! ! ! ! ! ! !",
" ! ! ! ! ! ! ! ! ! ! ! ! ! ! ! ! ! ! ! ! ! ! ! ! ! ! ! ! ! ! ! ! ! ! ! ! ! ! ! ! ! ! ! ! ! ! ! ! ! ! ! ! ! ! ! ! ! ! ! ! ! ! ! ! ! ! ! ! ! ! ! ! ! ! ! ! ! ! ! ! ! ! ! ! ! ! ! ! ! ! ( = B ! ! E U P Y o!F i ^!S!E!L ~!N!C!?!l!l!?!W!K!H!R!L!l!?!I!?!?!?!?!?!?!?!?!?!?!?!?!?!?!?!?!?!?!?!?!?!?!?!?!?!?!?!?!?!?!?!?!?!?!?!?!?!?!?!?!?!?!?!?!?!?!?!?!?!?!?!?!?!?!?!l!l!l!A!I!a!w!w!l!l!w!W!K!?!w# !/!B!:!<!>!,!3!) o!F c _ M!n ! ! B = % ! ! ! ! ! ! ! ! ! ! ! ! ! ! ! ! ! ! ! ! ! ! ! ! ! ! ! ! ! ! ! ! ! ! ! ! ! ! ! ! ! ! ! ! !",
" ! ! ! ! ! ! ! ! ! ! ! ! ! ! ! ! ! ! ! ! ! ! ! ! ! ! ! ! ! ! ! ! ! ! ! ! ! ! ! ! ! ! ! ! ! ! ! ! ! ! ! ! ! ! ! ! ! ! ! ! ! ! ! ! ! ! ! ! ! ! ! ! ! ! ! ! ! ! ! ! ! ! ! ! ! ! ! ! ! ! ! ! , 8 : ! ! T N Y |!T!$!p!E!y!k!s!B!A!A!A!?!K!~!C ~!u!d!w!I!?!?!?!?!?!?!?!?!?!?!?!?!?!?!?!?!?!?!?!?!?!?!?!?!?!?!?!?!?!?!?!?!?!?!?!?!?!?!?!?!?!?!?!?!?!?!?!?!?!?!?!?!?!?!?!A!A!{# !l!!!P!^!u!u!v!q!@!X!P!y!x!B!C!W!9![!# n!F c V a ! ! = : ! ! ! ! ! ! ! ! ! ! ! ! ! ! ! ! ! ! ! ! ! ! ! ! ! ! ! ! ! ! ! ! ! ! ! ! ! ! ! ! ! ! ! ! ! ! ! !",
" ! ! ! ! ! ! ! ! ! ! ! ! ! ! ! ! ! ! ! ! ! ! ! ! ! ! ! ! ! ! ! ! ! ! ! ! ! ! ! ! ! ! ! ! ! ! ! ! ! ! ! ! ! ! ! ! ! ! ! ! ! ! ! ! ! ! ! ! ! ! ! ! ! ! ! ! ! ! ! ! ! ! ! ! ! ! ! ! ! ! % % , 8 = ! ! ! T ` _ t!6 x!)!3!3!}!:!|!|!{!p!N!X!N!N!W!^!w!?!?!?!?!?!?!?!?!?!?!?!?!?!?!?!?!?!?!?!?!?!?!?!?!?!?!?!?!?!?!?!?!?!?!?!?!?!?!?!?!?!?!?!?!?!?!?!?!?!?!?!?!?!?!?!?!>!>!W!a!?!B!l!v!|!d!i!`!<!p![!x!R!!!E!S ^ f!6 x z N a R ! ! = 9 ! ! ! ! ! ! ! ! ! ! ! ! ! ! ! ! ! ! ! ! ! ! ! ! ! ! ! ! ! ! ! ! ! ! ! ! ! ! ! ! ! ! ! ! ! ! ! !",
" ! ! ! ! ! ! ! ! ! ! ! ! ! ! ! ! ! ! ! ! ! ! ! ! ! ! ! ! ! ! ! ! ! ! ! ! ! ! ! ! ! ! ! ! ! ! ! ! ! ! ! ! ! ! ! ! ! ! ! ! ! ! ! ! ! ! ! ! ! ! ! ! ! ! ! ! ! ! ! ! ! ! ! ! ! ! ! ! ! ! % % , , % H : 7 ! % a _ c |!(!7!Y!Y!c!x!^!|!p!p!?!s!s!~!@!?!?!?!?!?!?!?!?!?!?!?!?!?!?!?!?!?!?!?!?!?!?!?!?!?!?!?!?!?!?!?!?!?!?!?!?!?!?!?!?!?!?!?!?!?!?!?!?!?!?!?!?!?!?!?!?!?!>!=!<!;!w!P!L!H!8!9!i!R!;!I!p!I!?!k!t!u u!T e Y M!n ! ! = < ! ! ! ! ! ! ! ! ! ! ! ! ! ! ! ! ! ! ! ! ! ! ! ! ! ! ! ! ! ! ! ! ! ! ! ! ! ! ! ! ! ! ! ! ! ! ! ! ! !",
" ! ! ! ! ! ! ! ! ! ! ! ! ! ! ! ! ! ! ! ! ! ! ! ! ! ! ! ! ! ! ! ! ! ! ! ! ! ! ! ! ! ! ! ! ! ! ! ! ! ! ! ! ! ! ! ! ! ! ! ! ! ! ! ! ! ! ! ! ! ! ! ! ! ! ! ! ! ! ! ! ! ! ! ! ! ! ! ! ! ! ! ! , , - ( ) ! ! ! R Q N z y!6 f ^!3!E!G!<!q!W!?!>!s!~!Y!?!?!?!?!?!?!?!?!?!?!?!?!?!?!?!?!?!?!?!?!?!?!?!?!?!?!?!?!?!?!?!?!?!?!?!?!?!?!?!?!?!?!?!?!?!?!?!?!?!?!?!?!?!?!?!?!?!?!<!J!J!d!d!{!~!}!G!i!v!<!D!D!D!U!3!)!(!6 u V K S % ! ! ) ' ! ! ! ! ! ! ! ! ! ! ! ! ! ! ! ! ! ! ! ! ! ! ! ! ! ! ! ! ! ! ! ! ! ! ! ! ! ! ! ! ! ! ! ! ! ! ! ! ! !",
" ! ! ! ! ! ! ! ! ! ! ! ! ! ! ! ! ! ! ! ! ! ! ! ! ! ! ! ! ! ! ! ! ! ! ! ! ! ! ! ! ! ! ! ! ! ! ! ! ! ! ! ! ! ! ! ! ! ! ! ! ! ! ! ! ! ! ! ! ! ! ! ! ! ! ! ! ! ! ! ! ! ! ! ! ! ! ! ! ! ! ! ! - ' 7 7 % ) < D ! ! E N X c x v s!X!2!U!q!_!W!>!P!B!:!?!?!?!?!?!?!?!?!?!?!?!?!?!?!?!?!?!?!?!?!?!?!?!?!?!?!?!?!?!?!?!?!?!?!?!?!?!?!?!?!?!?!?!?!?!?!?!?!?!?!?!?!?!?!?!?!?!?!H!<!W!d!d!x!X!C!B!h!w!<!D!*!1!/ s o x c V a ! !#? : H % ! ! ! ! ! ! ! ! ! ! ! ! ! ! ! ! ! ! ! ! ! ! ! ! ! ! ! ! ! ! ! ! ! ! ! ! ! ! ! ! ! ! ! ! ! ! ! ! ! ! !",
" ! ! ! ! ! ! ! ! ! ! ! ! ! ! ! ! ! ! ! ! ! ! ! ! ! ! ! ! ! ! ! ! ! ! ! ! ! ! ! ! ! ! ! ! ! ! ! ! ! ! ! ! ! ! ! ! ! ! ! ! ! ! ! ! ! ! ! ! ! ! ! ! ! ! ! ! ! ! ! ! ! ! ! ! ! ! ! ! ! ! ! % @ @!' $ ! # $ 8 ! ! ! E a P j!6!m [!,!S!B! !q!W!?!i!i!?!?!?!?!?!?!?!?!?!?!?!?!?!?!?!?!?!?!?!?!?!?!?!?!?!?!?!?!?!?!?!?!?!?!?!?!?!?!?!?!?!?!?!?!?!?!?!?!?!?!?!?!?!?!?!?!?!?!A!B!p!?!w!v!w!w!w!A!M!M!B!E!3 t!F!m Y N!n G ! # $ ! ! ! ! ! ! ! ! ! ! ! ! ! ! ! ! ! ! ! ! ! ! ! ! ! ! ! ! ! ! ! ! ! ! ! ! ! ! ! ! ! ! ! ! ! ! ! ! ! ! ! ! ! !",
" ! ! ! ! ! ! ! ! ! ! ! ! ! ! ! ! ! ! ! ! ! ! ! ! ! ! ! ! ! ! ! ! ! ! ! ! ! ! ! ! ! ! ! ! ! ! ! ! ! ! ! ! ! ! ! ! ! ! ! ! ! ! ! ! ! ! ! ! ! ! ! ! ! ! ! ! ! ! ! ! ! ! ! ! ! ! ! ! ! ! # & @ @!' # ! # # 0!z F ! ! % a O z e p v!)!0!2!/!D!<!e#&!?!?!?!?!?!?!?!?!?!?!?!?!?!?!?!?!?!?!?!?!?!?!?!?!?!?!?!?!?!?!?!?!?!?!?!?!?!?!?!?!?!?!?!?!?!?!?!?!?!?!?!?!?!?!?!?!?!?!l!A!p!C#%!_!v!w!H!M!f!E!- } v!T d X N T ! ! G > 3 - ! ! ! ! ! ! ! ! ! ! ! ! ! ! ! ! ! ! ! ! ! ! ! ! ! ! ! ! ! ! ! ! ! ! ! ! ! ! ! ! ! ! ! ! ! ! ! ! ! ! ! ! !",
" ! ! ! ! ! ! ! ! ! ! ! ! ! ! ! ! ! ! ! ! ! ! ! ! ! ! ! ! ! ! ! ! ! ! ! ! ! ! ! ! ! ! ! ! ! ! ! ! ! ! ! ! ! ! ! ! ! ! ! ! ! ! ! ! ! ! ! ! ! ! ! ! ! ! ! ! ! ! ! ! ! ! ! ! ! ! ! ! ! ! $ $ % % , , ! , , ! ! ! % ! ! 9 E U W n!6 e!a!2!>!<!<!A!f!A!?!?!?!?!?!?!?!?!?!?!?!?!?!?!?!?!?!?!?!?!?!?!?!?!?!?!?!?!?!?!?!?!?!?!?!?!?!?!?!?!?!?!?!?!?!?!?!?!?!?!?!?!?!?!?!?!w!v!v!?!Y#%!`!`!:!C!?!t!y!O v!6 d _ U F % # 7 , ! ! ' ' , ! ! ! ! ! ! ! ! ! ! ! ! ! ! ! ! ! ! ! ! ! ! ! ! ! ! ! ! ! ! ! ! ! ! ! ! ! ! ! ! ! ! ! ! ! ! ! ! ! ! !",
" ! ! ! ! ! ! ! ! ! ! ! ! ! ! ! ! ! ! ! ! ! ! ! ! ! ! ! ! ! ! ! ! ! ! ! ! ! ! ! ! ! ! ! ! ! ! ! ! ! ! ! ! ! ! ! ! ! ! ! ! ! ! ! ! ! ! ! ! ! ! ! ! ! ! ! ! ! ! ! ! ! ! ! ! ! ! ! ! ! ! # # , , , , # ' , , ! ,!&!z ( ! ! E U V c!m p!$!1!S!t!?!:!A!?!?!?!?!?!?!?!?!?!?!?!?!?!?!?!?!?!?!?!?!?!?!?!?!?!?!?!?!?!?!?!?!?!?!?!?!?!?!?!?!?!?!?!?!?!?!?!?!?!?!?!?!?!?!?!?!w!v!_!J#%!I!B!D!)!c!3 ^!$ p p Y P K E ! ! B < # * * 7 7 , , ! ! ! ! ! ! ! ! ! ! ! ! ! ! ! ! ! ! ! ! ! ! ! ! ! ! ! ! ! ! ! ! ! ! ! ! ! ! ! ! ! ! ! ! ! ! ! ! ! !",
" ! ! ! ! ! ! ! ! ! ! ! ! ! ! ! ! ! ! ! ! ! ! ! ! ! ! ! ! ! ! ! ! ! ! ! ! ! ! ! ! ! ! ! ! ! ! ! ! ! ! ! ! ! ! ! ! ! ! ! ! ! ! ! ! ! ! ! ! ! ! ! ! ! ! ! ! ! ! ! ! ! ! ! ! ! ! ! ! ! ! ! ! , , ! # $ 7 ' , , . 4 / 0 H B ! ! T P j | o s#&!y!/!=!?!?!?!?!?!?!?!?!?!?!?!?!?!?!?!?!?!?!?!?!?!?!?!?!?!?!?!?!?!?!?!?!?!?!?!?!?!?!?!?!?!?!?!?!?!?!?!?!?!?!?!?!?!?!?!?!?!w!v!J!J!<!A!p!I!_!.!> s o | j O T % !!& : , # $ @ @ / $ , , ! ! ! ! ! ! ! ! ! ! ! ! ! ! ! ! ! ! ! ! ! ! ! ! ! ! ! ! ! ! ! ! ! ! ! ! ! ! ! ! ! ! ! ! ! ! ! ! ! !",
" ! ! ! ! ! ! ! ! ! ! ! ! ! ! ! ! ! ! ! ! ! ! ! ! ! ! ! ! ! ! ! ! ! ! ! ! ! ! ! ! ! ! ! ! ! ! ! ! ! ! ! ! ! ! ! ! ! ! ! ! ! ! ! ! ! ! ! ! ! ! ! ! ! ! ! ! ! ! ! ! ! ! ! ! ! ! ! ! ! ! % & $ # ! # $ $ / 0 * b + # & ) < # ! ! Q M _!%!6 y [!3!S!P!#!?!?!?!?!?!?!?!?!?!?!?!?!?!?!?!?!?!?!?!?!?!?!?!?!?!?!?!?!?!?!?!?!?!?!?!?!?!?!?!?!?!?!?!?!?!?!?!?!?!?!?!?!?!?!?!<!<!I!I!L!R!Z!2!3 ] n!6 g W M T @ ! ! ?!5 # + + - - # # % % ! ! ! ! ! ! ! ! ! ! ! ! ! ! ! ! ! ! ! ! ! ! ! ! ! ! ! ! ! ! ! ! ! ! ! ! ! ! ! ! ! ! ! ! ! ! ! ! ! !",
" ! ! ! ! ! ! ! ! ! ! ! ! ! ! ! ! ! ! ! ! ! ! ! ! ! ! ! ! ! ! ! ! ! ! ! ! ! ! ! ! ! ! ! ! ! ! ! ! ! ! ! ! ! ! ! ! ! ! ! ! ! ! ! ! ! ! ! ! ! ! ! ! ! ! ! ! ! ! ! ! ! ! ! ! ! ! ! ! ! ! % & $ # ! # $ $ / @ @ - , ! ! ! #!& F b ! R L _ c | q!$!l!x!9!P!?!?!?!?!?!?!?!?!?!?!?!?!?!?!?!?!?!?!?!?!?!?!?!?!?!?!?!?!?!?!?!?!?!?!?!?!?!?!?!?!?!?!?!?!?!?!?!?!?!?!?!?!?!w!<!<!p!G!A!{!c!9 } n p d W U @ ! 1 I I ! # $ + , , , ! ! % % ! ! ! ! ! ! ! ! ! ! ! ! ! ! ! ! ! ! ! ! ! ! ! ! ! ! ! ! ! ! ! ! ! ! ! ! ! ! ! ! ! ! ! ! ! ! ! ! ! !",
" ! ! ! ! ! ! ! ! ! ! ! ! ! ! ! ! ! ! ! ! ! ! ! ! ! ! ! ! ! ! ! ! ! ! ! ! ! ! ! ! ! ! ! ! ! ! ! ! ! ! ! ! ! ! ! ! ! ! ! ! ! ! ! ! ! ! ! ! ! ! ! ! ! ! ! ! ! ! ! ! ! ! ! ! ! ! ! ! ! ! ! ! # ! ! ! ! ! ! % % ! ! ! ! ! ! & < + ! ! E Q N Y!m#' f!-!S!9!L!Q!B!C!I!w!_!J!q!K!C!:!?!?!?!=!=!=!=!?!?!?!?!?!=!=!?!?!?!?!?!?!?!?!?!?!?!?!?!?!C!C!I!k!f!A!<#%!C!I!?!?!?!i!|# !:!Z!N!-!3 t x!F j P Q E ! ! ! - - ! ! # ! ! ! ! ! ! ! ! ! ! ! ! ! ! ! ! ! ! ! ! ! ! ! ! ! ! ! ! ! ! ! ! ! ! ! ! ! ! ! ! ! ! ! ! ! ! ! ! ! ! ! ! ! ! ! ! ! !",
" ! ! ! ! ! ! ! ! ! ! ! ! ! ! ! ! ! ! ! ! ! ! ! ! ! ! ! ! ! ! ! ! ! ! ! ! ! ! ! ! ! ! ! ! ! ! ! ! ! ! ! ! ! ! ! ! ! ! ! ! ! ! ! ! ! ! ! ! ! ! ! ! ! ! ! ! ! ! ! ! ! ! ! ! ! ! ! ! ! ! ! ! ! ! ! ! ! ! ! ! ! ! ! ! ! , ! ! + 8 R ? $ !!n N z d x g }!K!-!t!k!:!I!w!_!_#!!K!C!:!?!?!A!=!=!=!=!?!?!?!?!?!=!=!?!?!?!?!?!?!?!?!?!?!?!?!?!?!C!C!I!k!l!l!<!K!C!I!?!?!I!A!H!W!K!c!+!D u o e Y O Q ! ! G = ) ! ! ! ! ! ! ! ! ! ! ! ! ! ! ! ! ! ! ! ! ! ! ! ! ! ! ! ! ! ! ! ! ! ! ! ! ! ! ! ! ! ! ! ! ! ! ! ! ! ! ! ! ! ! ! ! ! ! ! ! ! ! !",
" ! ! ! ! ! ! ! ! ! ! ! ! ! ! ! ! ! ! ! ! ! ! ! ! ! ! ! ! ! ! ! ! ! ! ! ! ! ! ! ! ! ! ! ! ! ! ! ! ! ! ! ! ! ! ! ! ! ! ! ! ! ! ! ! ! ! ! ! ! ! ! ! ! ! ! ! ! ! ! ! ! ! ! ! ! ! ! ! ! ! ! ! ! ! ! ! ! ! ! ! ! ! ! ! + . + ! % % * # $ ! % E a V [!6 x!)!3!.!x!{!N!:!h!|!A!A!A!?!?!L!!!A!A!?!P!=!K!<!H!?!A!A!?!?!?!?!?!?!?!?!?!?!?!?!?!?!>!>!K!`!_!R!A!>!=!?!A!P!X!Y!Y!D!/!- ^ t!6!( W M S H ! ! ! ! ! ! ! ! ! ! ! ! ! ! ! ! ! ! ! ! ! ! ! ! ! ! ! ! ! ! ! ! ! ! ! ! ! ! ! ! ! ! ! ! ! ! ! ! ! ! ! ! ! ! ! ! ! ! ! ! ! ! ! ! ! ! ! !",
" ! ! ! ! ! ! ! ! ! ! ! ! ! ! ! ! ! ! ! ! ! ! ! ! ! ! ! ! ! ! ! ! ! ! ! ! ! ! ! ! ! ! ! ! ! ! ! ! ! ! ! ! ! ! ! ! ! ! ! ! ! ! ! ! ! ! ! ! ! ! ! ! ! ! ! ! ! ! ! ! ! ! ! ! ! ! ! ! ! ! ! ! ! ! ! ! ! ! ! ! ! ! ! ! + + ' * % % % ) ? B + ! ! a P Y e x h!) ^!,!9!;!f!h!l!l!A!?!<!a!L!A!A!?!P!=!K!<!H!?!A!A!?!?!?!?!?!?!?!?!?!?!?!?!?!?!G!G!K!`#!!w!A!k# !w!A![!I!Y!s!2 ^ t!( p c _ L S ! ! G A , ! ! ! ! ! ! ! ! ! ! ! ! ! ! ! ! ! ! ! ! ! ! ! ! ! ! ! ! ! ! ! ! ! ! ! ! ! ! ! ! ! ! ! ! ! ! ! ! ! ! ! ! ! ! ! ! ! ! ! ! ! ! ! ! !",
" ! ! ! ! ! ! ! ! ! ! ! ! ! ! ! ! ! ! ! ! ! ! ! ! ! ! ! ! ! ! ! ! ! ! ! ! ! ! ! ! ! ! ! ! ! ! ! ! ! ! ! ! ! ! ! ! ! ! ! ! ! ! ! ! ! ! ! ! ! ! ! ! ! ! ! ! ! ! ! ! ! ! ! ! ! ! ! ! ! ! ! ! ! ! ! ! ! ! ! ! ! ! ! ! ! % @ @ % ! - - % & $ C # ) S M X q!F i!)!-!0!B!G!f!v!v!?!H!<!<!<!?!?!?!?!?!?!?!?!?!?!?!?!?!?!?!?!?!?!?!?!?!?!?!?!?!A!A!?!W!=!>!A!l!v!w!?!y!h!I!E!E!) q!6!% P a G ! $ 7 ! , , ! ! ! ! ! ! ! ! ! ! ! ! ! ! ! ! ! ! ! ! ! ! ! ! ! ! ! ! ! ! ! ! ! ! ! ! ! ! ! ! ! ! ! ! ! ! ! ! ! ! ! ! ! ! ! ! ! ! ! ! ! ! ! ! !",
" ! ! ! ! ! ! ! ! ! ! ! ! ! ! ! ! ! ! ! ! ! ! ! ! ! ! ! ! ! ! ! ! ! ! ! ! ! ! ! ! ! ! ! ! ! ! ! ! ! ! ! ! ! ! ! ! ! ! ! ! ! ! ! ! ! ! ! ! ! ! ! ! ! ! ! ! ! ! ! ! ! ! ! ! ! ! ! ! ! ! ! ! ! ! ! ! ! ! ! ! ! ! ! ! ! % ) ) - , # # - % 7 G ( ! !!n L V c!F!F f ^!S!9!:!_!_!?!A!A!I!K!?!?!?!W!>!>!>!=!=!?!?!?!?!?!?!?!?!?!?!?!?!?!?!?!?!a!a!h!?!J!@!P![!k!W!_!u!t!3!* m!F w z O Q## ! ! < I , ! , ! ! ! ! ! ! ! ! ! ! ! ! ! ! ! ! ! ! ! ! ! ! ! ! ! ! ! ! ! ! ! ! ! ! ! ! ! ! ! ! ! ! ! ! ! ! ! ! ! ! ! ! ! ! ! ! ! ! ! ! ! ! ! ! !",
" ! ! ! ! ! ! ! ! ! ! ! ! ! ! ! ! ! ! ! ! ! ! ! ! ! ! ! ! ! ! ! ! ! ! ! ! ! ! ! ! ! ! ! ! ! ! ! ! ! ! ! ! ! ! ! ! ! ! ! ! ! ! ! ! ! ! ! ! ! ! ! ! ! ! ! ! ! ! ! ! ! ! ! ! ! ! ! ! ! ! ! ! ! ! ! ! ! ! ! ! ! ! ! ! ! ! , , - - $ $ ' - , % *!z!5 ! % Q P [ | y!$!B!~!@!O#!!?!f!f!G!>!A!A!?!W!=!=!=!=!=!?!?!?!?!?!?!?!?!?!?!?!?!?!?!?!?!`!_!i!w!J!J!=![!G!K!^!d!y!C i x e Y M D !#?#? 8 ! % ' ! ! ! ! ! ! ! ! ! ! ! ! ! ! ! ! ! ! ! ! ! ! ! ! ! ! ! ! ! ! ! ! ! ! ! ! ! ! ! ! ! ! ! ! ! ! ! ! ! ! ! ! ! ! ! ! ! ! ! ! ! ! ! ! ! ! !",
" ! ! ! ! ! ! ! ! ! ! ! ! ! ! ! ! ! ! ! ! ! ! ! ! ! ! ! ! ! ! ! ! ! ! ! ! ! ! ! ! ! ! ! ! ! ! ! ! ! ! ! ! ! ! ! ! ! ! ! ! ! ! ! ! ! ! ! ! ! ! ! ! ! ! ! ! ! ! ! ! ! ! ! ! ! ! ! ! ! ! ! ! ! ! ! ! ! ! ! ! ! ! ! ! ! ! # # & % + + + ! % &!& ? b ! !## Q M W r!6 q!)!3!,!9!<!A!k!>!=!A!A!A!?!W!W!W!?!?!?!?!?!?!?!?!?!?!?!?!?!?!?!?!?!?!|!|!u!|# !/!X!C!Z!X!U!3!) o!6!% V K!n ! ! + ?!5 . 4 6 / % ! ! ! ! ! ! ! ! ! ! ! ! ! ! ! ! ! ! ! ! ! ! ! ! ! ! ! ! ! ! ! ! ! ! ! ! ! ! ! ! ! ! ! ! ! ! ! ! ! ! ! ! ! ! ! ! ! ! ! ! ! ! ! ! !",
" ! ! ! ! ! ! ! ! ! ! ! ! ! ! ! ! ! ! ! ! ! ! ! ! ! ! ! ! ! ! ! ! ! ! ! ! ! ! ! ! ! ! ! ! ! ! ! ! ! ! ! ! ! ! ! ! ! ! ! ! ! ! ! ! ! ! ! ! ! ! ! ! ! ! ! ! ! ! ! ! ! ! ! ! ! ! ! ! ! ! ! ! ! ! ! ! ! ! ! ! ! ! ! ! ! ! & / & % 2 2 , ! & / l + , H B!5 ! ! L W c | n!7!M!U!0!P!H!=!=!A!A!A!A!?!?!?!?!?!?!?!?!?!?!?!?!?!?!?!?!?!?!?!?!?!k!h!w!|!y!A!Y!C!8!1!N!7 q | c _ a ! ! D A!&!' 7 . 5 6 / % ! ! ! ! ! ! ! ! ! ! ! ! ! ! ! ! ! ! ! ! ! ! ! ! ! ! ! ! ! ! ! ! ! ! ! ! ! ! ! ! ! ! ! ! ! ! ! ! ! ! ! ! ! ! ! ! ! ! ! ! ! ! ! ! !",
" ! ! ! ! ! ! ! ! ! ! ! ! ! ! ! ! ! ! ! ! ! ! ! ! ! ! ! ! ! ! ! ! ! ! ! ! ! ! ! ! ! ! ! ! ! ! ! ! ! ! ! ! ! ! ! ! ! ! ! ! ! ! ! ! ! ! ! ! ! ! ! ! ! ! ! ! ! ! ! ! ! ! ! ! ! ! ! ! ! ! ! ! ! ! ! ! ! ! ! ! ! ! ! ! ! , 7 l & % , , % / l + # # # / 7 $ ! ! E Q O Y!m!6 f ^!S!E!;!a!?!<!<!?!A!A!A!A!?!?!<!<!?!?!?!?!?!?!?!?!?!?!?!?!w!?!Z!p!=!W!M ~!:!-!3 ^ t!F o z N { R ! ! 8 8 7!'!' , + + # ! ! ! ! ! ! ! ! ! ! ! ! ! ! ! ! ! ! ! ! ! ! ! ! ! ! ! ! ! ! ! ! ! ! ! ! ! ! ! ! ! ! ! ! ! ! ! ! ! ! ! ! ! ! ! ! ! ! ! ! ! ! ! ! ! !",
" ! ! ! ! ! ! ! ! ! ! ! ! ! ! ! ! ! ! ! ! ! ! ! ! ! ! ! ! ! ! ! ! ! ! ! ! ! ! ! ! ! ! ! ! ! ! ! ! ! ! ! ! ! ! ! ! ! ! ! ! ! ! ! ! ! ! ! ! ! ! ! ! ! ! ! ! ! ! ! ! ! ! ! ! ! ! ! ! ! ! ! ! ! ! ! ! ! ! ! ! ! ! ! ! ! , 7 l & % , , & / 7 , ! #!' $ $!& F B ! ! T N X d p n s!1!U!E!G!W!<!H!?!A!A!A!?!?!H!H!?!?!?!?!?!?!?!?!?!?!?!?!w!?!Y!Y!X!K!Z!9!2!O s n x d X N T ! ! F B - - '!'!' # , , ! ! ! ! ! ! ! ! ! ! ! ! ! ! ! ! ! ! ! ! ! ! ! ! ! ! ! ! ! ! ! ! ! ! ! ! ! ! ! ! ! ! ! ! ! ! ! ! ! ! ! ! ! ! ! ! ! ! ! ! ! ! ! ! ! ! !",
" ! ! ! ! ! ! ! ! ! ! ! ! ! ! ! ! ! ! ! ! ! ! ! ! ! ! ! ! ! ! ! ! ! ! ! ! ! ! ! ! ! ! ! ! ! ! ! ! ! ! ! ! ! ! ! ! ! ! ! ! ! ! ! ! ! ! ! ! ! ! ! ! ! ! ! ! ! ! ! ! ! ! ! ! ! ! ! ! ! ! ! ! ! ! ! ! ! ! ! ! ! ! ! ! - ' / $ + , ! # $ & % ! ! / 3 & % , - , ! ! @ E K V!$#' y [!3!2!B!=!W!H!H!?!A!A!A!A!A!A!?!?!?!?!?!?!?!?!?!?!?!?!?!?!J!J!H!A!s!S!3 [ y#' f V K E * # $ / & ! ! ! ' 7 $ # ! ! ! ! ! ! ! ! ! ! ! ! ! ! ! ! ! ! ! ! ! ! ! ! ! ! ! ! ! ! ! ! ! ! ! ! ! ! ! ! ! ! ! ! ! ! ! ! ! ! ! ! ! ! ! ! ! ! ! ! ! ! ! ! ! ! ! !",
" ! ! ! ! ! ! ! ! ! ! ! ! ! ! ! ! ! ! ! ! ! ! ! ! ! ! ! ! ! ! ! ! ! ! ! ! ! ! ! ! ! ! ! ! ! ! ! ! ! ! ! ! ! ! ! ! ! ! ! ! ! ! ! ! ! ! ! ! ! ! ! ! ! ! ! ! ! ! ! ! ! ! ! ! ! ! ! ! ! ! ! ! ! ! ! ! ! ! ! ! ! ! ! ! - ' 0 & 4 4 # # # & & ! ! ' 7 & & , ! , A A ! ! @ a P z f p!( m!) ^!,!2!9!P!?!a!L!L!A!A!?!H!H!?!?!?!?!?!H!H!?!?!?!>!.!-!U!+ ]!$ n!T n Y V K## ! ! > ? # # ! + , ' 7 # & % # # # ! ! ! ! ! ! ! ! ! ! ! ! ! ! ! ! ! ! ! ! ! ! ! ! ! ! ! ! ! ! ! ! ! ! ! ! ! ! ! ! ! ! ! ! ! ! ! ! ! ! ! ! ! ! ! ! ! ! ! ! ! ! ! !",
" ! ! ! ! ! ! ! ! ! ! ! ! ! ! ! ! ! ! ! ! ! ! ! ! ! ! ! ! ! ! ! ! ! ! ! ! ! ! ! ! ! ! ! ! ! ! ! ! ! ! ! ! ! ! ! ! ! ! ! ! ! ! ! ! ! ! ! ! ! ! ! ! ! ! ! ! ! ! ! ! ! ! ! ! ! ! ! ! ! ! ! ! ! ! ! ! ! ! ! ! ! ! ! ! ! % ) )!' 6 # ! ! # $ # ! , + $ $ ! ! ! % % ( + : % D L X f!6!T t!)!9!t!f!A!a!_!a!?!>!>!?!?!?!?!?!?!?!?!?!?!?!?!?!?!v!x![!a t o!6 v Y M S - ( ! - ! ! ! ! ! . . $ # ! % % $ $ # ! ! ! ! ! ! ! ! ! ! ! ! ! ! ! ! ! ! ! ! ! ! ! ! ! ! ! ! ! ! ! ! ! ! ! ! ! ! ! ! ! ! ! ! ! ! ! ! ! ! ! ! ! ! ! ! ! ! ! ! ! ! ! !",
" ! ! ! ! ! ! ! ! ! ! ! ! ! ! ! ! ! ! ! ! ! ! ! ! ! ! ! ! ! ! ! ! ! ! ! ! ! ! ! ! ! ! ! ! ! ! ! ! ! ! ! ! ! ! ! ! ! ! ! ! ! ! ! ! ! ! ! ! ! ! ! ! ! ! ! ! ! ! ! ! ! ! ! ! ! ! ! ! ! ! ! ! ! ! ! ! ! ! ! ! ! ! ! ! ! ! - - / $ # ! ! ! # # ! , , # # ! ! ! ! % 9 < 8 ! ! S U O X!% q x o n!$ ]!*!.!+!,!,!,!U!+!+!U!1!-!-!+!+!,!3 ^ ^ ]!$ n y!T w t X P L!n ! ! 2!z H ! ! ! ! ! + + # ! ! % % # # # ! ! ! ! ! ! ! ! ! ! ! ! ! ! ! ! ! ! ! ! ! ! ! ! ! ! ! ! ! ! ! ! ! ! ! ! ! ! ! ! ! ! ! ! ! ! ! ! ! ! ! ! ! ! ! ! ! ! ! ! ! ! ! !",
" ! ! ! ! ! ! ! ! ! ! ! ! ! ! ! ! ! ! ! ! ! ! ! ! ! ! ! ! ! ! ! ! ! ! ! ! ! ! ! ! ! ! ! ! ! ! ! ! ! ! ! ! ! ! ! ! ! ! ! ! ! ! ! ! ! ! ! ! ! ! ! ! ! ! ! ! ! ! ! ! ! ! ! ! ! ! ! ! ! ! ! ! ! ! ! ! ! ! ! ! ! ! ! ! ! ! ! ! ! ! ! ! ! ! ! ! ! ! ! ! ! ! ! ! ! ! ! ! ! 9 = ! ! E U k Z!% e!T n m!7 } }!#!# ~!  ~!;!#!# }! !  } } } }!7!$ n x e d Z k L S ! ! B 9 ) @ * ! ! ! ! ! ! ! ! ! ! ! ! ! ! ! ! ! ! ! ! ! ! ! ! ! ! ! ! ! ! ! ! ! ! ! ! ! ! ! ! ! ! ! ! ! ! ! ! ! ! ! ! ! ! ! ! ! ! ! ! ! ! ! ! ! ! ! ! ! ! ! ! ! ! ! ! ! ! !",
" ! ! ! ! ! ! ! ! ! ! ! ! ! ! ! ! ! ! ! ! ! ! ! ! ! ! ! ! ! ! ! ! ! ! ! ! ! ! ! ! ! ! ! ! ! ! ! ! ! ! ! ! ! ! ! ! ! ! ! ! ! ! ! ! ! ! ! ! ! ! ! ! ! ! ! ! ! ! ! ! ! ! ! ! ! ! ! ! ! ! ! ! ! ! ! ! ! ! ! ! ! ! ! ! ! ! ! ! ! ! ! ! ! ! ! ! ! ! ! ! ! ! ! ! ! ! ! ! ! ) 9 ! ! ! E Q U O _ Y s v n w o p x!( v r r g g g n q w o o w n h s Y _ O L a S ! ! ! : 8 ' & % ! ! ! ! ! ! ! ! ! ! ! ! ! ! ! ! ! ! ! ! ! ! ! ! ! ! ! ! ! ! ! ! ! ! ! ! ! ! ! ! ! ! ! ! ! ! ! ! ! ! ! ! ! ! ! ! ! ! ! ! ! ! ! ! ! ! ! ! ! ! ! ! ! ! ! ! ! ! !",
" ! ! ! ! ! ! ! ! ! ! ! ! ! ! ! ! ! ! ! ! ! ! ! ! ! ! ! ! ! ! ! ! ! ! ! ! ! ! ! ! ! ! ! ! ! ! ! ! ! ! ! ! ! ! ! ! ! ! ! ! ! ! ! ! ! ! ! ! ! ! ! ! ! ! ! ! ! ! ! ! ! ! ! ! ! ! ! ! ! ! ! ! ! ! ! ! ! ! ! ! ! ! ! ! ! ! ! ! ! ! ! ! ! ! ! ! ! ! ! ! ! ! ! ! ! ! ! ! ! ! ! H A B ! ! ! S K O _ Y Y j c d d e f f v g g g f e d d c j Y Y k O U!n ! ! # ? A 9 , ! # 6 $ ! ! ! ! ! ! ! ! ! ! ! ! ! ! ! ! ! ! ! ! ! ! ! ! ! ! ! ! ! ! ! ! ! ! ! ! ! ! ! ! ! ! ! ! ! ! ! ! ! ! ! ! ! ! ! ! ! ! ! ! ! ! ! ! ! ! ! ! ! ! ! ! ! ! ! ! ! ! !",
" ! ! ! ! ! ! ! ! ! ! ! ! ! ! ! ! ! ! ! ! ! ! ! ! ! ! ! ! ! ! ! ! ! ! ! ! ! ! ! ! ! ! ! ! ! ! ! ! ! ! ! ! ! ! ! ! ! ! ! ! ! ! ! ! ! ! ! ! ! ! ! ! ! ! ! ! ! ! ! ! ! ! ! ! ! ! ! ! ! ! ! ! ! ! ! ! ! ! ! ! ! ! ! ! ! ! ! ! ! ! ! ! ! ! ! ! ! ! ! ! ! ! ! ! ! ! ! ! ! ! ! % - 4 $ ! ! ! D!n { a U M O V _ X z Y Y Y Y Y Y X _ V O M U a Q!n!] # ! ! ! ! - - ! ! #!'!' ! ! ! ! ! ! ! ! ! ! ! ! ! ! ! ! ! ! ! ! ! ! ! ! ! ! ! ! ! ! ! ! ! ! ! ! ! ! ! ! ! ! ! ! ! ! ! ! ! ! ! ! ! ! ! ! ! ! ! ! ! ! ! ! ! ! ! ! ! ! ! ! ! ! ! ! ! ! !",
" ! ! ! ! ! ! ! ! ! ! ! ! ! ! ! ! ! ! ! ! ! ! ! ! ! ! ! ! ! ! ! ! ! ! ! ! ! ! ! ! ! ! ! ! ! ! ! ! ! ! ! ! ! ! ! ! ! ! ! ! ! ! ! ! ! ! ! ! ! ! ! ! ! ! ! ! ! ! ! ! ! ! ! ! ! ! ! ! ! ! ! ! ! ! ! ! ! ! ! ! ! ! ! ! ! ! ! ! ! ! ! ! ! ! ! ! ! ! ! ! ! ! ! ! ! ! ! ! ! ! ! ! ! 7 ? R G ) ! ! ! ! % S Q a U M N N N N N N N M L K Q S ! ! ! ! !#? G G I % ! ! ! ! !!' / ! ! ! ! ! ! ! ! ! ! ! ! ! ! ! ! ! ! ! ! ! ! ! ! ! ! ! ! ! ! ! ! ! ! ! ! ! ! ! ! ! ! ! ! ! ! ! ! ! ! ! ! ! ! ! ! ! ! ! ! ! ! ! ! ! ! ! ! ! ! ! ! ! ! ! ! ! ! !",
" ! ! ! ! ! ! ! ! ! ! ! ! ! ! ! ! ! ! ! ! ! ! ! ! ! ! ! ! ! ! ! ! ! ! ! ! ! ! ! ! ! ! ! ! ! ! ! ! ! ! ! ! ! ! ! ! ! ! ! ! ! ! ! ! ! ! ! ! ! ! ! ! ! ! ! ! ! ! ! ! ! ! ! ! ! ! ! ! ! ! ! ! ! ! ! ! ! ! ! ! ! ! ! ! ! ! ! ! ! ! ! ! ! ! ! ! ! ! ! ! ! ! ! ! ! ! ! ! ! ! ! ! ! ! ! ! ! ! ! # ! ! ! % C A F D D D D E E D!]!] D G I ! ! ! ! ! ! ! % % ! ! ! ! ! , , ! ! ! ! ! ! ! ! ! ! ! ! ! ! ! ! ! ! ! ! ! ! ! ! ! ! ! ! ! ! ! ! ! ! ! ! ! ! ! ! ! ! ! ! ! ! ! ! ! ! ! ! ! ! ! ! ! ! ! ! ! ! ! ! ! ! ! ! ! ! ! ! ! ! ! ! ! ! ! ! !",
" ! ! ! ! ! ! ! ! ! ! ! ! ! ! ! ! ! ! ! ! ! ! ! ! ! ! ! ! ! ! ! ! ! ! ! ! ! ! ! ! ! ! ! ! ! ! ! ! ! ! ! ! ! ! ! ! ! ! ! ! ! ! ! ! ! ! ! ! ! ! ! ! ! ! ! ! ! ! ! ! ! ! ! ! ! ! ! ! ! ! ! ! ! ! ! ! ! ! ! ! ! ! ! ! ! ! ! ! ! ! ! ! ! ! ! ! ! ! ! ! ! ! ! ! ! ! ! ! ! ! ! ! ! ! ! ! ! - : G G = 8 ! ! ! ! ! ! ! ! ! ! ! ! ! ! ! ! ! ( > A = H % - - ! % % % % + + ! ! ! ! ! ! ! ! ! ! ! ! ! ! ! ! ! ! ! ! ! ! ! ! ! ! ! ! ! ! ! ! ! ! ! ! ! ! ! ! ! ! ! ! ! ! ! ! ! ! ! ! ! ! ! ! ! ! ! ! ! ! ! ! ! ! ! ! ! ! ! ! ! ! ! ! ! ! ! ! !",
" ! ! ! ! ! ! ! ! ! ! ! ! ! ! ! ! ! ! ! ! ! ! ! ! ! ! ! ! ! ! ! ! ! ! ! ! ! ! ! ! ! ! ! ! ! ! ! ! ! ! ! ! ! ! ! ! ! ! ! ! ! ! ! ! ! ! ! ! ! ! ! ! ! ! ! ! ! ! ! ! ! ! ! ! ! ! ! ! ! ! ! ! ! ! ! ! ! ! ! ! ! ! ! ! ! ! ! ! ! ! ! ! ! ! ! ! ! ! ! ! ! ! ! ! ! ! ! ! ! ! ! ! ! ! ! ! ! ! , . . , , , ! ! / / ! ! ' b . , ! ! ! ! ! ! # $ $ $ ! ! , , ! & 0 % % / / , , ! ! ! ! ! ! ! ! ! ! ! ! ! ! ! ! ! ! ! ! ! ! ! ! ! ! ! ! ! ! ! ! ! ! ! ! ! ! ! ! ! ! ! ! ! ! ! ! ! ! ! ! ! ! ! ! ! ! ! ! ! ! ! ! ! ! ! ! ! ! ! ! ! ! ! ! ! ! !",
" ! ! ! ! ! ! ! ! ! ! ! ! ! ! ! ! ! ! ! ! ! ! ! ! ! ! ! ! ! ! ! ! ! ! ! ! ! ! ! ! ! ! ! ! ! ! ! ! ! ! ! ! ! ! ! ! ! ! ! ! ! ! ! ! ! ! ! ! ! ! ! ! ! ! ! ! ! ! ! ! ! ! ! ! ! ! ! ! ! ! ! ! ! ! ! ! ! ! ! ! ! ! ! ! ! ! ! ! ! ! ! ! ! ! ! ! ! ! ! ! ! ! ! ! ! ! ! ! ! ! ! ! ! # # ! ! ! + 4 + - - - ( ( <!z <!z = = = = I 9 9 9 8 - % & & & , , ! # # $ / % % & & - - ! ! ! ! ! ! ! ! ! ! ! ! ! ! ! ! ! ! ! ! ! ! ! ! ! ! ! ! ! ! ! ! ! ! ! ! ! ! ! ! ! ! ! ! ! ! ! ! ! ! ! ! ! ! ! ! ! ! ! ! ! ! ! ! ! ! ! ! ! ! ! ! ! ! ! ! ! ! !",
" ! ! ! ! ! ! ! ! ! ! ! ! ! ! ! ! ! ! ! ! ! ! ! ! ! ! ! ! ! ! ! ! ! ! ! ! ! ! ! ! ! ! ! ! ! ! ! ! ! ! ! ! ! ! ! ! ! ! ! ! ! ! ! ! ! ! ! ! ! ! ! ! ! ! ! ! ! ! ! ! ! ! ! ! ! ! ! ! ! ! ! ! ! ! ! ! ! ! ! ! ! ! ! ! ! ! ! ! ! ! ! ! ! ! ! ! ! ! ! ! ! ! ! ! ! ! ! ! ! ! ! ! ! # $ # ! , + $ & % % ! $ $ % % ' ' % % % % % ! ! , , ! % % % % , , ! # $ $ $ # ! % % - - ! ! ! ! ! ! ! ! ! ! ! ! ! ! ! ! ! ! ! ! ! ! ! ! ! ! ! ! ! ! ! ! ! ! ! ! ! ! ! ! ! ! ! ! ! ! ! ! ! ! ! ! ! ! ! ! ! ! ! ! ! ! ! ! ! ! ! ! ! ! ! ! ! ! ! ! ! ! !",
" ! ! ! ! ! ! ! ! ! ! ! ! ! ! ! ! ! ! ! ! ! ! ! ! ! ! ! ! ! ! ! ! ! ! ! ! ! ! ! ! ! ! ! ! ! ! ! ! ! ! ! ! ! ! ! ! ! ! ! ! ! ! ! ! ! ! ! ! ! ! ! ! ! ! ! ! ! ! ! ! ! ! ! ! ! ! ! ! ! ! ! ! ! ! ! ! ! ! ! ! ! ! ! ! ! ! ! ! ! ! ! ! ! ! ! ! ! ! ! ! ! ! ! ! ! ! ! ! ! ! ! ! ! ! & / / + , + - % ! ! / / # ! , , ! # # 7 7 $ # ! # # # # # ! ! ! , , # & ' 4 + # # 4 + ! ! ! ! ! ! ! ! ! ! ! ! ! ! ! ! ! ! ! ! ! ! ! ! ! ! ! ! ! ! ! ! ! ! ! ! ! ! ! ! ! ! ! ! ! ! ! ! ! ! ! ! ! ! ! ! ! ! ! ! ! ! ! ! ! ! ! ! ! ! ! ! ! ! ! ! ! ! !",
" ! ! ! ! ! ! ! ! ! ! ! ! ! ! ! ! ! ! ! ! ! ! ! ! ! ! ! ! ! ! ! ! ! ! ! ! ! ! ! ! ! ! ! ! ! ! ! ! ! ! ! ! ! ! ! ! ! ! ! ! ! ! ! ! ! ! ! ! ! ! ! ! ! ! ! ! ! ! ! ! ! ! ! ! ! ! ! ! ! ! ! ! ! ! ! ! ! ! ! ! ! ! ! ! ! ! ! ! ! ! ! ! ! ! ! ! ! ! ! ! ! ! ! ! ! ! ! ! ! ! ! ! ! ! % 3 3 + , , - % ! ! / / # ! , , ! # $ l l 6 # ! # $ $ $ # ! ! ! , , ! % ' 4 4 $ $ 5 4 ! ! ! ! ! ! ! ! ! ! ! ! ! ! ! ! ! ! ! ! ! ! ! ! ! ! ! ! ! ! ! ! ! ! ! ! ! ! ! ! ! ! ! ! ! ! ! ! ! ! ! ! ! ! ! ! ! ! ! ! ! ! ! ! ! ! ! ! ! ! ! ! ! ! ! ! ! ! !",
"                                                                                                                                                                                                                                                                                                                                                                                                                                                                                                                                ",
"                                                                                                                                                                                                                                                                                                                                                                                                                                                                                                                                ",
"                                                                                                                                                                                                                                                                                                                                                                                                                                                                                                                                ",
"                                                                                                                                                                                                                                                                                                                                                                                                                                                                                                                                ",
"                                                                                                                                                                                                                                                                                                                                                                                                                                                                                                                                ",
"                                                                                                                                                                                                                                                                                                                                                                                                                                                                                                                                ",
"                                                                                                                                                                                                                                                                                                                                                                                                                                                                                                                                ",
"                                                                                                                                                                                                                                                                                                                                                                                                                                                                                                                                ",
"                                                                                                                                                                                                                                                                                                                                                                                                                                                                                                                                ",
"                                                                                                                                                                                                                                                                                                                                                                                                                                                                                                                                ",
"                                                                                                                                                                                                                                                                                                                                                                                                                                                                                                                                ",
"                                                                                                                                                                                                                                                                                                                                                                                                                                                                                                                                ",
"                                                                                                                                                                                                                                                                                                                                                                                                                                                                                                                                ",
"                                                                                                                                                                                                                                                                                                                                                                                                                                                                                                                                ",
"                                                                                                                                                                                                                                                                                                                                                                                                                                                                                                                                ",
"                                                                                                                                                                                                                                                                                                                                                                                                                                                                                                                                ",
"                                                                                                                                                                                                                                                                                                                                                                                                                                                                                                                                ",
"                                                                                                                                                                                                                                                                                                                                                                                                                                                                                                                                ",
"                                                                                                                                                                                                                                                                                                                                                                                                                                                                                                                                ",
"                                                                                                                                                                                                                                                                                                                                                                                                                                                                                                                                ",
"                                                                                                                                                                                                                                                                                                                                                                                                                                                                                                                                ",
"                                                                                                                                                                                                                                                                                                                                                                                                                                                                                                                                ",
"                                                                                                                                                                                                                                                                                                                                                                                                                                                                                                                                ",
"                                                                                                                                                                                                                                                                                                                                                                                                                                                                                                                                ",
"                                                                                                                                                                                                                                                                                                                                                                                                                                                                                                                                ",
"                                                                                                                                                                                                                                                                                                                                                                                                                                                                                                                                ",
"                                                                                                                                                                                                                                                                                                                                                                                                                                                                                                                                ",
"                                                                                                                                                                                                                                                                                                                                                                                                                                                                                                                                ",
"                                                                                                                                                                                                                                                                                                                                                                                                                                                                                                                                ",
"                                                                                                                                                                                                                                                                                                                                                                                                                                                                                                                                ",
"                                                                                                                                                                                                                                                                                                                                                                                                                                                                                                                                ",
"                                                                                                                                                                                                                                                                                                                                                                                                                                                                                                                                ",
"                                                                                                                                                                                                                                                                                                                                                                                                                                                                                                                                ",
"                                                                                                                                                                                                                                                                                                                                                                                                                                                                                                                                ",
"                                                                                                                                                                                                                                                                                                                                                                                                                                                                                                                                ",
"                                                                                                                                                                                                                                                                                                                                                                                                                                                                                                                                ",
"                                                                                                                                                                                                                                                                                                                                                                                                                                                                                                                                ",
"                                                                                                                                                                                                                                                                                                                                                                                                                                                                                                                                ",
"                                                                                                                                                                                                                                                                                                                                                                                                                                                                                                                                ",
"                                                                                                                                                                                                                                                                                                                                                                                                                                                                                                                                ",
"                                                                                                                                                                                                                                                                                                                                                                                                                                                                                                                                ",
"                                                                                                                                                                                                                                                                                                                                                                                                                                                                                                                                ",
"                                                                                                                                                                                                                                                                                                                                                                                                                                                                                                                                ",
"                                                                                                                                                                                                                                                                                                                                                                                                                                                                                                                                ",
"                                                                                                                                                                                                                                                                                                                                                                                                                                                                                                                                "
};
